DSAA
125 95
0.0 124
0.0 94
-4.008568 6.094077 
170141000918782798866653488190622531584.00
170141000918782798866653488190622531584.00
170141000918782798866653488190622531584.00
170141000918782798866653488190622531584.00
170141000918782798866653488190622531584.00
170141000918782798866653488190622531584.00
170141000918782798866653488190622531584.00
170141000918782798866653488190622531584.00
170141000918782798866653488190622531584.00
170141000918782798866653488190622531584.00
170141000918782798866653488190622531584.00
170141000918782798866653488190622531584.00
170141000918782798866653488190622531584.00
170141000918782798866653488190622531584.00
170141000918782798866653488190622531584.00
170141000918782798866653488190622531584.00
170141000918782798866653488190622531584.00
170141000918782798866653488190622531584.00
170141000918782798866653488190622531584.00
170141000918782798866653488190622531584.00
170141000918782798866653488190622531584.00
170141000918782798866653488190622531584.00
170141000918782798866653488190622531584.00
170141000918782798866653488190622531584.00
170141000918782798866653488190622531584.00
170141000918782798866653488190622531584.00
170141000918782798866653488190622531584.00
170141000918782798866653488190622531584.00
170141000918782798866653488190622531584.00
170141000918782798866653488190622531584.00
170141000918782798866653488190622531584.00
170141000918782798866653488190622531584.00
170141000918782798866653488190622531584.00
170141000918782798866653488190622531584.00
170141000918782798866653488190622531584.00
170141000918782798866653488190622531584.00
170141000918782798866653488190622531584.00
170141000918782798866653488190622531584.00
170141000918782798866653488190622531584.00
170141000918782798866653488190622531584.00
170141000918782798866653488190622531584.00
170141000918782798866653488190622531584.00
170141000918782798866653488190622531584.00
170141000918782798866653488190622531584.00
170141000918782798866653488190622531584.00
170141000918782798866653488190622531584.00
170141000918782798866653488190622531584.00
170141000918782798866653488190622531584.00
170141000918782798866653488190622531584.00
170141000918782798866653488190622531584.00
170141000918782798866653488190622531584.00
170141000918782798866653488190622531584.00
170141000918782798866653488190622531584.00
170141000918782798866653488190622531584.00
170141000918782798866653488190622531584.00
170141000918782798866653488190622531584.00
170141000918782798866653488190622531584.00
170141000918782798866653488190622531584.00
170141000918782798866653488190622531584.00
170141000918782798866653488190622531584.00
170141000918782798866653488190622531584.00
170141000918782798866653488190622531584.00
170141000918782798866653488190622531584.00
170141000918782798866653488190622531584.00
170141000918782798866653488190622531584.00
170141000918782798866653488190622531584.00
170141000918782798866653488190622531584.00
170141000918782798866653488190622531584.00
170141000918782798866653488190622531584.00
170141000918782798866653488190622531584.00
170141000918782798866653488190622531584.00
170141000918782798866653488190622531584.00
170141000918782798866653488190622531584.00
170141000918782798866653488190622531584.00
170141000918782798866653488190622531584.00
170141000918782798866653488190622531584.00
170141000918782798866653488190622531584.00
170141000918782798866653488190622531584.00
170141000918782798866653488190622531584.00
170141000918782798866653488190622531584.00
170141000918782798866653488190622531584.00
170141000918782798866653488190622531584.00
170141000918782798866653488190622531584.00
170141000918782798866653488190622531584.00
170141000918782798866653488190622531584.00
170141000918782798866653488190622531584.00
170141000918782798866653488190622531584.00
170141000918782798866653488190622531584.00
170141000918782798866653488190622531584.00
170141000918782798866653488190622531584.00
170141000918782798866653488190622531584.00
170141000918782798866653488190622531584.00
170141000918782798866653488190622531584.00
170141000918782798866653488190622531584.00
170141000918782798866653488190622531584.00
170141000918782798866653488190622531584.00
170141000918782798866653488190622531584.00
170141000918782798866653488190622531584.00
170141000918782798866653488190622531584.00
170141000918782798866653488190622531584.00
170141000918782798866653488190622531584.00
170141000918782798866653488190622531584.00
170141000918782798866653488190622531584.00
170141000918782798866653488190622531584.00
170141000918782798866653488190622531584.00
170141000918782798866653488190622531584.00
170141000918782798866653488190622531584.00
170141000918782798866653488190622531584.00
170141000918782798866653488190622531584.00
170141000918782798866653488190622531584.00
170141000918782798866653488190622531584.00
170141000918782798866653488190622531584.00
170141000918782798866653488190622531584.00
170141000918782798866653488190622531584.00
170141000918782798866653488190622531584.00
170141000918782798866653488190622531584.00
170141000918782798866653488190622531584.00
170141000918782798866653488190622531584.00
170141000918782798866653488190622531584.00
170141000918782798866653488190622531584.00
170141000918782798866653488190622531584.00
170141000918782798866653488190622531584.00
170141000918782798866653488190622531584.00
170141000918782798866653488190622531584.00
170141000918782798866653488190622531584.00
170141000918782798866653488190622531584.00
170141000918782798866653488190622531584.00
170141000918782798866653488190622531584.00
170141000918782798866653488190622531584.00
170141000918782798866653488190622531584.00
170141000918782798866653488190622531584.00
170141000918782798866653488190622531584.00
170141000918782798866653488190622531584.00
170141000918782798866653488190622531584.00
170141000918782798866653488190622531584.00
170141000918782798866653488190622531584.00
170141000918782798866653488190622531584.00
170141000918782798866653488190622531584.00
170141000918782798866653488190622531584.00
170141000918782798866653488190622531584.00
170141000918782798866653488190622531584.00
170141000918782798866653488190622531584.00
170141000918782798866653488190622531584.00
170141000918782798866653488190622531584.00
170141000918782798866653488190622531584.00
170141000918782798866653488190622531584.00
170141000918782798866653488190622531584.00
170141000918782798866653488190622531584.00
170141000918782798866653488190622531584.00
170141000918782798866653488190622531584.00
170141000918782798866653488190622531584.00
170141000918782798866653488190622531584.00
170141000918782798866653488190622531584.00
170141000918782798866653488190622531584.00
170141000918782798866653488190622531584.00
170141000918782798866653488190622531584.00
170141000918782798866653488190622531584.00
170141000918782798866653488190622531584.00
170141000918782798866653488190622531584.00
170141000918782798866653488190622531584.00
170141000918782798866653488190622531584.00
170141000918782798866653488190622531584.00
170141000918782798866653488190622531584.00
170141000918782798866653488190622531584.00
170141000918782798866653488190622531584.00
170141000918782798866653488190622531584.00
170141000918782798866653488190622531584.00
170141000918782798866653488190622531584.00
170141000918782798866653488190622531584.00
170141000918782798866653488190622531584.00
170141000918782798866653488190622531584.00
170141000918782798866653488190622531584.00
170141000918782798866653488190622531584.00
170141000918782798866653488190622531584.00
170141000918782798866653488190622531584.00
170141000918782798866653488190622531584.00
170141000918782798866653488190622531584.00
170141000918782798866653488190622531584.00
170141000918782798866653488190622531584.00
170141000918782798866653488190622531584.00
170141000918782798866653488190622531584.00
170141000918782798866653488190622531584.00
170141000918782798866653488190622531584.00
170141000918782798866653488190622531584.00
170141000918782798866653488190622531584.00
170141000918782798866653488190622531584.00
170141000918782798866653488190622531584.00
170141000918782798866653488190622531584.00
170141000918782798866653488190622531584.00
170141000918782798866653488190622531584.00
170141000918782798866653488190622531584.00
170141000918782798866653488190622531584.00
170141000918782798866653488190622531584.00
170141000918782798866653488190622531584.00
170141000918782798866653488190622531584.00
170141000918782798866653488190622531584.00
170141000918782798866653488190622531584.00
170141000918782798866653488190622531584.00
170141000918782798866653488190622531584.00
170141000918782798866653488190622531584.00
170141000918782798866653488190622531584.00
170141000918782798866653488190622531584.00
170141000918782798866653488190622531584.00
170141000918782798866653488190622531584.00
170141000918782798866653488190622531584.00
170141000918782798866653488190622531584.00
170141000918782798866653488190622531584.00
170141000918782798866653488190622531584.00
170141000918782798866653488190622531584.00
170141000918782798866653488190622531584.00
170141000918782798866653488190622531584.00
170141000918782798866653488190622531584.00
170141000918782798866653488190622531584.00
170141000918782798866653488190622531584.00
170141000918782798866653488190622531584.00
170141000918782798866653488190622531584.00
170141000918782798866653488190622531584.00
170141000918782798866653488190622531584.00
170141000918782798866653488190622531584.00
170141000918782798866653488190622531584.00
170141000918782798866653488190622531584.00
170141000918782798866653488190622531584.00
170141000918782798866653488190622531584.00
170141000918782798866653488190622531584.00
170141000918782798866653488190622531584.00
170141000918782798866653488190622531584.00
170141000918782798866653488190622531584.00
170141000918782798866653488190622531584.00
170141000918782798866653488190622531584.00
170141000918782798866653488190622531584.00
170141000918782798866653488190622531584.00
170141000918782798866653488190622531584.00
170141000918782798866653488190622531584.00
170141000918782798866653488190622531584.00
170141000918782798866653488190622531584.00
170141000918782798866653488190622531584.00
170141000918782798866653488190622531584.00
170141000918782798866653488190622531584.00
170141000918782798866653488190622531584.00
170141000918782798866653488190622531584.00
170141000918782798866653488190622531584.00
170141000918782798866653488190622531584.00
170141000918782798866653488190622531584.00
170141000918782798866653488190622531584.00
170141000918782798866653488190622531584.00
170141000918782798866653488190622531584.00
170141000918782798866653488190622531584.00
170141000918782798866653488190622531584.00
170141000918782798866653488190622531584.00
170141000918782798866653488190622531584.00
170141000918782798866653488190622531584.00
170141000918782798866653488190622531584.00
170141000918782798866653488190622531584.00
170141000918782798866653488190622531584.00
170141000918782798866653488190622531584.00
170141000918782798866653488190622531584.00
170141000918782798866653488190622531584.00
170141000918782798866653488190622531584.00
170141000918782798866653488190622531584.00
170141000918782798866653488190622531584.00
170141000918782798866653488190622531584.00
170141000918782798866653488190622531584.00
170141000918782798866653488190622531584.00
170141000918782798866653488190622531584.00
170141000918782798866653488190622531584.00
170141000918782798866653488190622531584.00
170141000918782798866653488190622531584.00
170141000918782798866653488190622531584.00
170141000918782798866653488190622531584.00
170141000918782798866653488190622531584.00
170141000918782798866653488190622531584.00
170141000918782798866653488190622531584.00
170141000918782798866653488190622531584.00
170141000918782798866653488190622531584.00
170141000918782798866653488190622531584.00
170141000918782798866653488190622531584.00
170141000918782798866653488190622531584.00
170141000918782798866653488190622531584.00
170141000918782798866653488190622531584.00
170141000918782798866653488190622531584.00
170141000918782798866653488190622531584.00
170141000918782798866653488190622531584.00
170141000918782798866653488190622531584.00
170141000918782798866653488190622531584.00
170141000918782798866653488190622531584.00
170141000918782798866653488190622531584.00
170141000918782798866653488190622531584.00
170141000918782798866653488190622531584.00
170141000918782798866653488190622531584.00
170141000918782798866653488190622531584.00
170141000918782798866653488190622531584.00
170141000918782798866653488190622531584.00
170141000918782798866653488190622531584.00
170141000918782798866653488190622531584.00
170141000918782798866653488190622531584.00
170141000918782798866653488190622531584.00
170141000918782798866653488190622531584.00
170141000918782798866653488190622531584.00
170141000918782798866653488190622531584.00
170141000918782798866653488190622531584.00
170141000918782798866653488190622531584.00
170141000918782798866653488190622531584.00
170141000918782798866653488190622531584.00
170141000918782798866653488190622531584.00
170141000918782798866653488190622531584.00
170141000918782798866653488190622531584.00
170141000918782798866653488190622531584.00
170141000918782798866653488190622531584.00
170141000918782798866653488190622531584.00
170141000918782798866653488190622531584.00
170141000918782798866653488190622531584.00
170141000918782798866653488190622531584.00
170141000918782798866653488190622531584.00
170141000918782798866653488190622531584.00
170141000918782798866653488190622531584.00
170141000918782798866653488190622531584.00
170141000918782798866653488190622531584.00
170141000918782798866653488190622531584.00
170141000918782798866653488190622531584.00
170141000918782798866653488190622531584.00
170141000918782798866653488190622531584.00
170141000918782798866653488190622531584.00
170141000918782798866653488190622531584.00
170141000918782798866653488190622531584.00
170141000918782798866653488190622531584.00
170141000918782798866653488190622531584.00
170141000918782798866653488190622531584.00
170141000918782798866653488190622531584.00
170141000918782798866653488190622531584.00
170141000918782798866653488190622531584.00
170141000918782798866653488190622531584.00
170141000918782798866653488190622531584.00
170141000918782798866653488190622531584.00
170141000918782798866653488190622531584.00
170141000918782798866653488190622531584.00
170141000918782798866653488190622531584.00
170141000918782798866653488190622531584.00
170141000918782798866653488190622531584.00
170141000918782798866653488190622531584.00
170141000918782798866653488190622531584.00
170141000918782798866653488190622531584.00
170141000918782798866653488190622531584.00
170141000918782798866653488190622531584.00
170141000918782798866653488190622531584.00
170141000918782798866653488190622531584.00
170141000918782798866653488190622531584.00
170141000918782798866653488190622531584.00
170141000918782798866653488190622531584.00
170141000918782798866653488190622531584.00
170141000918782798866653488190622531584.00
170141000918782798866653488190622531584.00
170141000918782798866653488190622531584.00
170141000918782798866653488190622531584.00
170141000918782798866653488190622531584.00
170141000918782798866653488190622531584.00
170141000918782798866653488190622531584.00
170141000918782798866653488190622531584.00
170141000918782798866653488190622531584.00
170141000918782798866653488190622531584.00
170141000918782798866653488190622531584.00
170141000918782798866653488190622531584.00
170141000918782798866653488190622531584.00
170141000918782798866653488190622531584.00
170141000918782798866653488190622531584.00
170141000918782798866653488190622531584.00
170141000918782798866653488190622531584.00
170141000918782798866653488190622531584.00
170141000918782798866653488190622531584.00
170141000918782798866653488190622531584.00
170141000918782798866653488190622531584.00
170141000918782798866653488190622531584.00
170141000918782798866653488190622531584.00
170141000918782798866653488190622531584.00
170141000918782798866653488190622531584.00
170141000918782798866653488190622531584.00
170141000918782798866653488190622531584.00
170141000918782798866653488190622531584.00
170141000918782798866653488190622531584.00
170141000918782798866653488190622531584.00
170141000918782798866653488190622531584.00
170141000918782798866653488190622531584.00
170141000918782798866653488190622531584.00
170141000918782798866653488190622531584.00
170141000918782798866653488190622531584.00
170141000918782798866653488190622531584.00
170141000918782798866653488190622531584.00
170141000918782798866653488190622531584.00
170141000918782798866653488190622531584.00
170141000918782798866653488190622531584.00
170141000918782798866653488190622531584.00
170141000918782798866653488190622531584.00
170141000918782798866653488190622531584.00
170141000918782798866653488190622531584.00
170141000918782798866653488190622531584.00
170141000918782798866653488190622531584.00
170141000918782798866653488190622531584.00
170141000918782798866653488190622531584.00
170141000918782798866653488190622531584.00
170141000918782798866653488190622531584.00
170141000918782798866653488190622531584.00
170141000918782798866653488190622531584.00
170141000918782798866653488190622531584.00
170141000918782798866653488190622531584.00
170141000918782798866653488190622531584.00
170141000918782798866653488190622531584.00
170141000918782798866653488190622531584.00
170141000918782798866653488190622531584.00
170141000918782798866653488190622531584.00
170141000918782798866653488190622531584.00
170141000918782798866653488190622531584.00
170141000918782798866653488190622531584.00
170141000918782798866653488190622531584.00
170141000918782798866653488190622531584.00
170141000918782798866653488190622531584.00
170141000918782798866653488190622531584.00
170141000918782798866653488190622531584.00
170141000918782798866653488190622531584.00
170141000918782798866653488190622531584.00
170141000918782798866653488190622531584.00
170141000918782798866653488190622531584.00
170141000918782798866653488190622531584.00
170141000918782798866653488190622531584.00
170141000918782798866653488190622531584.00
170141000918782798866653488190622531584.00
170141000918782798866653488190622531584.00
170141000918782798866653488190622531584.00
170141000918782798866653488190622531584.00
170141000918782798866653488190622531584.00
170141000918782798866653488190622531584.00
170141000918782798866653488190622531584.00
170141000918782798866653488190622531584.00
170141000918782798866653488190622531584.00
170141000918782798866653488190622531584.00
170141000918782798866653488190622531584.00
170141000918782798866653488190622531584.00
170141000918782798866653488190622531584.00
170141000918782798866653488190622531584.00
170141000918782798866653488190622531584.00
170141000918782798866653488190622531584.00
170141000918782798866653488190622531584.00
170141000918782798866653488190622531584.00
170141000918782798866653488190622531584.00
170141000918782798866653488190622531584.00
170141000918782798866653488190622531584.00
170141000918782798866653488190622531584.00
170141000918782798866653488190622531584.00
170141000918782798866653488190622531584.00
170141000918782798866653488190622531584.00
170141000918782798866653488190622531584.00
170141000918782798866653488190622531584.00
170141000918782798866653488190622531584.00
170141000918782798866653488190622531584.00
170141000918782798866653488190622531584.00
170141000918782798866653488190622531584.00
170141000918782798866653488190622531584.00
170141000918782798866653488190622531584.00
170141000918782798866653488190622531584.00
170141000918782798866653488190622531584.00
170141000918782798866653488190622531584.00
170141000918782798866653488190622531584.00
170141000918782798866653488190622531584.00
170141000918782798866653488190622531584.00
170141000918782798866653488190622531584.00
170141000918782798866653488190622531584.00
170141000918782798866653488190622531584.00
170141000918782798866653488190622531584.00
170141000918782798866653488190622531584.00
170141000918782798866653488190622531584.00
170141000918782798866653488190622531584.00
170141000918782798866653488190622531584.00
170141000918782798866653488190622531584.00
170141000918782798866653488190622531584.00
170141000918782798866653488190622531584.00
170141000918782798866653488190622531584.00
170141000918782798866653488190622531584.00
170141000918782798866653488190622531584.00
170141000918782798866653488190622531584.00
170141000918782798866653488190622531584.00
170141000918782798866653488190622531584.00
170141000918782798866653488190622531584.00
170141000918782798866653488190622531584.00
170141000918782798866653488190622531584.00
170141000918782798866653488190622531584.00
170141000918782798866653488190622531584.00
170141000918782798866653488190622531584.00
170141000918782798866653488190622531584.00
170141000918782798866653488190622531584.00
170141000918782798866653488190622531584.00
170141000918782798866653488190622531584.00
170141000918782798866653488190622531584.00
170141000918782798866653488190622531584.00
170141000918782798866653488190622531584.00
170141000918782798866653488190622531584.00
170141000918782798866653488190622531584.00
170141000918782798866653488190622531584.00
170141000918782798866653488190622531584.00
170141000918782798866653488190622531584.00
170141000918782798866653488190622531584.00
170141000918782798866653488190622531584.00
170141000918782798866653488190622531584.00
170141000918782798866653488190622531584.00
170141000918782798866653488190622531584.00
170141000918782798866653488190622531584.00
170141000918782798866653488190622531584.00
170141000918782798866653488190622531584.00
170141000918782798866653488190622531584.00
170141000918782798866653488190622531584.00
170141000918782798866653488190622531584.00
170141000918782798866653488190622531584.00
170141000918782798866653488190622531584.00
170141000918782798866653488190622531584.00
170141000918782798866653488190622531584.00
170141000918782798866653488190622531584.00
170141000918782798866653488190622531584.00
170141000918782798866653488190622531584.00
170141000918782798866653488190622531584.00
170141000918782798866653488190622531584.00
170141000918782798866653488190622531584.00
170141000918782798866653488190622531584.00
170141000918782798866653488190622531584.00
170141000918782798866653488190622531584.00
170141000918782798866653488190622531584.00
170141000918782798866653488190622531584.00
170141000918782798866653488190622531584.00
170141000918782798866653488190622531584.00
170141000918782798866653488190622531584.00
170141000918782798866653488190622531584.00
170141000918782798866653488190622531584.00
170141000918782798866653488190622531584.00
170141000918782798866653488190622531584.00
170141000918782798866653488190622531584.00
170141000918782798866653488190622531584.00
170141000918782798866653488190622531584.00
170141000918782798866653488190622531584.00
170141000918782798866653488190622531584.00
170141000918782798866653488190622531584.00
170141000918782798866653488190622531584.00
170141000918782798866653488190622531584.00
170141000918782798866653488190622531584.00
170141000918782798866653488190622531584.00
170141000918782798866653488190622531584.00
170141000918782798866653488190622531584.00
170141000918782798866653488190622531584.00
170141000918782798866653488190622531584.00
170141000918782798866653488190622531584.00
170141000918782798866653488190622531584.00
170141000918782798866653488190622531584.00
170141000918782798866653488190622531584.00
170141000918782798866653488190622531584.00
170141000918782798866653488190622531584.00
170141000918782798866653488190622531584.00
170141000918782798866653488190622531584.00
170141000918782798866653488190622531584.00
170141000918782798866653488190622531584.00
170141000918782798866653488190622531584.00
170141000918782798866653488190622531584.00
170141000918782798866653488190622531584.00
170141000918782798866653488190622531584.00
170141000918782798866653488190622531584.00
170141000918782798866653488190622531584.00
170141000918782798866653488190622531584.00
170141000918782798866653488190622531584.00
170141000918782798866653488190622531584.00
170141000918782798866653488190622531584.00
170141000918782798866653488190622531584.00
170141000918782798866653488190622531584.00
170141000918782798866653488190622531584.00
170141000918782798866653488190622531584.00
170141000918782798866653488190622531584.00
170141000918782798866653488190622531584.00
170141000918782798866653488190622531584.00
170141000918782798866653488190622531584.00
170141000918782798866653488190622531584.00
170141000918782798866653488190622531584.00
170141000918782798866653488190622531584.00
170141000918782798866653488190622531584.00
170141000918782798866653488190622531584.00
170141000918782798866653488190622531584.00
170141000918782798866653488190622531584.00
170141000918782798866653488190622531584.00
170141000918782798866653488190622531584.00
170141000918782798866653488190622531584.00
170141000918782798866653488190622531584.00
170141000918782798866653488190622531584.00
170141000918782798866653488190622531584.00
170141000918782798866653488190622531584.00
170141000918782798866653488190622531584.00
170141000918782798866653488190622531584.00
170141000918782798866653488190622531584.00
170141000918782798866653488190622531584.00
170141000918782798866653488190622531584.00
170141000918782798866653488190622531584.00
170141000918782798866653488190622531584.00
170141000918782798866653488190622531584.00
170141000918782798866653488190622531584.00
170141000918782798866653488190622531584.00
170141000918782798866653488190622531584.00
170141000918782798866653488190622531584.00
170141000918782798866653488190622531584.00
170141000918782798866653488190622531584.00
170141000918782798866653488190622531584.00
170141000918782798866653488190622531584.00
170141000918782798866653488190622531584.00
170141000918782798866653488190622531584.00
170141000918782798866653488190622531584.00
170141000918782798866653488190622531584.00
170141000918782798866653488190622531584.00
170141000918782798866653488190622531584.00
170141000918782798866653488190622531584.00
170141000918782798866653488190622531584.00
170141000918782798866653488190622531584.00
170141000918782798866653488190622531584.00
170141000918782798866653488190622531584.00
170141000918782798866653488190622531584.00
170141000918782798866653488190622531584.00
170141000918782798866653488190622531584.00
170141000918782798866653488190622531584.00
170141000918782798866653488190622531584.00
170141000918782798866653488190622531584.00
170141000918782798866653488190622531584.00
170141000918782798866653488190622531584.00
170141000918782798866653488190622531584.00
170141000918782798866653488190622531584.00
170141000918782798866653488190622531584.00
170141000918782798866653488190622531584.00
170141000918782798866653488190622531584.00
170141000918782798866653488190622531584.00
170141000918782798866653488190622531584.00
170141000918782798866653488190622531584.00
170141000918782798866653488190622531584.00
170141000918782798866653488190622531584.00
170141000918782798866653488190622531584.00
170141000918782798866653488190622531584.00
170141000918782798866653488190622531584.00
170141000918782798866653488190622531584.00
170141000918782798866653488190622531584.00
170141000918782798866653488190622531584.00
170141000918782798866653488190622531584.00
170141000918782798866653488190622531584.00
170141000918782798866653488190622531584.00
170141000918782798866653488190622531584.00
170141000918782798866653488190622531584.00
170141000918782798866653488190622531584.00
170141000918782798866653488190622531584.00
170141000918782798866653488190622531584.00
170141000918782798866653488190622531584.00
170141000918782798866653488190622531584.00
170141000918782798866653488190622531584.00
170141000918782798866653488190622531584.00
170141000918782798866653488190622531584.00
170141000918782798866653488190622531584.00
170141000918782798866653488190622531584.00
170141000918782798866653488190622531584.00
170141000918782798866653488190622531584.00
170141000918782798866653488190622531584.00
170141000918782798866653488190622531584.00
170141000918782798866653488190622531584.00
170141000918782798866653488190622531584.00
170141000918782798866653488190622531584.00
170141000918782798866653488190622531584.00
170141000918782798866653488190622531584.00
170141000918782798866653488190622531584.00
170141000918782798866653488190622531584.00
170141000918782798866653488190622531584.00
170141000918782798866653488190622531584.00
170141000918782798866653488190622531584.00
170141000918782798866653488190622531584.00
170141000918782798866653488190622531584.00
170141000918782798866653488190622531584.00
170141000918782798866653488190622531584.00
170141000918782798866653488190622531584.00
170141000918782798866653488190622531584.00
170141000918782798866653488190622531584.00
170141000918782798866653488190622531584.00
170141000918782798866653488190622531584.00
170141000918782798866653488190622531584.00
170141000918782798866653488190622531584.00
170141000918782798866653488190622531584.00
170141000918782798866653488190622531584.00
170141000918782798866653488190622531584.00
170141000918782798866653488190622531584.00
170141000918782798866653488190622531584.00
170141000918782798866653488190622531584.00
170141000918782798866653488190622531584.00
170141000918782798866653488190622531584.00
170141000918782798866653488190622531584.00
170141000918782798866653488190622531584.00
170141000918782798866653488190622531584.00
170141000918782798866653488190622531584.00
170141000918782798866653488190622531584.00
170141000918782798866653488190622531584.00
170141000918782798866653488190622531584.00
170141000918782798866653488190622531584.00
170141000918782798866653488190622531584.00
170141000918782798866653488190622531584.00
170141000918782798866653488190622531584.00
170141000918782798866653488190622531584.00
170141000918782798866653488190622531584.00
170141000918782798866653488190622531584.00
170141000918782798866653488190622531584.00
170141000918782798866653488190622531584.00
170141000918782798866653488190622531584.00
170141000918782798866653488190622531584.00
170141000918782798866653488190622531584.00
170141000918782798866653488190622531584.00
170141000918782798866653488190622531584.00
170141000918782798866653488190622531584.00
170141000918782798866653488190622531584.00
170141000918782798866653488190622531584.00
170141000918782798866653488190622531584.00
170141000918782798866653488190622531584.00
170141000918782798866653488190622531584.00
170141000918782798866653488190622531584.00
170141000918782798866653488190622531584.00
170141000918782798866653488190622531584.00
170141000918782798866653488190622531584.00
170141000918782798866653488190622531584.00
170141000918782798866653488190622531584.00
170141000918782798866653488190622531584.00
170141000918782798866653488190622531584.00
170141000918782798866653488190622531584.00
170141000918782798866653488190622531584.00
170141000918782798866653488190622531584.00
170141000918782798866653488190622531584.00
170141000918782798866653488190622531584.00
170141000918782798866653488190622531584.00
170141000918782798866653488190622531584.00
170141000918782798866653488190622531584.00
170141000918782798866653488190622531584.00
170141000918782798866653488190622531584.00
170141000918782798866653488190622531584.00
170141000918782798866653488190622531584.00
170141000918782798866653488190622531584.00
170141000918782798866653488190622531584.00
170141000918782798866653488190622531584.00
170141000918782798866653488190622531584.00
170141000918782798866653488190622531584.00
170141000918782798866653488190622531584.00
170141000918782798866653488190622531584.00
170141000918782798866653488190622531584.00
170141000918782798866653488190622531584.00
170141000918782798866653488190622531584.00
170141000918782798866653488190622531584.00
170141000918782798866653488190622531584.00
170141000918782798866653488190622531584.00
170141000918782798866653488190622531584.00
170141000918782798866653488190622531584.00
170141000918782798866653488190622531584.00
170141000918782798866653488190622531584.00
170141000918782798866653488190622531584.00
170141000918782798866653488190622531584.00
170141000918782798866653488190622531584.00
170141000918782798866653488190622531584.00
170141000918782798866653488190622531584.00
170141000918782798866653488190622531584.00
170141000918782798866653488190622531584.00
170141000918782798866653488190622531584.00
170141000918782798866653488190622531584.00
170141000918782798866653488190622531584.00
170141000918782798866653488190622531584.00
170141000918782798866653488190622531584.00
170141000918782798866653488190622531584.00
170141000918782798866653488190622531584.00
170141000918782798866653488190622531584.00
170141000918782798866653488190622531584.00
170141000918782798866653488190622531584.00
170141000918782798866653488190622531584.00
170141000918782798866653488190622531584.00
170141000918782798866653488190622531584.00
170141000918782798866653488190622531584.00
170141000918782798866653488190622531584.00
170141000918782798866653488190622531584.00
170141000918782798866653488190622531584.00
170141000918782798866653488190622531584.00
170141000918782798866653488190622531584.00
170141000918782798866653488190622531584.00
170141000918782798866653488190622531584.00
170141000918782798866653488190622531584.00
170141000918782798866653488190622531584.00
170141000918782798866653488190622531584.00
170141000918782798866653488190622531584.00
170141000918782798866653488190622531584.00
170141000918782798866653488190622531584.00
170141000918782798866653488190622531584.00
170141000918782798866653488190622531584.00
170141000918782798866653488190622531584.00
170141000918782798866653488190622531584.00
170141000918782798866653488190622531584.00
170141000918782798866653488190622531584.00
170141000918782798866653488190622531584.00
170141000918782798866653488190622531584.00
170141000918782798866653488190622531584.00
170141000918782798866653488190622531584.00
170141000918782798866653488190622531584.00
170141000918782798866653488190622531584.00
170141000918782798866653488190622531584.00
170141000918782798866653488190622531584.00
170141000918782798866653488190622531584.00
170141000918782798866653488190622531584.00
170141000918782798866653488190622531584.00
170141000918782798866653488190622531584.00
170141000918782798866653488190622531584.00
170141000918782798866653488190622531584.00
170141000918782798866653488190622531584.00
170141000918782798866653488190622531584.00
170141000918782798866653488190622531584.00
170141000918782798866653488190622531584.00
170141000918782798866653488190622531584.00
170141000918782798866653488190622531584.00
170141000918782798866653488190622531584.00
170141000918782798866653488190622531584.00
170141000918782798866653488190622531584.00
170141000918782798866653488190622531584.00
170141000918782798866653488190622531584.00
170141000918782798866653488190622531584.00
170141000918782798866653488190622531584.00
170141000918782798866653488190622531584.00
170141000918782798866653488190622531584.00
170141000918782798866653488190622531584.00
170141000918782798866653488190622531584.00
170141000918782798866653488190622531584.00
170141000918782798866653488190622531584.00
170141000918782798866653488190622531584.00
170141000918782798866653488190622531584.00
170141000918782798866653488190622531584.00
170141000918782798866653488190622531584.00
170141000918782798866653488190622531584.00
170141000918782798866653488190622531584.00
170141000918782798866653488190622531584.00
170141000918782798866653488190622531584.00
170141000918782798866653488190622531584.00
170141000918782798866653488190622531584.00
170141000918782798866653488190622531584.00
170141000918782798866653488190622531584.00
170141000918782798866653488190622531584.00
170141000918782798866653488190622531584.00
170141000918782798866653488190622531584.00
170141000918782798866653488190622531584.00
170141000918782798866653488190622531584.00
170141000918782798866653488190622531584.00
170141000918782798866653488190622531584.00
170141000918782798866653488190622531584.00
170141000918782798866653488190622531584.00
170141000918782798866653488190622531584.00
170141000918782798866653488190622531584.00
170141000918782798866653488190622531584.00
170141000918782798866653488190622531584.00
170141000918782798866653488190622531584.00
170141000918782798866653488190622531584.00
170141000918782798866653488190622531584.00
170141000918782798866653488190622531584.00
170141000918782798866653488190622531584.00
170141000918782798866653488190622531584.00
170141000918782798866653488190622531584.00
170141000918782798866653488190622531584.00
170141000918782798866653488190622531584.00
170141000918782798866653488190622531584.00
170141000918782798866653488190622531584.00
170141000918782798866653488190622531584.00
170141000918782798866653488190622531584.00
170141000918782798866653488190622531584.00
170141000918782798866653488190622531584.00
170141000918782798866653488190622531584.00
170141000918782798866653488190622531584.00
170141000918782798866653488190622531584.00
170141000918782798866653488190622531584.00
170141000918782798866653488190622531584.00
170141000918782798866653488190622531584.00
170141000918782798866653488190622531584.00
170141000918782798866653488190622531584.00
170141000918782798866653488190622531584.00
170141000918782798866653488190622531584.00
170141000918782798866653488190622531584.00
170141000918782798866653488190622531584.00
170141000918782798866653488190622531584.00
170141000918782798866653488190622531584.00
170141000918782798866653488190622531584.00
170141000918782798866653488190622531584.00
170141000918782798866653488190622531584.00
170141000918782798866653488190622531584.00
170141000918782798866653488190622531584.00
170141000918782798866653488190622531584.00
170141000918782798866653488190622531584.00
170141000918782798866653488190622531584.00
170141000918782798866653488190622531584.00
170141000918782798866653488190622531584.00
170141000918782798866653488190622531584.00
170141000918782798866653488190622531584.00
170141000918782798866653488190622531584.00
170141000918782798866653488190622531584.00
170141000918782798866653488190622531584.00
170141000918782798866653488190622531584.00
170141000918782798866653488190622531584.00
170141000918782798866653488190622531584.00
170141000918782798866653488190622531584.00
170141000918782798866653488190622531584.00
170141000918782798866653488190622531584.00
170141000918782798866653488190622531584.00
170141000918782798866653488190622531584.00
170141000918782798866653488190622531584.00
170141000918782798866653488190622531584.00
170141000918782798866653488190622531584.00
170141000918782798866653488190622531584.00
170141000918782798866653488190622531584.00
170141000918782798866653488190622531584.00
170141000918782798866653488190622531584.00
170141000918782798866653488190622531584.00
170141000918782798866653488190622531584.00
170141000918782798866653488190622531584.00
170141000918782798866653488190622531584.00
170141000918782798866653488190622531584.00
170141000918782798866653488190622531584.00
170141000918782798866653488190622531584.00
170141000918782798866653488190622531584.00
170141000918782798866653488190622531584.00
170141000918782798866653488190622531584.00
170141000918782798866653488190622531584.00
170141000918782798866653488190622531584.00
170141000918782798866653488190622531584.00
170141000918782798866653488190622531584.00
170141000918782798866653488190622531584.00
170141000918782798866653488190622531584.00
170141000918782798866653488190622531584.00
170141000918782798866653488190622531584.00
170141000918782798866653488190622531584.00
170141000918782798866653488190622531584.00
170141000918782798866653488190622531584.00
170141000918782798866653488190622531584.00
170141000918782798866653488190622531584.00
170141000918782798866653488190622531584.00
170141000918782798866653488190622531584.00
170141000918782798866653488190622531584.00
170141000918782798866653488190622531584.00
170141000918782798866653488190622531584.00
170141000918782798866653488190622531584.00
170141000918782798866653488190622531584.00
170141000918782798866653488190622531584.00
170141000918782798866653488190622531584.00
170141000918782798866653488190622531584.00
170141000918782798866653488190622531584.00
170141000918782798866653488190622531584.00
170141000918782798866653488190622531584.00
170141000918782798866653488190622531584.00
170141000918782798866653488190622531584.00
170141000918782798866653488190622531584.00
170141000918782798866653488190622531584.00
170141000918782798866653488190622531584.00
170141000918782798866653488190622531584.00
170141000918782798866653488190622531584.00
170141000918782798866653488190622531584.00
170141000918782798866653488190622531584.00
170141000918782798866653488190622531584.00
170141000918782798866653488190622531584.00
170141000918782798866653488190622531584.00
170141000918782798866653488190622531584.00
170141000918782798866653488190622531584.00
170141000918782798866653488190622531584.00
170141000918782798866653488190622531584.00
170141000918782798866653488190622531584.00
170141000918782798866653488190622531584.00
170141000918782798866653488190622531584.00
170141000918782798866653488190622531584.00
170141000918782798866653488190622531584.00
170141000918782798866653488190622531584.00
170141000918782798866653488190622531584.00
170141000918782798866653488190622531584.00
170141000918782798866653488190622531584.00
170141000918782798866653488190622531584.00
170141000918782798866653488190622531584.00
170141000918782798866653488190622531584.00
170141000918782798866653488190622531584.00
170141000918782798866653488190622531584.00
170141000918782798866653488190622531584.00
170141000918782798866653488190622531584.00
170141000918782798866653488190622531584.00
170141000918782798866653488190622531584.00
170141000918782798866653488190622531584.00
170141000918782798866653488190622531584.00
170141000918782798866653488190622531584.00
170141000918782798866653488190622531584.00
170141000918782798866653488190622531584.00
170141000918782798866653488190622531584.00
170141000918782798866653488190622531584.00
170141000918782798866653488190622531584.00
170141000918782798866653488190622531584.00
170141000918782798866653488190622531584.00
170141000918782798866653488190622531584.00
170141000918782798866653488190622531584.00
170141000918782798866653488190622531584.00
170141000918782798866653488190622531584.00
170141000918782798866653488190622531584.00
170141000918782798866653488190622531584.00
170141000918782798866653488190622531584.00
170141000918782798866653488190622531584.00
170141000918782798866653488190622531584.00
170141000918782798866653488190622531584.00
170141000918782798866653488190622531584.00
170141000918782798866653488190622531584.00
170141000918782798866653488190622531584.00
170141000918782798866653488190622531584.00
170141000918782798866653488190622531584.00
170141000918782798866653488190622531584.00
170141000918782798866653488190622531584.00
170141000918782798866653488190622531584.00
170141000918782798866653488190622531584.00
170141000918782798866653488190622531584.00
170141000918782798866653488190622531584.00
170141000918782798866653488190622531584.00
170141000918782798866653488190622531584.00
170141000918782798866653488190622531584.00
170141000918782798866653488190622531584.00
170141000918782798866653488190622531584.00
170141000918782798866653488190622531584.00
170141000918782798866653488190622531584.00
170141000918782798866653488190622531584.00
170141000918782798866653488190622531584.00
170141000918782798866653488190622531584.00
170141000918782798866653488190622531584.00
170141000918782798866653488190622531584.00
170141000918782798866653488190622531584.00
170141000918782798866653488190622531584.00
170141000918782798866653488190622531584.00
170141000918782798866653488190622531584.00
170141000918782798866653488190622531584.00
170141000918782798866653488190622531584.00
170141000918782798866653488190622531584.00
170141000918782798866653488190622531584.00
170141000918782798866653488190622531584.00
170141000918782798866653488190622531584.00
170141000918782798866653488190622531584.00
170141000918782798866653488190622531584.00
170141000918782798866653488190622531584.00
170141000918782798866653488190622531584.00
170141000918782798866653488190622531584.00
170141000918782798866653488190622531584.00
170141000918782798866653488190622531584.00
170141000918782798866653488190622531584.00
170141000918782798866653488190622531584.00
170141000918782798866653488190622531584.00
170141000918782798866653488190622531584.00
170141000918782798866653488190622531584.00
170141000918782798866653488190622531584.00
170141000918782798866653488190622531584.00
170141000918782798866653488190622531584.00
170141000918782798866653488190622531584.00
170141000918782798866653488190622531584.00
170141000918782798866653488190622531584.00
170141000918782798866653488190622531584.00
170141000918782798866653488190622531584.00
170141000918782798866653488190622531584.00
170141000918782798866653488190622531584.00
170141000918782798866653488190622531584.00
170141000918782798866653488190622531584.00
170141000918782798866653488190622531584.00
170141000918782798866653488190622531584.00
170141000918782798866653488190622531584.00
170141000918782798866653488190622531584.00
170141000918782798866653488190622531584.00
170141000918782798866653488190622531584.00
170141000918782798866653488190622531584.00
170141000918782798866653488190622531584.00
170141000918782798866653488190622531584.00
170141000918782798866653488190622531584.00
170141000918782798866653488190622531584.00
170141000918782798866653488190622531584.00
170141000918782798866653488190622531584.00
170141000918782798866653488190622531584.00
170141000918782798866653488190622531584.00
170141000918782798866653488190622531584.00
170141000918782798866653488190622531584.00
170141000918782798866653488190622531584.00
170141000918782798866653488190622531584.00
170141000918782798866653488190622531584.00
170141000918782798866653488190622531584.00
170141000918782798866653488190622531584.00
170141000918782798866653488190622531584.00
170141000918782798866653488190622531584.00
170141000918782798866653488190622531584.00
170141000918782798866653488190622531584.00
170141000918782798866653488190622531584.00
170141000918782798866653488190622531584.00
170141000918782798866653488190622531584.00
170141000918782798866653488190622531584.00
170141000918782798866653488190622531584.00
170141000918782798866653488190622531584.00
170141000918782798866653488190622531584.00
170141000918782798866653488190622531584.00
170141000918782798866653488190622531584.00
170141000918782798866653488190622531584.00
170141000918782798866653488190622531584.00
170141000918782798866653488190622531584.00
170141000918782798866653488190622531584.00
170141000918782798866653488190622531584.00
170141000918782798866653488190622531584.00
170141000918782798866653488190622531584.00
170141000918782798866653488190622531584.00
170141000918782798866653488190622531584.00
170141000918782798866653488190622531584.00
170141000918782798866653488190622531584.00
170141000918782798866653488190622531584.00
170141000918782798866653488190622531584.00
170141000918782798866653488190622531584.00
170141000918782798866653488190622531584.00
170141000918782798866653488190622531584.00
170141000918782798866653488190622531584.00
170141000918782798866653488190622531584.00
170141000918782798866653488190622531584.00
170141000918782798866653488190622531584.00
170141000918782798866653488190622531584.00
170141000918782798866653488190622531584.00
170141000918782798866653488190622531584.00
170141000918782798866653488190622531584.00
170141000918782798866653488190622531584.00
170141000918782798866653488190622531584.00
170141000918782798866653488190622531584.00
170141000918782798866653488190622531584.00
170141000918782798866653488190622531584.00
170141000918782798866653488190622531584.00
170141000918782798866653488190622531584.00
170141000918782798866653488190622531584.00
170141000918782798866653488190622531584.00
170141000918782798866653488190622531584.00
170141000918782798866653488190622531584.00
170141000918782798866653488190622531584.00
170141000918782798866653488190622531584.00
170141000918782798866653488190622531584.00
170141000918782798866653488190622531584.00
170141000918782798866653488190622531584.00
170141000918782798866653488190622531584.00
170141000918782798866653488190622531584.00
170141000918782798866653488190622531584.00
170141000918782798866653488190622531584.00
170141000918782798866653488190622531584.00
170141000918782798866653488190622531584.00
170141000918782798866653488190622531584.00
170141000918782798866653488190622531584.00
170141000918782798866653488190622531584.00
170141000918782798866653488190622531584.00
170141000918782798866653488190622531584.00
170141000918782798866653488190622531584.00
170141000918782798866653488190622531584.00
170141000918782798866653488190622531584.00
170141000918782798866653488190622531584.00
170141000918782798866653488190622531584.00
170141000918782798866653488190622531584.00
170141000918782798866653488190622531584.00
170141000918782798866653488190622531584.00
170141000918782798866653488190622531584.00
170141000918782798866653488190622531584.00
170141000918782798866653488190622531584.00
170141000918782798866653488190622531584.00
170141000918782798866653488190622531584.00
170141000918782798866653488190622531584.00
170141000918782798866653488190622531584.00
170141000918782798866653488190622531584.00
170141000918782798866653488190622531584.00
170141000918782798866653488190622531584.00
170141000918782798866653488190622531584.00
170141000918782798866653488190622531584.00
170141000918782798866653488190622531584.00
170141000918782798866653488190622531584.00
170141000918782798866653488190622531584.00
170141000918782798866653488190622531584.00
170141000918782798866653488190622531584.00
170141000918782798866653488190622531584.00
170141000918782798866653488190622531584.00
170141000918782798866653488190622531584.00
170141000918782798866653488190622531584.00
170141000918782798866653488190622531584.00
170141000918782798866653488190622531584.00
170141000918782798866653488190622531584.00
170141000918782798866653488190622531584.00
170141000918782798866653488190622531584.00
170141000918782798866653488190622531584.00
170141000918782798866653488190622531584.00
170141000918782798866653488190622531584.00
170141000918782798866653488190622531584.00
170141000918782798866653488190622531584.00
170141000918782798866653488190622531584.00
170141000918782798866653488190622531584.00
170141000918782798866653488190622531584.00
170141000918782798866653488190622531584.00
170141000918782798866653488190622531584.00
170141000918782798866653488190622531584.00
170141000918782798866653488190622531584.00
170141000918782798866653488190622531584.00
170141000918782798866653488190622531584.00
170141000918782798866653488190622531584.00
170141000918782798866653488190622531584.00
170141000918782798866653488190622531584.00
170141000918782798866653488190622531584.00
170141000918782798866653488190622531584.00
170141000918782798866653488190622531584.00
170141000918782798866653488190622531584.00
170141000918782798866653488190622531584.00
170141000918782798866653488190622531584.00
170141000918782798866653488190622531584.00
170141000918782798866653488190622531584.00
170141000918782798866653488190622531584.00
170141000918782798866653488190622531584.00
170141000918782798866653488190622531584.00
170141000918782798866653488190622531584.00
170141000918782798866653488190622531584.00
170141000918782798866653488190622531584.00
170141000918782798866653488190622531584.00
170141000918782798866653488190622531584.00
170141000918782798866653488190622531584.00
170141000918782798866653488190622531584.00
170141000918782798866653488190622531584.00
170141000918782798866653488190622531584.00
   2.43
   2.45
170141000918782798866653488190622531584.00
170141000918782798866653488190622531584.00
170141000918782798866653488190622531584.00
170141000918782798866653488190622531584.00
170141000918782798866653488190622531584.00
170141000918782798866653488190622531584.00
170141000918782798866653488190622531584.00
170141000918782798866653488190622531584.00
170141000918782798866653488190622531584.00
170141000918782798866653488190622531584.00
170141000918782798866653488190622531584.00
170141000918782798866653488190622531584.00
170141000918782798866653488190622531584.00
170141000918782798866653488190622531584.00
170141000918782798866653488190622531584.00
170141000918782798866653488190622531584.00
170141000918782798866653488190622531584.00
170141000918782798866653488190622531584.00
170141000918782798866653488190622531584.00
170141000918782798866653488190622531584.00
170141000918782798866653488190622531584.00
170141000918782798866653488190622531584.00
170141000918782798866653488190622531584.00
170141000918782798866653488190622531584.00
170141000918782798866653488190622531584.00
170141000918782798866653488190622531584.00
170141000918782798866653488190622531584.00
170141000918782798866653488190622531584.00
170141000918782798866653488190622531584.00
170141000918782798866653488190622531584.00
170141000918782798866653488190622531584.00
170141000918782798866653488190622531584.00
170141000918782798866653488190622531584.00
170141000918782798866653488190622531584.00
170141000918782798866653488190622531584.00
170141000918782798866653488190622531584.00
170141000918782798866653488190622531584.00
170141000918782798866653488190622531584.00
170141000918782798866653488190622531584.00
170141000918782798866653488190622531584.00
170141000918782798866653488190622531584.00
170141000918782798866653488190622531584.00
170141000918782798866653488190622531584.00
170141000918782798866653488190622531584.00
170141000918782798866653488190622531584.00
170141000918782798866653488190622531584.00
170141000918782798866653488190622531584.00
170141000918782798866653488190622531584.00
170141000918782798866653488190622531584.00
170141000918782798866653488190622531584.00
170141000918782798866653488190622531584.00
170141000918782798866653488190622531584.00
170141000918782798866653488190622531584.00
170141000918782798866653488190622531584.00
170141000918782798866653488190622531584.00
170141000918782798866653488190622531584.00
170141000918782798866653488190622531584.00
170141000918782798866653488190622531584.00
170141000918782798866653488190622531584.00
170141000918782798866653488190622531584.00
170141000918782798866653488190622531584.00
170141000918782798866653488190622531584.00
170141000918782798866653488190622531584.00
170141000918782798866653488190622531584.00
170141000918782798866653488190622531584.00
170141000918782798866653488190622531584.00
170141000918782798866653488190622531584.00
170141000918782798866653488190622531584.00
170141000918782798866653488190622531584.00
170141000918782798866653488190622531584.00
170141000918782798866653488190622531584.00
170141000918782798866653488190622531584.00
170141000918782798866653488190622531584.00
170141000918782798866653488190622531584.00
170141000918782798866653488190622531584.00
170141000918782798866653488190622531584.00
170141000918782798866653488190622531584.00
170141000918782798866653488190622531584.00
170141000918782798866653488190622531584.00
170141000918782798866653488190622531584.00
170141000918782798866653488190622531584.00
170141000918782798866653488190622531584.00
170141000918782798866653488190622531584.00
170141000918782798866653488190622531584.00
170141000918782798866653488190622531584.00
170141000918782798866653488190622531584.00
170141000918782798866653488190622531584.00
170141000918782798866653488190622531584.00
170141000918782798866653488190622531584.00
170141000918782798866653488190622531584.00
170141000918782798866653488190622531584.00
170141000918782798866653488190622531584.00
170141000918782798866653488190622531584.00
170141000918782798866653488190622531584.00
170141000918782798866653488190622531584.00
170141000918782798866653488190622531584.00
170141000918782798866653488190622531584.00
170141000918782798866653488190622531584.00
170141000918782798866653488190622531584.00
170141000918782798866653488190622531584.00
170141000918782798866653488190622531584.00
170141000918782798866653488190622531584.00
170141000918782798866653488190622531584.00
170141000918782798866653488190622531584.00
170141000918782798866653488190622531584.00
170141000918782798866653488190622531584.00
170141000918782798866653488190622531584.00
170141000918782798866653488190622531584.00
170141000918782798866653488190622531584.00
170141000918782798866653488190622531584.00
170141000918782798866653488190622531584.00
170141000918782798866653488190622531584.00
170141000918782798866653488190622531584.00
170141000918782798866653488190622531584.00
170141000918782798866653488190622531584.00
170141000918782798866653488190622531584.00
170141000918782798866653488190622531584.00
170141000918782798866653488190622531584.00
170141000918782798866653488190622531584.00
170141000918782798866653488190622531584.00
170141000918782798866653488190622531584.00
170141000918782798866653488190622531584.00
170141000918782798866653488190622531584.00
   2.41
   2.38
   2.39
170141000918782798866653488190622531584.00
170141000918782798866653488190622531584.00
170141000918782798866653488190622531584.00
170141000918782798866653488190622531584.00
170141000918782798866653488190622531584.00
170141000918782798866653488190622531584.00
170141000918782798866653488190622531584.00
170141000918782798866653488190622531584.00
170141000918782798866653488190622531584.00
170141000918782798866653488190622531584.00
170141000918782798866653488190622531584.00
170141000918782798866653488190622531584.00
170141000918782798866653488190622531584.00
170141000918782798866653488190622531584.00
170141000918782798866653488190622531584.00
170141000918782798866653488190622531584.00
170141000918782798866653488190622531584.00
170141000918782798866653488190622531584.00
170141000918782798866653488190622531584.00
170141000918782798866653488190622531584.00
170141000918782798866653488190622531584.00
170141000918782798866653488190622531584.00
170141000918782798866653488190622531584.00
170141000918782798866653488190622531584.00
170141000918782798866653488190622531584.00
170141000918782798866653488190622531584.00
170141000918782798866653488190622531584.00
170141000918782798866653488190622531584.00
170141000918782798866653488190622531584.00
170141000918782798866653488190622531584.00
170141000918782798866653488190622531584.00
170141000918782798866653488190622531584.00
170141000918782798866653488190622531584.00
170141000918782798866653488190622531584.00
170141000918782798866653488190622531584.00
170141000918782798866653488190622531584.00
170141000918782798866653488190622531584.00
170141000918782798866653488190622531584.00
170141000918782798866653488190622531584.00
170141000918782798866653488190622531584.00
170141000918782798866653488190622531584.00
170141000918782798866653488190622531584.00
170141000918782798866653488190622531584.00
170141000918782798866653488190622531584.00
170141000918782798866653488190622531584.00
170141000918782798866653488190622531584.00
170141000918782798866653488190622531584.00
170141000918782798866653488190622531584.00
170141000918782798866653488190622531584.00
170141000918782798866653488190622531584.00
170141000918782798866653488190622531584.00
170141000918782798866653488190622531584.00
170141000918782798866653488190622531584.00
170141000918782798866653488190622531584.00
170141000918782798866653488190622531584.00
170141000918782798866653488190622531584.00
170141000918782798866653488190622531584.00
170141000918782798866653488190622531584.00
170141000918782798866653488190622531584.00
170141000918782798866653488190622531584.00
170141000918782798866653488190622531584.00
170141000918782798866653488190622531584.00
170141000918782798866653488190622531584.00
170141000918782798866653488190622531584.00
170141000918782798866653488190622531584.00
170141000918782798866653488190622531584.00
170141000918782798866653488190622531584.00
170141000918782798866653488190622531584.00
170141000918782798866653488190622531584.00
170141000918782798866653488190622531584.00
170141000918782798866653488190622531584.00
170141000918782798866653488190622531584.00
170141000918782798866653488190622531584.00
170141000918782798866653488190622531584.00
170141000918782798866653488190622531584.00
170141000918782798866653488190622531584.00
170141000918782798866653488190622531584.00
170141000918782798866653488190622531584.00
170141000918782798866653488190622531584.00
170141000918782798866653488190622531584.00
170141000918782798866653488190622531584.00
170141000918782798866653488190622531584.00
170141000918782798866653488190622531584.00
170141000918782798866653488190622531584.00
170141000918782798866653488190622531584.00
170141000918782798866653488190622531584.00
170141000918782798866653488190622531584.00
170141000918782798866653488190622531584.00
170141000918782798866653488190622531584.00
170141000918782798866653488190622531584.00
170141000918782798866653488190622531584.00
170141000918782798866653488190622531584.00
170141000918782798866653488190622531584.00
170141000918782798866653488190622531584.00
170141000918782798866653488190622531584.00
170141000918782798866653488190622531584.00
170141000918782798866653488190622531584.00
170141000918782798866653488190622531584.00
170141000918782798866653488190622531584.00
170141000918782798866653488190622531584.00
170141000918782798866653488190622531584.00
170141000918782798866653488190622531584.00
170141000918782798866653488190622531584.00
170141000918782798866653488190622531584.00
170141000918782798866653488190622531584.00
170141000918782798866653488190622531584.00
170141000918782798866653488190622531584.00
170141000918782798866653488190622531584.00
170141000918782798866653488190622531584.00
170141000918782798866653488190622531584.00
170141000918782798866653488190622531584.00
170141000918782798866653488190622531584.00
170141000918782798866653488190622531584.00
170141000918782798866653488190622531584.00
170141000918782798866653488190622531584.00
170141000918782798866653488190622531584.00
170141000918782798866653488190622531584.00
170141000918782798866653488190622531584.00
170141000918782798866653488190622531584.00
170141000918782798866653488190622531584.00
170141000918782798866653488190622531584.00
170141000918782798866653488190622531584.00
   2.38
   2.31
   2.33
   1.76
170141000918782798866653488190622531584.00
170141000918782798866653488190622531584.00
170141000918782798866653488190622531584.00
170141000918782798866653488190622531584.00
170141000918782798866653488190622531584.00
170141000918782798866653488190622531584.00
170141000918782798866653488190622531584.00
170141000918782798866653488190622531584.00
170141000918782798866653488190622531584.00
170141000918782798866653488190622531584.00
170141000918782798866653488190622531584.00
170141000918782798866653488190622531584.00
170141000918782798866653488190622531584.00
170141000918782798866653488190622531584.00
170141000918782798866653488190622531584.00
170141000918782798866653488190622531584.00
170141000918782798866653488190622531584.00
170141000918782798866653488190622531584.00
170141000918782798866653488190622531584.00
170141000918782798866653488190622531584.00
170141000918782798866653488190622531584.00
170141000918782798866653488190622531584.00
170141000918782798866653488190622531584.00
170141000918782798866653488190622531584.00
170141000918782798866653488190622531584.00
170141000918782798866653488190622531584.00
170141000918782798866653488190622531584.00
170141000918782798866653488190622531584.00
170141000918782798866653488190622531584.00
170141000918782798866653488190622531584.00
170141000918782798866653488190622531584.00
170141000918782798866653488190622531584.00
170141000918782798866653488190622531584.00
170141000918782798866653488190622531584.00
170141000918782798866653488190622531584.00
170141000918782798866653488190622531584.00
170141000918782798866653488190622531584.00
170141000918782798866653488190622531584.00
170141000918782798866653488190622531584.00
170141000918782798866653488190622531584.00
170141000918782798866653488190622531584.00
170141000918782798866653488190622531584.00
170141000918782798866653488190622531584.00
170141000918782798866653488190622531584.00
170141000918782798866653488190622531584.00
170141000918782798866653488190622531584.00
170141000918782798866653488190622531584.00
170141000918782798866653488190622531584.00
170141000918782798866653488190622531584.00
170141000918782798866653488190622531584.00
170141000918782798866653488190622531584.00
170141000918782798866653488190622531584.00
170141000918782798866653488190622531584.00
170141000918782798866653488190622531584.00
170141000918782798866653488190622531584.00
170141000918782798866653488190622531584.00
170141000918782798866653488190622531584.00
170141000918782798866653488190622531584.00
170141000918782798866653488190622531584.00
170141000918782798866653488190622531584.00
170141000918782798866653488190622531584.00
170141000918782798866653488190622531584.00
170141000918782798866653488190622531584.00
170141000918782798866653488190622531584.00
170141000918782798866653488190622531584.00
170141000918782798866653488190622531584.00
170141000918782798866653488190622531584.00
170141000918782798866653488190622531584.00
170141000918782798866653488190622531584.00
170141000918782798866653488190622531584.00
170141000918782798866653488190622531584.00
170141000918782798866653488190622531584.00
170141000918782798866653488190622531584.00
170141000918782798866653488190622531584.00
170141000918782798866653488190622531584.00
170141000918782798866653488190622531584.00
170141000918782798866653488190622531584.00
170141000918782798866653488190622531584.00
170141000918782798866653488190622531584.00
170141000918782798866653488190622531584.00
170141000918782798866653488190622531584.00
170141000918782798866653488190622531584.00
170141000918782798866653488190622531584.00
170141000918782798866653488190622531584.00
170141000918782798866653488190622531584.00
170141000918782798866653488190622531584.00
170141000918782798866653488190622531584.00
170141000918782798866653488190622531584.00
170141000918782798866653488190622531584.00
170141000918782798866653488190622531584.00
170141000918782798866653488190622531584.00
170141000918782798866653488190622531584.00
170141000918782798866653488190622531584.00
170141000918782798866653488190622531584.00
170141000918782798866653488190622531584.00
170141000918782798866653488190622531584.00
170141000918782798866653488190622531584.00
170141000918782798866653488190622531584.00
170141000918782798866653488190622531584.00
170141000918782798866653488190622531584.00
170141000918782798866653488190622531584.00
170141000918782798866653488190622531584.00
170141000918782798866653488190622531584.00
170141000918782798866653488190622531584.00
170141000918782798866653488190622531584.00
170141000918782798866653488190622531584.00
170141000918782798866653488190622531584.00
170141000918782798866653488190622531584.00
170141000918782798866653488190622531584.00
170141000918782798866653488190622531584.00
170141000918782798866653488190622531584.00
170141000918782798866653488190622531584.00
170141000918782798866653488190622531584.00
170141000918782798866653488190622531584.00
170141000918782798866653488190622531584.00
170141000918782798866653488190622531584.00
170141000918782798866653488190622531584.00
170141000918782798866653488190622531584.00
170141000918782798866653488190622531584.00
170141000918782798866653488190622531584.00
170141000918782798866653488190622531584.00
   2.36
   2.37
   2.26
   1.35
170141000918782798866653488190622531584.00
170141000918782798866653488190622531584.00
170141000918782798866653488190622531584.00
170141000918782798866653488190622531584.00
170141000918782798866653488190622531584.00
170141000918782798866653488190622531584.00
170141000918782798866653488190622531584.00
170141000918782798866653488190622531584.00
170141000918782798866653488190622531584.00
170141000918782798866653488190622531584.00
170141000918782798866653488190622531584.00
170141000918782798866653488190622531584.00
170141000918782798866653488190622531584.00
170141000918782798866653488190622531584.00
170141000918782798866653488190622531584.00
170141000918782798866653488190622531584.00
170141000918782798866653488190622531584.00
170141000918782798866653488190622531584.00
170141000918782798866653488190622531584.00
170141000918782798866653488190622531584.00
170141000918782798866653488190622531584.00
170141000918782798866653488190622531584.00
170141000918782798866653488190622531584.00
170141000918782798866653488190622531584.00
170141000918782798866653488190622531584.00
170141000918782798866653488190622531584.00
170141000918782798866653488190622531584.00
170141000918782798866653488190622531584.00
170141000918782798866653488190622531584.00
170141000918782798866653488190622531584.00
170141000918782798866653488190622531584.00
170141000918782798866653488190622531584.00
170141000918782798866653488190622531584.00
170141000918782798866653488190622531584.00
170141000918782798866653488190622531584.00
170141000918782798866653488190622531584.00
170141000918782798866653488190622531584.00
170141000918782798866653488190622531584.00
170141000918782798866653488190622531584.00
170141000918782798866653488190622531584.00
170141000918782798866653488190622531584.00
170141000918782798866653488190622531584.00
170141000918782798866653488190622531584.00
170141000918782798866653488190622531584.00
170141000918782798866653488190622531584.00
170141000918782798866653488190622531584.00
170141000918782798866653488190622531584.00
170141000918782798866653488190622531584.00
170141000918782798866653488190622531584.00
170141000918782798866653488190622531584.00
170141000918782798866653488190622531584.00
170141000918782798866653488190622531584.00
170141000918782798866653488190622531584.00
170141000918782798866653488190622531584.00
170141000918782798866653488190622531584.00
170141000918782798866653488190622531584.00
170141000918782798866653488190622531584.00
170141000918782798866653488190622531584.00
170141000918782798866653488190622531584.00
170141000918782798866653488190622531584.00
170141000918782798866653488190622531584.00
170141000918782798866653488190622531584.00
170141000918782798866653488190622531584.00
170141000918782798866653488190622531584.00
170141000918782798866653488190622531584.00
170141000918782798866653488190622531584.00
170141000918782798866653488190622531584.00
170141000918782798866653488190622531584.00
170141000918782798866653488190622531584.00
170141000918782798866653488190622531584.00
170141000918782798866653488190622531584.00
170141000918782798866653488190622531584.00
170141000918782798866653488190622531584.00
170141000918782798866653488190622531584.00
170141000918782798866653488190622531584.00
170141000918782798866653488190622531584.00
170141000918782798866653488190622531584.00
170141000918782798866653488190622531584.00
170141000918782798866653488190622531584.00
170141000918782798866653488190622531584.00
170141000918782798866653488190622531584.00
170141000918782798866653488190622531584.00
170141000918782798866653488190622531584.00
170141000918782798866653488190622531584.00
170141000918782798866653488190622531584.00
170141000918782798866653488190622531584.00
170141000918782798866653488190622531584.00
170141000918782798866653488190622531584.00
170141000918782798866653488190622531584.00
170141000918782798866653488190622531584.00
170141000918782798866653488190622531584.00
170141000918782798866653488190622531584.00
170141000918782798866653488190622531584.00
170141000918782798866653488190622531584.00
170141000918782798866653488190622531584.00
170141000918782798866653488190622531584.00
170141000918782798866653488190622531584.00
170141000918782798866653488190622531584.00
170141000918782798866653488190622531584.00
170141000918782798866653488190622531584.00
170141000918782798866653488190622531584.00
170141000918782798866653488190622531584.00
170141000918782798866653488190622531584.00
170141000918782798866653488190622531584.00
170141000918782798866653488190622531584.00
170141000918782798866653488190622531584.00
170141000918782798866653488190622531584.00
170141000918782798866653488190622531584.00
170141000918782798866653488190622531584.00
170141000918782798866653488190622531584.00
170141000918782798866653488190622531584.00
170141000918782798866653488190622531584.00
170141000918782798866653488190622531584.00
170141000918782798866653488190622531584.00
170141000918782798866653488190622531584.00
170141000918782798866653488190622531584.00
170141000918782798866653488190622531584.00
170141000918782798866653488190622531584.00
170141000918782798866653488190622531584.00
170141000918782798866653488190622531584.00
170141000918782798866653488190622531584.00
   1.82
   2.08
   2.12
   1.68
   1.34
   0.81
170141000918782798866653488190622531584.00
170141000918782798866653488190622531584.00
170141000918782798866653488190622531584.00
170141000918782798866653488190622531584.00
170141000918782798866653488190622531584.00
170141000918782798866653488190622531584.00
170141000918782798866653488190622531584.00
170141000918782798866653488190622531584.00
170141000918782798866653488190622531584.00
170141000918782798866653488190622531584.00
170141000918782798866653488190622531584.00
170141000918782798866653488190622531584.00
170141000918782798866653488190622531584.00
170141000918782798866653488190622531584.00
170141000918782798866653488190622531584.00
170141000918782798866653488190622531584.00
170141000918782798866653488190622531584.00
170141000918782798866653488190622531584.00
170141000918782798866653488190622531584.00
170141000918782798866653488190622531584.00
170141000918782798866653488190622531584.00
170141000918782798866653488190622531584.00
170141000918782798866653488190622531584.00
170141000918782798866653488190622531584.00
170141000918782798866653488190622531584.00
170141000918782798866653488190622531584.00
170141000918782798866653488190622531584.00
170141000918782798866653488190622531584.00
170141000918782798866653488190622531584.00
170141000918782798866653488190622531584.00
170141000918782798866653488190622531584.00
170141000918782798866653488190622531584.00
170141000918782798866653488190622531584.00
170141000918782798866653488190622531584.00
170141000918782798866653488190622531584.00
170141000918782798866653488190622531584.00
170141000918782798866653488190622531584.00
170141000918782798866653488190622531584.00
170141000918782798866653488190622531584.00
170141000918782798866653488190622531584.00
170141000918782798866653488190622531584.00
170141000918782798866653488190622531584.00
170141000918782798866653488190622531584.00
170141000918782798866653488190622531584.00
170141000918782798866653488190622531584.00
170141000918782798866653488190622531584.00
170141000918782798866653488190622531584.00
170141000918782798866653488190622531584.00
170141000918782798866653488190622531584.00
170141000918782798866653488190622531584.00
170141000918782798866653488190622531584.00
170141000918782798866653488190622531584.00
170141000918782798866653488190622531584.00
170141000918782798866653488190622531584.00
170141000918782798866653488190622531584.00
170141000918782798866653488190622531584.00
170141000918782798866653488190622531584.00
170141000918782798866653488190622531584.00
170141000918782798866653488190622531584.00
170141000918782798866653488190622531584.00
170141000918782798866653488190622531584.00
170141000918782798866653488190622531584.00
170141000918782798866653488190622531584.00
170141000918782798866653488190622531584.00
170141000918782798866653488190622531584.00
170141000918782798866653488190622531584.00
170141000918782798866653488190622531584.00
170141000918782798866653488190622531584.00
170141000918782798866653488190622531584.00
170141000918782798866653488190622531584.00
170141000918782798866653488190622531584.00
170141000918782798866653488190622531584.00
170141000918782798866653488190622531584.00
170141000918782798866653488190622531584.00
170141000918782798866653488190622531584.00
170141000918782798866653488190622531584.00
170141000918782798866653488190622531584.00
170141000918782798866653488190622531584.00
170141000918782798866653488190622531584.00
170141000918782798866653488190622531584.00
170141000918782798866653488190622531584.00
170141000918782798866653488190622531584.00
170141000918782798866653488190622531584.00
170141000918782798866653488190622531584.00
170141000918782798866653488190622531584.00
170141000918782798866653488190622531584.00
170141000918782798866653488190622531584.00
170141000918782798866653488190622531584.00
170141000918782798866653488190622531584.00
170141000918782798866653488190622531584.00
170141000918782798866653488190622531584.00
170141000918782798866653488190622531584.00
170141000918782798866653488190622531584.00
170141000918782798866653488190622531584.00
170141000918782798866653488190622531584.00
170141000918782798866653488190622531584.00
170141000918782798866653488190622531584.00
170141000918782798866653488190622531584.00
170141000918782798866653488190622531584.00
170141000918782798866653488190622531584.00
170141000918782798866653488190622531584.00
170141000918782798866653488190622531584.00
170141000918782798866653488190622531584.00
170141000918782798866653488190622531584.00
170141000918782798866653488190622531584.00
170141000918782798866653488190622531584.00
170141000918782798866653488190622531584.00
170141000918782798866653488190622531584.00
170141000918782798866653488190622531584.00
170141000918782798866653488190622531584.00
170141000918782798866653488190622531584.00
170141000918782798866653488190622531584.00
170141000918782798866653488190622531584.00
170141000918782798866653488190622531584.00
170141000918782798866653488190622531584.00
170141000918782798866653488190622531584.00
170141000918782798866653488190622531584.00
170141000918782798866653488190622531584.00
170141000918782798866653488190622531584.00
   2.10
   2.15
   2.28
   2.23
   1.21
   0.68
   0.56
170141000918782798866653488190622531584.00
170141000918782798866653488190622531584.00
170141000918782798866653488190622531584.00
170141000918782798866653488190622531584.00
170141000918782798866653488190622531584.00
170141000918782798866653488190622531584.00
170141000918782798866653488190622531584.00
170141000918782798866653488190622531584.00
170141000918782798866653488190622531584.00
170141000918782798866653488190622531584.00
170141000918782798866653488190622531584.00
170141000918782798866653488190622531584.00
170141000918782798866653488190622531584.00
170141000918782798866653488190622531584.00
170141000918782798866653488190622531584.00
170141000918782798866653488190622531584.00
170141000918782798866653488190622531584.00
170141000918782798866653488190622531584.00
170141000918782798866653488190622531584.00
170141000918782798866653488190622531584.00
170141000918782798866653488190622531584.00
170141000918782798866653488190622531584.00
170141000918782798866653488190622531584.00
170141000918782798866653488190622531584.00
170141000918782798866653488190622531584.00
170141000918782798866653488190622531584.00
170141000918782798866653488190622531584.00
170141000918782798866653488190622531584.00
170141000918782798866653488190622531584.00
170141000918782798866653488190622531584.00
170141000918782798866653488190622531584.00
170141000918782798866653488190622531584.00
170141000918782798866653488190622531584.00
170141000918782798866653488190622531584.00
170141000918782798866653488190622531584.00
170141000918782798866653488190622531584.00
170141000918782798866653488190622531584.00
170141000918782798866653488190622531584.00
170141000918782798866653488190622531584.00
170141000918782798866653488190622531584.00
170141000918782798866653488190622531584.00
170141000918782798866653488190622531584.00
170141000918782798866653488190622531584.00
170141000918782798866653488190622531584.00
170141000918782798866653488190622531584.00
170141000918782798866653488190622531584.00
170141000918782798866653488190622531584.00
170141000918782798866653488190622531584.00
170141000918782798866653488190622531584.00
170141000918782798866653488190622531584.00
170141000918782798866653488190622531584.00
170141000918782798866653488190622531584.00
170141000918782798866653488190622531584.00
170141000918782798866653488190622531584.00
170141000918782798866653488190622531584.00
170141000918782798866653488190622531584.00
170141000918782798866653488190622531584.00
170141000918782798866653488190622531584.00
170141000918782798866653488190622531584.00
   3.73
   3.76
   3.84
   3.92
   4.74
   4.81
   4.90
   5.03
   5.24
   5.46
   5.66
   5.84
   5.80
   5.86
   5.90
   6.02
   5.91
   5.62
   5.37
   5.11
   4.86
   4.62
   5.10
   5.15
170141000918782798866653488190622531584.00
170141000918782798866653488190622531584.00
170141000918782798866653488190622531584.00
170141000918782798866653488190622531584.00
170141000918782798866653488190622531584.00
170141000918782798866653488190622531584.00
170141000918782798866653488190622531584.00
170141000918782798866653488190622531584.00
170141000918782798866653488190622531584.00
170141000918782798866653488190622531584.00
170141000918782798866653488190622531584.00
170141000918782798866653488190622531584.00
170141000918782798866653488190622531584.00
170141000918782798866653488190622531584.00
170141000918782798866653488190622531584.00
170141000918782798866653488190622531584.00
170141000918782798866653488190622531584.00
170141000918782798866653488190622531584.00
170141000918782798866653488190622531584.00
170141000918782798866653488190622531584.00
170141000918782798866653488190622531584.00
170141000918782798866653488190622531584.00
170141000918782798866653488190622531584.00
170141000918782798866653488190622531584.00
170141000918782798866653488190622531584.00
170141000918782798866653488190622531584.00
170141000918782798866653488190622531584.00
170141000918782798866653488190622531584.00
170141000918782798866653488190622531584.00
170141000918782798866653488190622531584.00
170141000918782798866653488190622531584.00
170141000918782798866653488190622531584.00
170141000918782798866653488190622531584.00
170141000918782798866653488190622531584.00
170141000918782798866653488190622531584.00
   2.06
   2.11
   2.31
   2.18
   1.37
   0.78
   0.72
   0.76
170141000918782798866653488190622531584.00
170141000918782798866653488190622531584.00
170141000918782798866653488190622531584.00
170141000918782798866653488190622531584.00
170141000918782798866653488190622531584.00
170141000918782798866653488190622531584.00
170141000918782798866653488190622531584.00
170141000918782798866653488190622531584.00
170141000918782798866653488190622531584.00
170141000918782798866653488190622531584.00
170141000918782798866653488190622531584.00
170141000918782798866653488190622531584.00
170141000918782798866653488190622531584.00
170141000918782798866653488190622531584.00
170141000918782798866653488190622531584.00
170141000918782798866653488190622531584.00
170141000918782798866653488190622531584.00
170141000918782798866653488190622531584.00
170141000918782798866653488190622531584.00
170141000918782798866653488190622531584.00
170141000918782798866653488190622531584.00
170141000918782798866653488190622531584.00
170141000918782798866653488190622531584.00
170141000918782798866653488190622531584.00
170141000918782798866653488190622531584.00
170141000918782798866653488190622531584.00
170141000918782798866653488190622531584.00
170141000918782798866653488190622531584.00
170141000918782798866653488190622531584.00
170141000918782798866653488190622531584.00
170141000918782798866653488190622531584.00
170141000918782798866653488190622531584.00
170141000918782798866653488190622531584.00
170141000918782798866653488190622531584.00
170141000918782798866653488190622531584.00
170141000918782798866653488190622531584.00
170141000918782798866653488190622531584.00
170141000918782798866653488190622531584.00
170141000918782798866653488190622531584.00
170141000918782798866653488190622531584.00
170141000918782798866653488190622531584.00
170141000918782798866653488190622531584.00
170141000918782798866653488190622531584.00
170141000918782798866653488190622531584.00
170141000918782798866653488190622531584.00
170141000918782798866653488190622531584.00
170141000918782798866653488190622531584.00
   1.88
   2.10
   2.34
170141000918782798866653488190622531584.00
170141000918782798866653488190622531584.00
   3.09
   3.06
   3.40
   3.70
   3.72
   4.09
   3.84
   3.78
   3.86
   3.93
   4.68
   4.74
   4.82
   4.96
   5.17
   5.40
   5.52
   5.71
   5.80
   5.86
   6.09
   5.99
   5.88
   5.58
   5.32
   5.05
   4.79
   4.97
   5.03
   5.09
   4.80
   4.95
   4.95
   5.12
   5.26
   5.43
170141000918782798866653488190622531584.00
170141000918782798866653488190622531584.00
170141000918782798866653488190622531584.00
170141000918782798866653488190622531584.00
170141000918782798866653488190622531584.00
170141000918782798866653488190622531584.00
170141000918782798866653488190622531584.00
170141000918782798866653488190622531584.00
170141000918782798866653488190622531584.00
170141000918782798866653488190622531584.00
170141000918782798866653488190622531584.00
170141000918782798866653488190622531584.00
170141000918782798866653488190622531584.00
170141000918782798866653488190622531584.00
170141000918782798866653488190622531584.00
170141000918782798866653488190622531584.00
170141000918782798866653488190622531584.00
170141000918782798866653488190622531584.00
170141000918782798866653488190622531584.00
170141000918782798866653488190622531584.00
170141000918782798866653488190622531584.00
170141000918782798866653488190622531584.00
170141000918782798866653488190622531584.00
170141000918782798866653488190622531584.00
170141000918782798866653488190622531584.00
170141000918782798866653488190622531584.00
170141000918782798866653488190622531584.00
170141000918782798866653488190622531584.00
170141000918782798866653488190622531584.00
   2.14
   2.22
   2.20
   2.20
   2.07
   1.67
   1.44
   1.45
170141000918782798866653488190622531584.00
170141000918782798866653488190622531584.00
170141000918782798866653488190622531584.00
170141000918782798866653488190622531584.00
170141000918782798866653488190622531584.00
170141000918782798866653488190622531584.00
170141000918782798866653488190622531584.00
170141000918782798866653488190622531584.00
170141000918782798866653488190622531584.00
170141000918782798866653488190622531584.00
170141000918782798866653488190622531584.00
170141000918782798866653488190622531584.00
170141000918782798866653488190622531584.00
170141000918782798866653488190622531584.00
170141000918782798866653488190622531584.00
170141000918782798866653488190622531584.00
170141000918782798866653488190622531584.00
170141000918782798866653488190622531584.00
170141000918782798866653488190622531584.00
170141000918782798866653488190622531584.00
170141000918782798866653488190622531584.00
170141000918782798866653488190622531584.00
170141000918782798866653488190622531584.00
170141000918782798866653488190622531584.00
170141000918782798866653488190622531584.00
170141000918782798866653488190622531584.00
170141000918782798866653488190622531584.00
170141000918782798866653488190622531584.00
170141000918782798866653488190622531584.00
170141000918782798866653488190622531584.00
170141000918782798866653488190622531584.00
170141000918782798866653488190622531584.00
170141000918782798866653488190622531584.00
170141000918782798866653488190622531584.00
170141000918782798866653488190622531584.00
170141000918782798866653488190622531584.00
170141000918782798866653488190622531584.00
170141000918782798866653488190622531584.00
170141000918782798866653488190622531584.00
170141000918782798866653488190622531584.00
170141000918782798866653488190622531584.00
170141000918782798866653488190622531584.00
170141000918782798866653488190622531584.00
170141000918782798866653488190622531584.00
170141000918782798866653488190622531584.00
170141000918782798866653488190622531584.00
   1.65
   1.85
   2.07
   2.31
   2.57
   2.83
   3.09
   3.01
   3.48
   3.79
   3.82
   4.16
   4.16
   3.81
   3.89
   3.95
   4.60
   4.66
   4.74
   4.88
   5.10
   5.33
   5.37
   5.56
   5.80
   5.86
   6.07
   5.97
   5.85
   5.53
   5.26
   4.99
   4.72
   4.90
   4.97
   5.02
   4.77
   4.92
   4.91
   5.08
   5.23
   5.41
   5.36
   5.31
   5.27
   5.23
170141000918782798866653488190622531584.00
   5.18
   5.35
   5.41
170141000918782798866653488190622531584.00
   5.52
   5.57
   5.62
170141000918782798866653488190622531584.00
170141000918782798866653488190622531584.00
170141000918782798866653488190622531584.00
170141000918782798866653488190622531584.00
170141000918782798866653488190622531584.00
170141000918782798866653488190622531584.00
170141000918782798866653488190622531584.00
170141000918782798866653488190622531584.00
170141000918782798866653488190622531584.00
170141000918782798866653488190622531584.00
170141000918782798866653488190622531584.00
170141000918782798866653488190622531584.00
170141000918782798866653488190622531584.00
170141000918782798866653488190622531584.00
170141000918782798866653488190622531584.00
170141000918782798866653488190622531584.00
   1.89
   1.94
   2.00
   2.29
   2.39
   2.35
   1.72
   1.65
170141000918782798866653488190622531584.00
170141000918782798866653488190622531584.00
170141000918782798866653488190622531584.00
170141000918782798866653488190622531584.00
170141000918782798866653488190622531584.00
170141000918782798866653488190622531584.00
170141000918782798866653488190622531584.00
170141000918782798866653488190622531584.00
170141000918782798866653488190622531584.00
170141000918782798866653488190622531584.00
170141000918782798866653488190622531584.00
170141000918782798866653488190622531584.00
170141000918782798866653488190622531584.00
170141000918782798866653488190622531584.00
170141000918782798866653488190622531584.00
170141000918782798866653488190622531584.00
170141000918782798866653488190622531584.00
170141000918782798866653488190622531584.00
170141000918782798866653488190622531584.00
170141000918782798866653488190622531584.00
170141000918782798866653488190622531584.00
170141000918782798866653488190622531584.00
170141000918782798866653488190622531584.00
170141000918782798866653488190622531584.00
170141000918782798866653488190622531584.00
170141000918782798866653488190622531584.00
170141000918782798866653488190622531584.00
170141000918782798866653488190622531584.00
170141000918782798866653488190622531584.00
170141000918782798866653488190622531584.00
170141000918782798866653488190622531584.00
170141000918782798866653488190622531584.00
170141000918782798866653488190622531584.00
170141000918782798866653488190622531584.00
170141000918782798866653488190622531584.00
170141000918782798866653488190622531584.00
170141000918782798866653488190622531584.00
170141000918782798866653488190622531584.00
170141000918782798866653488190622531584.00
170141000918782798866653488190622531584.00
170141000918782798866653488190622531584.00
170141000918782798866653488190622531584.00
170141000918782798866653488190622531584.00
170141000918782798866653488190622531584.00
170141000918782798866653488190622531584.00
170141000918782798866653488190622531584.00
   1.46
   1.63
   1.83
   2.05
   2.29
   2.55
   2.82
   3.07
   3.45
   3.57
   3.90
   3.92
   4.23
   3.75
   3.71
   3.92
   3.98
   4.52
   4.58
   4.65
   4.73
   5.02
   5.26
   5.20
   5.40
   5.80
   6.00
   5.96
   5.93
   5.74
   5.47
   5.20
   4.92
   4.65
   4.83
   4.87
   4.95
   4.73
   4.88
   4.86
   5.04
   5.19
   5.38
   5.33
   5.29
   5.25
   5.21
   5.19
   5.16
   5.35
   5.41
   5.46
   5.52
   5.57
   5.63
   5.67
   5.71
   5.43
170141000918782798866653488190622531584.00
170141000918782798866653488190622531584.00
170141000918782798866653488190622531584.00
170141000918782798866653488190622531584.00
170141000918782798866653488190622531584.00
170141000918782798866653488190622531584.00
170141000918782798866653488190622531584.00
   3.62
   1.70
   1.73
   1.76
   1.79
   1.84
   1.88
   1.94
   2.23
   2.37
   2.54
   2.54
   1.43
   1.42
   1.68
170141000918782798866653488190622531584.00
170141000918782798866653488190622531584.00
170141000918782798866653488190622531584.00
170141000918782798866653488190622531584.00
170141000918782798866653488190622531584.00
170141000918782798866653488190622531584.00
170141000918782798866653488190622531584.00
170141000918782798866653488190622531584.00
170141000918782798866653488190622531584.00
170141000918782798866653488190622531584.00
170141000918782798866653488190622531584.00
170141000918782798866653488190622531584.00
170141000918782798866653488190622531584.00
170141000918782798866653488190622531584.00
170141000918782798866653488190622531584.00
170141000918782798866653488190622531584.00
170141000918782798866653488190622531584.00
170141000918782798866653488190622531584.00
170141000918782798866653488190622531584.00
170141000918782798866653488190622531584.00
170141000918782798866653488190622531584.00
170141000918782798866653488190622531584.00
170141000918782798866653488190622531584.00
170141000918782798866653488190622531584.00
170141000918782798866653488190622531584.00
170141000918782798866653488190622531584.00
170141000918782798866653488190622531584.00
170141000918782798866653488190622531584.00
170141000918782798866653488190622531584.00
170141000918782798866653488190622531584.00
170141000918782798866653488190622531584.00
170141000918782798866653488190622531584.00
170141000918782798866653488190622531584.00
170141000918782798866653488190622531584.00
170141000918782798866653488190622531584.00
170141000918782798866653488190622531584.00
170141000918782798866653488190622531584.00
170141000918782798866653488190622531584.00
170141000918782798866653488190622531584.00
170141000918782798866653488190622531584.00
170141000918782798866653488190622531584.00
170141000918782798866653488190622531584.00
170141000918782798866653488190622531584.00
170141000918782798866653488190622531584.00
   1.31
   1.45
   1.62
   1.82
   2.04
   2.27
   2.53
   2.79
   3.58
   3.54
   3.98
   4.01
   4.33
   4.32
   3.91
   3.86
   3.95
   4.00
   4.04
   4.49
   4.53
   4.65
   4.79
   5.18
   5.09
   5.23
   5.54
   5.83
   5.79
   5.74
   5.67
   5.40
   5.13
   4.85
   4.58
   4.75
   4.79
   4.87
   4.69
   4.84
   4.82
   5.00
   5.15
   5.36
   5.31
   5.27
   5.23
   5.19
   5.17
   5.15
   5.35
   5.40
   5.46
   5.52
   5.58
   5.63
   5.68
   5.72
   5.47
170141000918782798866653488190622531584.00
170141000918782798866653488190622531584.00
170141000918782798866653488190622531584.00
170141000918782798866653488190622531584.00
170141000918782798866653488190622531584.00
170141000918782798866653488190622531584.00
   3.91
   3.64
   1.70
   1.72
   1.75
   1.79
   1.83
   2.08
   2.17
   2.07
   2.01
   2.09
   2.15
   1.94
   1.78
   1.85
   1.92
170141000918782798866653488190622531584.00
170141000918782798866653488190622531584.00
170141000918782798866653488190622531584.00
170141000918782798866653488190622531584.00
170141000918782798866653488190622531584.00
170141000918782798866653488190622531584.00
170141000918782798866653488190622531584.00
170141000918782798866653488190622531584.00
170141000918782798866653488190622531584.00
170141000918782798866653488190622531584.00
170141000918782798866653488190622531584.00
170141000918782798866653488190622531584.00
170141000918782798866653488190622531584.00
170141000918782798866653488190622531584.00
170141000918782798866653488190622531584.00
170141000918782798866653488190622531584.00
170141000918782798866653488190622531584.00
170141000918782798866653488190622531584.00
170141000918782798866653488190622531584.00
170141000918782798866653488190622531584.00
170141000918782798866653488190622531584.00
170141000918782798866653488190622531584.00
170141000918782798866653488190622531584.00
170141000918782798866653488190622531584.00
170141000918782798866653488190622531584.00
170141000918782798866653488190622531584.00
170141000918782798866653488190622531584.00
170141000918782798866653488190622531584.00
170141000918782798866653488190622531584.00
170141000918782798866653488190622531584.00
170141000918782798866653488190622531584.00
170141000918782798866653488190622531584.00
170141000918782798866653488190622531584.00
170141000918782798866653488190622531584.00
170141000918782798866653488190622531584.00
170141000918782798866653488190622531584.00
170141000918782798866653488190622531584.00
170141000918782798866653488190622531584.00
170141000918782798866653488190622531584.00
170141000918782798866653488190622531584.00
170141000918782798866653488190622531584.00
170141000918782798866653488190622531584.00
170141000918782798866653488190622531584.00
   1.67
   1.69
   1.62
   1.81
   2.03
   2.26
   2.51
   3.28
   3.63
   3.63
   4.10
   4.13
   4.42
   4.41
   4.07
   4.02
   3.99
   4.03
   4.28
   4.20
   4.46
   4.58
   4.71
   4.85
   4.84
   5.11
   5.39
   5.64
   5.60
   5.56
   5.42
   5.33
   5.06
   4.78
   4.51
   4.67
   4.72
   4.80
   4.65
   4.80
   4.77
   4.94
   5.10
   5.34
   5.29
   5.25
   5.21
   5.18
   5.15
   5.13
   5.35
   5.40
   5.46
   5.52
   5.57
   5.63
   5.67
   5.72
   5.50
   5.29
170141000918782798866653488190622531584.00
170141000918782798866653488190622531584.00
170141000918782798866653488190622531584.00
   4.43
   4.18
   3.92
   3.65
   1.70
   1.72
   1.89
   1.95
   2.03
   2.11
   2.04
   1.98
   1.92
   1.96
   1.90
   1.92
   1.88
   2.08
   2.20
170141000918782798866653488190622531584.00
170141000918782798866653488190622531584.00
170141000918782798866653488190622531584.00
170141000918782798866653488190622531584.00
170141000918782798866653488190622531584.00
170141000918782798866653488190622531584.00
170141000918782798866653488190622531584.00
170141000918782798866653488190622531584.00
170141000918782798866653488190622531584.00
170141000918782798866653488190622531584.00
170141000918782798866653488190622531584.00
170141000918782798866653488190622531584.00
170141000918782798866653488190622531584.00
170141000918782798866653488190622531584.00
170141000918782798866653488190622531584.00
170141000918782798866653488190622531584.00
170141000918782798866653488190622531584.00
170141000918782798866653488190622531584.00
170141000918782798866653488190622531584.00
170141000918782798866653488190622531584.00
170141000918782798866653488190622531584.00
170141000918782798866653488190622531584.00
170141000918782798866653488190622531584.00
170141000918782798866653488190622531584.00
170141000918782798866653488190622531584.00
170141000918782798866653488190622531584.00
170141000918782798866653488190622531584.00
170141000918782798866653488190622531584.00
170141000918782798866653488190622531584.00
170141000918782798866653488190622531584.00
170141000918782798866653488190622531584.00
170141000918782798866653488190622531584.00
170141000918782798866653488190622531584.00
170141000918782798866653488190622531584.00
170141000918782798866653488190622531584.00
170141000918782798866653488190622531584.00
170141000918782798866653488190622531584.00
170141000918782798866653488190622531584.00
170141000918782798866653488190622531584.00
170141000918782798866653488190622531584.00
170141000918782798866653488190622531584.00
170141000918782798866653488190622531584.00
   1.63
   1.64
   1.66
   1.68
   2.37
   2.43
   2.48
   2.91
   3.53
   3.83
   3.88
   4.22
   4.19
   4.52
   4.20
   4.23
   4.17
   4.11
   4.36
   4.28
   4.20
   4.40
   4.52
   4.64
   4.78
   4.63
   4.86
   4.87
   5.46
   5.41
   5.16
   5.07
   5.16
   4.99
   4.15
   4.04
   3.94
   4.65
   4.73
   4.61
   4.76
   4.72
   4.89
   5.37
   5.32
   5.27
   5.23
   5.19
   5.16
   5.14
   5.12
   5.34
   5.40
   5.46
   5.51
   5.57
   5.62
   5.67
   5.71
   5.52
   5.25
   5.04
   4.85
   4.63
   4.41
   4.17
   3.91
   3.65
   1.83
   1.87
   1.92
   1.99
   2.06
   2.01
   1.95
   1.89
   1.83
   1.84
   1.78
   2.15
   2.17
   2.18
   2.23
   2.17
170141000918782798866653488190622531584.00
170141000918782798866653488190622531584.00
170141000918782798866653488190622531584.00
170141000918782798866653488190622531584.00
170141000918782798866653488190622531584.00
170141000918782798866653488190622531584.00
170141000918782798866653488190622531584.00
170141000918782798866653488190622531584.00
170141000918782798866653488190622531584.00
170141000918782798866653488190622531584.00
170141000918782798866653488190622531584.00
170141000918782798866653488190622531584.00
170141000918782798866653488190622531584.00
170141000918782798866653488190622531584.00
170141000918782798866653488190622531584.00
170141000918782798866653488190622531584.00
170141000918782798866653488190622531584.00
170141000918782798866653488190622531584.00
170141000918782798866653488190622531584.00
170141000918782798866653488190622531584.00
170141000918782798866653488190622531584.00
170141000918782798866653488190622531584.00
170141000918782798866653488190622531584.00
170141000918782798866653488190622531584.00
170141000918782798866653488190622531584.00
170141000918782798866653488190622531584.00
170141000918782798866653488190622531584.00
170141000918782798866653488190622531584.00
170141000918782798866653488190622531584.00
170141000918782798866653488190622531584.00
170141000918782798866653488190622531584.00
170141000918782798866653488190622531584.00
170141000918782798866653488190622531584.00
170141000918782798866653488190622531584.00
170141000918782798866653488190622531584.00
170141000918782798866653488190622531584.00
170141000918782798866653488190622531584.00
170141000918782798866653488190622531584.00
170141000918782798866653488190622531584.00
170141000918782798866653488190622531584.00
170141000918782798866653488190622531584.00
   1.45
   1.54
   1.65
   1.78
   1.95
   2.09
   2.75
   3.02
   3.29
   3.86
   3.93
   3.85
   3.89
   3.93
   4.19
   4.38
   4.32
   4.11
   4.36
   4.28
   4.20
   4.35
   4.46
   4.58
   4.38
   4.52
   4.89
   5.16
   5.07
   4.98
   4.89
   4.80
   4.71
   4.09
   3.99
   3.89
   3.79
   4.30
   4.67
   4.58
   4.72
   4.67
   4.84
   5.35
   5.30
   5.25
   5.21
   5.18
   5.15
   5.13
   5.29
   5.34
   5.39
   5.45
   5.51
   5.56
   5.61
   5.66
   5.70
   5.45
   5.23
   5.01
   4.82
   4.61
   4.38
   4.19
   3.96
   3.73
   1.86
   1.90
   1.96
   2.02
   1.98
   1.93
   1.87
   1.81
   1.78
   1.72
   2.13
   2.23
   2.24
   2.26
   2.12
   2.22
170141000918782798866653488190622531584.00
170141000918782798866653488190622531584.00
170141000918782798866653488190622531584.00
170141000918782798866653488190622531584.00
170141000918782798866653488190622531584.00
170141000918782798866653488190622531584.00
170141000918782798866653488190622531584.00
170141000918782798866653488190622531584.00
170141000918782798866653488190622531584.00
170141000918782798866653488190622531584.00
170141000918782798866653488190622531584.00
170141000918782798866653488190622531584.00
170141000918782798866653488190622531584.00
170141000918782798866653488190622531584.00
170141000918782798866653488190622531584.00
170141000918782798866653488190622531584.00
170141000918782798866653488190622531584.00
170141000918782798866653488190622531584.00
170141000918782798866653488190622531584.00
170141000918782798866653488190622531584.00
170141000918782798866653488190622531584.00
170141000918782798866653488190622531584.00
170141000918782798866653488190622531584.00
170141000918782798866653488190622531584.00
170141000918782798866653488190622531584.00
170141000918782798866653488190622531584.00
170141000918782798866653488190622531584.00
170141000918782798866653488190622531584.00
170141000918782798866653488190622531584.00
170141000918782798866653488190622531584.00
170141000918782798866653488190622531584.00
170141000918782798866653488190622531584.00
170141000918782798866653488190622531584.00
170141000918782798866653488190622531584.00
170141000918782798866653488190622531584.00
170141000918782798866653488190622531584.00
170141000918782798866653488190622531584.00
170141000918782798866653488190622531584.00
170141000918782798866653488190622531584.00
170141000918782798866653488190622531584.00
   1.40
   1.48
   1.58
   1.70
   1.85
   1.99
   2.15
   2.28
   2.79
   3.16
   3.36
   3.60
   4.03
   3.86
   3.84
   4.17
   4.29
   4.46
   4.53
   4.36
   4.29
   4.22
   4.14
   4.41
   4.52
   4.42
   4.48
   4.73
   4.86
   4.83
   4.71
   4.62
   4.53
   4.45
   4.25
   3.83
   3.73
   3.64
   3.95
   4.28
   4.55
   4.69
   4.63
   4.80
   5.33
   5.28
   5.24
   5.20
   5.17
   5.14
   5.12
   5.28
   5.33
   5.39
   5.44
   5.50
   5.55
   5.60
   5.64
   5.68
   5.43
   5.20
   4.96
   4.78
   4.57
   4.40
   4.18
   3.97
   3.75
   1.90
   1.94
   2.00
   1.96
   1.91
   1.86
   1.80
   1.74
   1.68
   2.12
   2.20
   2.30
   2.32
   2.07
   2.18
   2.11
   1.98
170141000918782798866653488190622531584.00
170141000918782798866653488190622531584.00
170141000918782798866653488190622531584.00
170141000918782798866653488190622531584.00
170141000918782798866653488190622531584.00
170141000918782798866653488190622531584.00
170141000918782798866653488190622531584.00
170141000918782798866653488190622531584.00
170141000918782798866653488190622531584.00
170141000918782798866653488190622531584.00
170141000918782798866653488190622531584.00
170141000918782798866653488190622531584.00
170141000918782798866653488190622531584.00
170141000918782798866653488190622531584.00
170141000918782798866653488190622531584.00
170141000918782798866653488190622531584.00
170141000918782798866653488190622531584.00
170141000918782798866653488190622531584.00
170141000918782798866653488190622531584.00
170141000918782798866653488190622531584.00
170141000918782798866653488190622531584.00
170141000918782798866653488190622531584.00
170141000918782798866653488190622531584.00
170141000918782798866653488190622531584.00
170141000918782798866653488190622531584.00
170141000918782798866653488190622531584.00
170141000918782798866653488190622531584.00
170141000918782798866653488190622531584.00
170141000918782798866653488190622531584.00
170141000918782798866653488190622531584.00
170141000918782798866653488190622531584.00
170141000918782798866653488190622531584.00
170141000918782798866653488190622531584.00
170141000918782798866653488190622531584.00
170141000918782798866653488190622531584.00
170141000918782798866653488190622531584.00
170141000918782798866653488190622531584.00
170141000918782798866653488190622531584.00
170141000918782798866653488190622531584.00
   1.43
   1.51
   1.62
   1.74
   1.87
   2.02
   2.19
   2.36
   3.15
   3.34
   3.53
   3.79
   3.85
   3.91
   3.96
   4.14
   4.26
   4.32
   4.59
   4.48
   4.30
   4.23
   4.16
   4.18
   4.28
   4.33
   4.38
   4.22
   4.58
   4.46
   4.46
   4.37
   4.28
   4.09
   4.08
   3.71
   3.60
   3.51
   3.82
   4.22
   4.41
   4.66
   4.60
   4.76
   5.31
   5.26
   5.22
   5.19
   5.16
   5.13
   5.11
   5.28
   5.33
   5.38
   5.43
   5.48
   5.53
   5.58
   5.63
   5.66
   5.41
   5.15
   4.89
   4.72
   4.52
   4.36
   4.16
   3.96
   3.75
   1.94
   1.98
   1.94
   1.90
   1.84
   1.79
   1.73
   2.05
   2.11
   2.18
   2.25
   2.37
   2.01
   2.12
   1.91
   1.91
   2.04
   1.90
170141000918782798866653488190622531584.00
170141000918782798866653488190622531584.00
170141000918782798866653488190622531584.00
170141000918782798866653488190622531584.00
170141000918782798866653488190622531584.00
170141000918782798866653488190622531584.00
170141000918782798866653488190622531584.00
170141000918782798866653488190622531584.00
170141000918782798866653488190622531584.00
170141000918782798866653488190622531584.00
170141000918782798866653488190622531584.00
170141000918782798866653488190622531584.00
170141000918782798866653488190622531584.00
170141000918782798866653488190622531584.00
170141000918782798866653488190622531584.00
170141000918782798866653488190622531584.00
170141000918782798866653488190622531584.00
170141000918782798866653488190622531584.00
170141000918782798866653488190622531584.00
170141000918782798866653488190622531584.00
170141000918782798866653488190622531584.00
170141000918782798866653488190622531584.00
170141000918782798866653488190622531584.00
170141000918782798866653488190622531584.00
170141000918782798866653488190622531584.00
170141000918782798866653488190622531584.00
170141000918782798866653488190622531584.00
170141000918782798866653488190622531584.00
170141000918782798866653488190622531584.00
170141000918782798866653488190622531584.00
170141000918782798866653488190622531584.00
170141000918782798866653488190622531584.00
170141000918782798866653488190622531584.00
170141000918782798866653488190622531584.00
170141000918782798866653488190622531584.00
170141000918782798866653488190622531584.00
170141000918782798866653488190622531584.00
170141000918782798866653488190622531584.00
170141000918782798866653488190622531584.00
   1.57
   1.54
   1.62
   1.71
   2.19
   2.33
   2.48
   2.63
   2.77
   3.15
   3.29
   3.67
   3.73
   3.78
   3.96
   4.05
   4.17
   4.06
   4.08
   4.32
   4.25
   4.19
   4.20
   4.22
   4.26
   4.09
   4.11
   4.31
   4.23
   4.15
   4.13
   4.04
   3.93
   3.64
   3.57
   3.47
   3.38
   3.70
   4.16
   4.35
   4.63
   4.58
   4.73
   5.29
   5.25
   5.21
   5.18
   5.15
   5.13
   5.11
   5.27
   5.32
   5.37
   5.42
   5.47
   5.52
   5.56
   5.61
   5.64
   5.38
   5.27
   4.96
   4.64
   4.57
   4.31
   4.12
   3.93
   3.67
   3.48
   1.93
   1.89
   1.84
   1.79
   1.73
   2.02
   2.06
   2.17
   2.24
   2.33
   2.34
   2.34
   1.93
   1.94
   2.22
   2.08
   1.93
   1.79
170141000918782798866653488190622531584.00
170141000918782798866653488190622531584.00
170141000918782798866653488190622531584.00
170141000918782798866653488190622531584.00
170141000918782798866653488190622531584.00
170141000918782798866653488190622531584.00
170141000918782798866653488190622531584.00
170141000918782798866653488190622531584.00
170141000918782798866653488190622531584.00
170141000918782798866653488190622531584.00
170141000918782798866653488190622531584.00
170141000918782798866653488190622531584.00
170141000918782798866653488190622531584.00
170141000918782798866653488190622531584.00
170141000918782798866653488190622531584.00
170141000918782798866653488190622531584.00
170141000918782798866653488190622531584.00
170141000918782798866653488190622531584.00
170141000918782798866653488190622531584.00
170141000918782798866653488190622531584.00
170141000918782798866653488190622531584.00
170141000918782798866653488190622531584.00
170141000918782798866653488190622531584.00
170141000918782798866653488190622531584.00
170141000918782798866653488190622531584.00
170141000918782798866653488190622531584.00
170141000918782798866653488190622531584.00
170141000918782798866653488190622531584.00
170141000918782798866653488190622531584.00
170141000918782798866653488190622531584.00
170141000918782798866653488190622531584.00
170141000918782798866653488190622531584.00
170141000918782798866653488190622531584.00
170141000918782798866653488190622531584.00
170141000918782798866653488190622531584.00
170141000918782798866653488190622531584.00
170141000918782798866653488190622531584.00
170141000918782798866653488190622531584.00
   1.37
   1.42
   1.69
   1.79
   1.91
   2.04
   2.18
   2.32
   2.47
   2.62
   2.93
   3.06
   3.55
   3.61
   3.67
   3.88
   3.97
   4.03
   4.06
   4.08
   4.28
   4.35
   4.23
   4.16
   4.19
   4.08
   4.02
   3.97
   4.02
   3.93
   3.92
   3.83
   3.78
   3.56
   3.44
   3.35
   3.27
   3.20
   4.11
   4.29
   4.34
   4.56
   4.70
   5.28
   5.24
   5.20
   5.17
   5.15
   5.13
   5.11
   5.27
   5.31
   5.36
   5.41
   5.45
   5.50
   5.54
   5.58
   5.62
   5.35
   5.25
   4.91
   4.67
   4.51
   4.24
   4.06
   3.82
   3.63
   3.40
   1.88
   1.84
   1.79
   1.74
   2.00
   2.03
   2.15
   2.22
   2.22
   2.39
   2.39
   1.94
   2.53
   2.40
   2.26
   2.12
   1.97
   1.83
   1.70
   1.58
170141000918782798866653488190622531584.00
170141000918782798866653488190622531584.00
170141000918782798866653488190622531584.00
170141000918782798866653488190622531584.00
170141000918782798866653488190622531584.00
170141000918782798866653488190622531584.00
170141000918782798866653488190622531584.00
170141000918782798866653488190622531584.00
170141000918782798866653488190622531584.00
170141000918782798866653488190622531584.00
170141000918782798866653488190622531584.00
170141000918782798866653488190622531584.00
170141000918782798866653488190622531584.00
170141000918782798866653488190622531584.00
170141000918782798866653488190622531584.00
170141000918782798866653488190622531584.00
170141000918782798866653488190622531584.00
170141000918782798866653488190622531584.00
170141000918782798866653488190622531584.00
170141000918782798866653488190622531584.00
170141000918782798866653488190622531584.00
170141000918782798866653488190622531584.00
170141000918782798866653488190622531584.00
170141000918782798866653488190622531584.00
170141000918782798866653488190622531584.00
170141000918782798866653488190622531584.00
170141000918782798866653488190622531584.00
170141000918782798866653488190622531584.00
170141000918782798866653488190622531584.00
170141000918782798866653488190622531584.00
170141000918782798866653488190622531584.00
170141000918782798866653488190622531584.00
170141000918782798866653488190622531584.00
   1.21
   1.21
170141000918782798866653488190622531584.00
   1.32
   1.36
   1.43
   1.51
   1.61
   1.73
   1.87
   2.01
   2.16
   2.31
   2.56
   2.70
   2.84
   2.90
   3.52
   3.75
   3.86
   3.99
   4.03
   4.06
   4.08
   4.42
   4.37
   4.12
   4.20
   4.13
   3.94
   3.85
   3.83
   3.75
   3.67
   3.65
   3.66
   3.49
   3.34
   3.26
   3.18
   3.12
   4.07
   4.24
   4.32
   4.37
   4.46
   5.26
   5.23
   5.20
   5.17
   5.15
   5.13
   5.12
   5.27
   5.31
   5.35
   5.39
   5.44
   5.48
   5.52
   5.56
   5.59
   5.31
   5.22
   4.85
   4.59
   4.44
   4.15
   3.93
   3.71
   3.52
   3.31
   1.85
   1.80
   1.75
   1.98
   2.01
   2.05
   2.20
   2.23
   2.26
   2.44
   1.95
   2.68
   2.57
   2.44
   2.30
   2.31
   2.13
   1.95
   1.79
   1.65
170141000918782798866653488190622531584.00
170141000918782798866653488190622531584.00
170141000918782798866653488190622531584.00
170141000918782798866653488190622531584.00
170141000918782798866653488190622531584.00
170141000918782798866653488190622531584.00
170141000918782798866653488190622531584.00
170141000918782798866653488190622531584.00
170141000918782798866653488190622531584.00
170141000918782798866653488190622531584.00
170141000918782798866653488190622531584.00
170141000918782798866653488190622531584.00
170141000918782798866653488190622531584.00
170141000918782798866653488190622531584.00
170141000918782798866653488190622531584.00
170141000918782798866653488190622531584.00
170141000918782798866653488190622531584.00
170141000918782798866653488190622531584.00
170141000918782798866653488190622531584.00
170141000918782798866653488190622531584.00
170141000918782798866653488190622531584.00
170141000918782798866653488190622531584.00
170141000918782798866653488190622531584.00
170141000918782798866653488190622531584.00
170141000918782798866653488190622531584.00
170141000918782798866653488190622531584.00
170141000918782798866653488190622531584.00
170141000918782798866653488190622531584.00
170141000918782798866653488190622531584.00
170141000918782798866653488190622531584.00
170141000918782798866653488190622531584.00
170141000918782798866653488190622531584.00
   1.15
   1.12
   1.10
170141000918782798866653488190622531584.00
   1.09
   1.12
   1.17
   1.24
   1.33
   1.43
   1.55
   1.69
   1.83
   1.98
   2.13
   2.34
   2.49
   2.60
   2.73
   3.17
   3.75
   3.86
   4.01
   4.05
   4.07
   4.47
   3.15
   4.30
   4.24
   4.18
   2.97
   2.96
   3.67
   3.59
   3.52
   3.51
   3.56
   3.43
   3.25
   3.18
   3.11
   3.06
   3.80
   4.20
   4.31
   4.30
   4.40
   5.26
   5.22
   5.20
   5.17
   5.15
   5.13
   5.12
   5.26
   5.30
   5.34
   5.38
   5.42
   5.46
   5.50
   5.53
   5.56
   5.28
   5.19
   4.79
   4.51
   4.37
   4.22
   3.76
   3.59
   3.41
   3.23
   1.82
   1.77
   2.07
   2.00
   2.03
   2.07
   2.22
   2.26
   2.30
   2.40
   3.17
   3.04
   2.90
   2.74
   2.57
   2.40
   2.22
   2.05
   1.89
   1.74
   1.79
170141000918782798866653488190622531584.00
170141000918782798866653488190622531584.00
170141000918782798866653488190622531584.00
170141000918782798866653488190622531584.00
170141000918782798866653488190622531584.00
170141000918782798866653488190622531584.00
170141000918782798866653488190622531584.00
170141000918782798866653488190622531584.00
170141000918782798866653488190622531584.00
170141000918782798866653488190622531584.00
170141000918782798866653488190622531584.00
170141000918782798866653488190622531584.00
170141000918782798866653488190622531584.00
170141000918782798866653488190622531584.00
170141000918782798866653488190622531584.00
170141000918782798866653488190622531584.00
170141000918782798866653488190622531584.00
170141000918782798866653488190622531584.00
170141000918782798866653488190622531584.00
170141000918782798866653488190622531584.00
170141000918782798866653488190622531584.00
170141000918782798866653488190622531584.00
170141000918782798866653488190622531584.00
170141000918782798866653488190622531584.00
170141000918782798866653488190622531584.00
170141000918782798866653488190622531584.00
170141000918782798866653488190622531584.00
170141000918782798866653488190622531584.00
170141000918782798866653488190622531584.00
170141000918782798866653488190622531584.00
170141000918782798866653488190622531584.00
   1.03
   0.97
   0.92
   0.89
   0.88
   0.89
   0.92
   0.97
   1.05
   1.14
   1.25
   1.38
   1.52
   1.66
   1.82
   1.97
   2.15
   2.30
   2.44
   2.93
   3.12
   3.76
   3.86
   4.03
   4.07
   2.92
   2.84
   2.78
   2.69
   2.68
   2.66
   2.65
   2.42
   2.39
   2.37
   2.36
   3.46
   3.39
   3.19
   3.12
   3.07
   3.71
   3.76
   4.16
   4.30
   4.26
   4.35
   4.44
   5.22
   5.19
   5.17
   5.15
   5.14
   5.13
   5.26
   5.29
   5.33
   5.37
   5.40
   5.44
   5.47
   5.51
   5.53
   5.24
   5.17
   4.83
   4.41
   4.29
   4.16
   3.63
   3.47
   3.31
   3.14
   1.79
   2.07
   2.10
   2.02
   2.50
   2.56
   2.63
   2.84
   2.47
   3.32
   3.23
   3.11
   2.97
   2.82
   2.66
   2.49
   2.32
   2.15
   1.99
   2.00
   1.94
170141000918782798866653488190622531584.00
170141000918782798866653488190622531584.00
170141000918782798866653488190622531584.00
170141000918782798866653488190622531584.00
170141000918782798866653488190622531584.00
170141000918782798866653488190622531584.00
170141000918782798866653488190622531584.00
170141000918782798866653488190622531584.00
170141000918782798866653488190622531584.00
170141000918782798866653488190622531584.00
170141000918782798866653488190622531584.00
170141000918782798866653488190622531584.00
170141000918782798866653488190622531584.00
170141000918782798866653488190622531584.00
170141000918782798866653488190622531584.00
170141000918782798866653488190622531584.00
170141000918782798866653488190622531584.00
170141000918782798866653488190622531584.00
170141000918782798866653488190622531584.00
170141000918782798866653488190622531584.00
170141000918782798866653488190622531584.00
170141000918782798866653488190622531584.00
170141000918782798866653488190622531584.00
170141000918782798866653488190622531584.00
170141000918782798866653488190622531584.00
170141000918782798866653488190622531584.00
170141000918782798866653488190622531584.00
170141000918782798866653488190622531584.00
170141000918782798866653488190622531584.00
170141000918782798866653488190622531584.00
170141000918782798866653488190622531584.00
   0.91
   0.83
   0.76
   0.72
   0.69
   0.68
   0.69
   0.73
   0.79
   0.87
   0.96
   1.08
   1.21
   1.36
   1.52
   1.67
   1.82
   2.01
   2.39
   2.69
   2.89
   3.07
   3.78
   2.58
   2.49
   2.60
   2.51
   2.43
   2.37
   2.34
   2.32
   2.30
   2.02
   2.01
   2.01
   2.02
   2.10
   2.20
   3.15
   3.09
   3.04
   3.69
   3.74
   3.80
   4.29
   4.23
   4.32
   4.40
   5.22
   5.20
   5.18
   5.16
   5.15
   5.14
   5.26
   5.29
   5.32
   5.35
   5.39
   5.42
   5.45
   5.48
   5.51
   5.21
   5.14
   4.78
   4.32
   4.21
   4.09
   3.50
   3.35
   3.20
   3.04
   2.06
   2.09
   2.44
   2.50
   2.56
   2.63
   2.47
   2.53
   2.60
   3.38
   3.29
   3.18
   3.05
   2.91
   2.76
   2.60
   2.43
   2.35
   2.23
   2.16
   2.09
170141000918782798866653488190622531584.00
170141000918782798866653488190622531584.00
170141000918782798866653488190622531584.00
170141000918782798866653488190622531584.00
170141000918782798866653488190622531584.00
170141000918782798866653488190622531584.00
170141000918782798866653488190622531584.00
   2.96
   3.02
170141000918782798866653488190622531584.00
170141000918782798866653488190622531584.00
170141000918782798866653488190622531584.00
170141000918782798866653488190622531584.00
170141000918782798866653488190622531584.00
170141000918782798866653488190622531584.00
170141000918782798866653488190622531584.00
170141000918782798866653488190622531584.00
170141000918782798866653488190622531584.00
170141000918782798866653488190622531584.00
170141000918782798866653488190622531584.00
170141000918782798866653488190622531584.00
170141000918782798866653488190622531584.00
170141000918782798866653488190622531584.00
170141000918782798866653488190622531584.00
170141000918782798866653488190622531584.00
170141000918782798866653488190622531584.00
170141000918782798866653488190622531584.00
170141000918782798866653488190622531584.00
170141000918782798866653488190622531584.00
170141000918782798866653488190622531584.00
170141000918782798866653488190622531584.00
   0.80
   0.71
   0.63
   0.56
   0.52
   0.49
   0.49
   0.51
   0.55
   0.62
   0.71
   0.81
   0.94
   1.08
   1.24
   1.39
   1.55
   1.92
   2.13
   2.34
   2.67
   2.85
   2.22
   2.14
   2.17
   2.26
   2.16
   2.07
   2.02
   1.98
   1.96
   1.94
   1.64
   1.63
   1.65
   1.68
   1.69
   1.93
   2.02
   2.11
   3.03
   3.67
   3.72
   3.78
   4.00
   4.21
   4.30
   4.39
   5.22
   5.20
   5.18
   5.17
   5.16
   5.16
   5.25
   5.28
   5.31
   5.34
   5.37
   5.40
   5.43
   5.45
   5.48
   5.17
   5.11
   4.72
   4.22
   4.12
   4.01
   3.36
   3.23
   3.10
   2.95
   2.39
   2.44
   2.49
   2.55
   2.62
   2.55
   2.59
   2.65
   3.48
   3.43
   3.35
   3.25
   3.14
   3.00
   2.74
   2.67
   2.60
   2.53
   2.46
   2.32
170141000918782798866653488190622531584.00
170141000918782798866653488190622531584.00
170141000918782798866653488190622531584.00
170141000918782798866653488190622531584.00
   2.62
   2.69
   2.77
   2.85
   2.97
   3.02
   2.98
170141000918782798866653488190622531584.00
170141000918782798866653488190622531584.00
170141000918782798866653488190622531584.00
170141000918782798866653488190622531584.00
170141000918782798866653488190622531584.00
170141000918782798866653488190622531584.00
170141000918782798866653488190622531584.00
170141000918782798866653488190622531584.00
170141000918782798866653488190622531584.00
170141000918782798866653488190622531584.00
170141000918782798866653488190622531584.00
170141000918782798866653488190622531584.00
170141000918782798866653488190622531584.00
170141000918782798866653488190622531584.00
170141000918782798866653488190622531584.00
170141000918782798866653488190622531584.00
170141000918782798866653488190622531584.00
170141000918782798866653488190622531584.00
170141000918782798866653488190622531584.00
170141000918782798866653488190622531584.00
170141000918782798866653488190622531584.00
   0.72
   0.61
   0.52
   0.44
   0.37
   0.33
   0.31
   0.32
   0.35
   0.40
   0.48
   0.58
   0.70
   0.84
   0.99
   1.14
   1.30
   1.68
   1.90
   2.11
   1.40
   1.44
   1.47
   1.20
   1.07
   1.06
   1.27
   1.30
   1.42
   1.53
   1.63
   1.72
   1.81
   1.27
   1.30
   1.35
   1.37
   1.66
   1.78
   1.89
   2.00
   2.10
   3.71
   3.76
   3.98
   4.21
   4.30
   4.38
   4.52
   5.21
   5.19
   5.18
   5.17
   5.17
   5.25
   5.27
   5.30
   5.33
   5.35
   5.38
   5.41
   5.43
   5.47
   5.49
   5.03
   4.67
   4.12
   4.03
   3.67
   3.23
   3.12
   3.38
   3.30
   2.43
   2.48
   2.53
   2.60
   2.57
   2.63
   2.69
   3.55
   3.52
   3.26
   3.23
   3.06
   3.02
   2.97
   2.91
   2.85
   2.78
   2.71
   2.55
   2.48
170141000918782798866653488190622531584.00
170141000918782798866653488190622531584.00
   2.45
   2.55
   2.56
   2.64
   2.72
   2.79
   2.97
   3.03
   2.99
170141000918782798866653488190622531584.00
170141000918782798866653488190622531584.00
170141000918782798866653488190622531584.00
170141000918782798866653488190622531584.00
170141000918782798866653488190622531584.00
170141000918782798866653488190622531584.00
170141000918782798866653488190622531584.00
170141000918782798866653488190622531584.00
170141000918782798866653488190622531584.00
170141000918782798866653488190622531584.00
170141000918782798866653488190622531584.00
170141000918782798866653488190622531584.00
170141000918782798866653488190622531584.00
170141000918782798866653488190622531584.00
170141000918782798866653488190622531584.00
170141000918782798866653488190622531584.00
170141000918782798866653488190622531584.00
170141000918782798866653488190622531584.00
170141000918782798866653488190622531584.00
170141000918782798866653488190622531584.00
170141000918782798866653488190622531584.00
   0.66
   0.54
   0.43
   0.34
   0.26
   0.21
   0.18
   0.17
   0.18
   0.23
   0.29
   0.38
   0.50
   0.63
   0.77
   0.93
   1.08
   1.24
   1.69
  -0.19
   1.02
   1.06
   0.30
   0.38
   0.48
   0.65
   0.72
   0.74
   0.87
   1.00
   1.13
   1.25
   1.36
   1.46
   1.54
   1.04
   1.08
   1.19
   1.54
   1.68
   1.81
   1.94
   2.06
   3.75
   3.98
   4.23
   4.31
   4.39
   4.52
   4.59
   5.20
   5.19
   5.19
   5.18
   5.25
   5.27
   5.29
   5.32
   5.34
   5.36
   5.39
   5.43
   5.45
   5.54
   5.56
   4.76
   4.33
   3.67
   3.57
   3.44
   3.38
   3.31
   3.25
   2.46
   2.51
   2.57
   2.91
   2.89
   3.34
   3.34
   3.34
   3.33
   3.32
   3.30
   3.20
   3.17
   3.13
   3.08
   3.02
   2.96
   2.83
   2.75
   2.80
170141000918782798866653488190622531584.00
   2.40
   2.36
   2.40
   2.56
   2.58
   2.66
   2.86
   3.09
   3.04
   3.04
170141000918782798866653488190622531584.00
170141000918782798866653488190622531584.00
170141000918782798866653488190622531584.00
170141000918782798866653488190622531584.00
170141000918782798866653488190622531584.00
170141000918782798866653488190622531584.00
170141000918782798866653488190622531584.00
170141000918782798866653488190622531584.00
170141000918782798866653488190622531584.00
170141000918782798866653488190622531584.00
170141000918782798866653488190622531584.00
170141000918782798866653488190622531584.00
170141000918782798866653488190622531584.00
170141000918782798866653488190622531584.00
170141000918782798866653488190622531584.00
170141000918782798866653488190622531584.00
170141000918782798866653488190622531584.00
170141000918782798866653488190622531584.00
170141000918782798866653488190622531584.00
170141000918782798866653488190622531584.00
170141000918782798866653488190622531584.00
   0.62
   0.49
170141000918782798866653488190622531584.00
   0.27
   0.18
   0.12
   0.07
   0.05
   0.06
   0.09
   0.15
   0.23
   0.33
   0.45
   0.59
   0.74
   0.90
  -1.23
  -0.77
  -0.77
  -0.98
  -0.39
  -0.31
  -0.22
   0.24
   0.05
   0.10
   0.17
   0.31
   0.46
   0.61
   0.75
   0.90
   1.03
   1.15
   1.25
   1.34
   0.94
   1.33
   1.48
   1.63
   1.78
   1.92
   2.51
   2.69
   4.26
   4.33
   4.41
   4.53
   4.59
   5.21
   5.21
   5.20
   5.20
   5.24
   5.26
   5.28
   5.30
   5.33
   5.35
   5.39
   5.41
   5.51
   5.52
   5.63
   5.64
   4.66
   4.20
   4.05
   3.35
   3.30
170141000918782798866653488190622531584.00
   2.44
   2.48
   2.87
   2.91
   2.89
   3.36
   3.37
   3.38
   3.39
   3.38
   3.37
   3.33
   3.32
   3.30
   3.27
   3.23
   3.18
   3.09
   3.06
   2.96
   2.86
   2.76
   2.81
   2.36
   2.40
   2.45
   2.61
   2.72
   2.85
   3.10
   3.11
   3.06
170141000918782798866653488190622531584.00
170141000918782798866653488190622531584.00
170141000918782798866653488190622531584.00
170141000918782798866653488190622531584.00
170141000918782798866653488190622531584.00
170141000918782798866653488190622531584.00
170141000918782798866653488190622531584.00
170141000918782798866653488190622531584.00
170141000918782798866653488190622531584.00
170141000918782798866653488190622531584.00
170141000918782798866653488190622531584.00
170141000918782798866653488190622531584.00
170141000918782798866653488190622531584.00
170141000918782798866653488190622531584.00
170141000918782798866653488190622531584.00
170141000918782798866653488190622531584.00
170141000918782798866653488190622531584.00
170141000918782798866653488190622531584.00
170141000918782798866653488190622531584.00
170141000918782798866653488190622531584.00
170141000918782798866653488190622531584.00
170141000918782798866653488190622531584.00
170141000918782798866653488190622531584.00
170141000918782798866653488190622531584.00
170141000918782798866653488190622531584.00
170141000918782798866653488190622531584.00
   0.06
   0.01
  -0.02
  -0.02
  -0.00
   0.04
   0.11
   0.21
   0.32
   0.46
  -1.18
  -1.57
  -1.68
  -1.79
  -1.90
  -1.37
  -0.98
  -0.80
  -0.41
  -0.37
  -0.34
  -0.49
  -0.32
  -0.25
  -0.09
   0.09
   0.26
   0.43
   0.60
   0.75
   0.89
   1.01
   1.12
   1.22
   1.31
   1.48
   1.64
   1.80
   2.36
   2.54
   3.17
   4.37
   4.47
   4.53
   4.60
   4.65
   5.22
   5.21
   5.21
   5.24
   5.26
   5.28
   5.30
   5.31
   5.36
   5.37
   5.48
   5.49
   5.61
   5.62
   5.63
   5.64
   4.57
   3.72
   3.26
   3.22
170141000918782798866653488190622531584.00
   2.45
   2.87
   2.91
   2.94
   3.36
   3.38
   3.40
   3.42
   3.43
   3.43
   3.42
   3.44
   3.44
   3.42
   3.40
   3.37
   3.30
   3.22
   3.13
   3.03
   2.92
   2.79
   2.78
   2.36
   2.41
   2.45
   2.70
   2.85
   2.96
   3.20
   3.16
   3.09
170141000918782798866653488190622531584.00
170141000918782798866653488190622531584.00
170141000918782798866653488190622531584.00
170141000918782798866653488190622531584.00
170141000918782798866653488190622531584.00
170141000918782798866653488190622531584.00
170141000918782798866653488190622531584.00
170141000918782798866653488190622531584.00
170141000918782798866653488190622531584.00
170141000918782798866653488190622531584.00
170141000918782798866653488190622531584.00
170141000918782798866653488190622531584.00
170141000918782798866653488190622531584.00
170141000918782798866653488190622531584.00
170141000918782798866653488190622531584.00
170141000918782798866653488190622531584.00
170141000918782798866653488190622531584.00
170141000918782798866653488190622531584.00
170141000918782798866653488190622531584.00
170141000918782798866653488190622531584.00
170141000918782798866653488190622531584.00
170141000918782798866653488190622531584.00
170141000918782798866653488190622531584.00
170141000918782798866653488190622531584.00
170141000918782798866653488190622531584.00
170141000918782798866653488190622531584.00
   0.05
  -0.02
  -0.05
  -0.07
  -0.06
  -0.02
   0.04
  -1.53
  -1.57
  -1.61
  -1.93
  -2.04
  -2.16
  -2.27
  -1.85
  -1.86
  -1.85
  -1.37
  -1.27
  -1.00
  -0.95
  -1.09
  -0.91
  -0.73
  -0.62
  -0.42
  -0.22
  -0.02
   0.17
   0.36
   0.53
   0.69
   0.83
   0.96
   1.28
   1.35
   1.53
   1.70
   2.22
   2.41
   2.58
   3.28
   4.49
   4.55
   4.60
   4.66
   4.70
   5.23
   5.23
   5.24
   5.26
   5.27
   5.29
   5.33
   5.34
   5.45
   5.47
   5.58
   5.60
   5.61
   5.62
   5.62
170141000918782798866653488190622531584.00
170141000918782798866653488190622531584.00
   3.78
   3.15
   3.50
   2.87
   2.93
   2.96
   3.34
   3.37
   3.40
   3.43
   3.45
   3.46
   3.48
   3.50
   3.52
   3.53
   3.53
   3.52
   3.43
   3.36
   3.28
   3.19
   3.09
   2.98
   2.86
   2.75
   2.37
   2.41
   2.46
   2.51
   2.91
   2.99
   3.26
   3.20
   3.16
   3.11
170141000918782798866653488190622531584.00
170141000918782798866653488190622531584.00
170141000918782798866653488190622531584.00
170141000918782798866653488190622531584.00
170141000918782798866653488190622531584.00
170141000918782798866653488190622531584.00
170141000918782798866653488190622531584.00
170141000918782798866653488190622531584.00
170141000918782798866653488190622531584.00
170141000918782798866653488190622531584.00
170141000918782798866653488190622531584.00
170141000918782798866653488190622531584.00
170141000918782798866653488190622531584.00
170141000918782798866653488190622531584.00
170141000918782798866653488190622531584.00
170141000918782798866653488190622531584.00
170141000918782798866653488190622531584.00
170141000918782798866653488190622531584.00
170141000918782798866653488190622531584.00
170141000918782798866653488190622531584.00
170141000918782798866653488190622531584.00
170141000918782798866653488190622531584.00
170141000918782798866653488190622531584.00
170141000918782798866653488190622531584.00
   0.15
   0.06
  -0.00
  -0.05
  -0.07
  -1.55
  -1.68
  -1.79
  -1.88
  -1.95
  -2.22
  -2.35
  -2.47
  -2.60
  -2.31
  -2.33
  -2.33
  -2.32
  -1.93
  -1.85
  -1.75
  -1.55
  -1.67
  -1.48
  -1.29
  -1.10
  -0.92
  -0.69
  -0.46
  -0.24
  -0.02
   0.18
   0.38
   0.55
   0.71
   1.08
   1.17
   1.26
   1.62
   2.11
   2.30
   2.51
   3.21
   3.38
   4.57
   4.62
   4.66
   4.70
   5.24
   5.24
   5.24
   5.25
   5.29
   5.30
   5.42
   5.43
   5.55
   5.57
   5.58
   5.59
   5.60
   5.61
170141000918782798866653488190622531584.00
170141000918782798866653488190622531584.00
170141000918782798866653488190622531584.00
170141000918782798866653488190622531584.00
   3.71
   3.54
   2.94
   2.97
   3.32
   3.35
   3.39
   3.42
   3.45
   3.47
   3.50
   3.53
   3.56
   3.59
   3.65
   3.63
   3.54
   3.49
   3.42
   3.34
   3.24
   3.14
   2.99
   2.93
   2.82
   2.72
   2.42
   2.47
   2.68
   2.97
   3.46
   3.29
   3.24
   3.19
   3.14
170141000918782798866653488190622531584.00
170141000918782798866653488190622531584.00
170141000918782798866653488190622531584.00
170141000918782798866653488190622531584.00
170141000918782798866653488190622531584.00
170141000918782798866653488190622531584.00
170141000918782798866653488190622531584.00
170141000918782798866653488190622531584.00
170141000918782798866653488190622531584.00
170141000918782798866653488190622531584.00
170141000918782798866653488190622531584.00
170141000918782798866653488190622531584.00
170141000918782798866653488190622531584.00
170141000918782798866653488190622531584.00
170141000918782798866653488190622531584.00
170141000918782798866653488190622531584.00
170141000918782798866653488190622531584.00
170141000918782798866653488190622531584.00
170141000918782798866653488190622531584.00
170141000918782798866653488190622531584.00
170141000918782798866653488190622531584.00
170141000918782798866653488190622531584.00
170141000918782798866653488190622531584.00
170141000918782798866653488190622531584.00
   0.20
  -1.09
  -1.27
  -1.45
  -1.63
  -1.79
  -1.94
  -2.08
  -2.19
  -2.44
  -2.58
  -2.72
  -2.87
  -3.00
  -2.76
  -2.78
  -2.79
  -2.78
  -2.48
  -2.40
  -2.31
  -2.21
  -2.22
  -2.03
  -1.83
  -1.63
  -1.43
  -1.13
  -0.88
  -0.62
  -0.38
  -0.14
   0.08
   0.29
   0.47
   0.64
   0.99
   1.10
   1.18
   2.01
   2.21
   2.45
   3.16
   3.34
   4.59
   4.63
   4.67
   4.71
   4.74
   5.14
   5.12
   5.27
   5.40
   5.41
   5.53
   5.54
   5.55
   5.56
170141000918782798866653488190622531584.00
   5.58
170141000918782798866653488190622531584.00
170141000918782798866653488190622531584.00
170141000918782798866653488190622531584.00
170141000918782798866653488190622531584.00
170141000918782798866653488190622531584.00
   4.68
   4.64
   3.34
   2.98
   3.01
   3.32
   3.36
   3.39
   3.43
   3.46
   3.50
   3.52
   3.56
   3.70
   3.71
   3.70
   3.62
   3.58
   3.53
   3.46
   3.38
   3.29
   3.18
   3.16
   2.99
   2.89
   2.79
   2.56
   2.64
   2.80
   3.21
   3.48
   3.34
   3.27
   3.22
   3.17
170141000918782798866653488190622531584.00
170141000918782798866653488190622531584.00
170141000918782798866653488190622531584.00
170141000918782798866653488190622531584.00
170141000918782798866653488190622531584.00
170141000918782798866653488190622531584.00
170141000918782798866653488190622531584.00
170141000918782798866653488190622531584.00
170141000918782798866653488190622531584.00
170141000918782798866653488190622531584.00
170141000918782798866653488190622531584.00
170141000918782798866653488190622531584.00
170141000918782798866653488190622531584.00
170141000918782798866653488190622531584.00
170141000918782798866653488190622531584.00
170141000918782798866653488190622531584.00
170141000918782798866653488190622531584.00
170141000918782798866653488190622531584.00
170141000918782798866653488190622531584.00
170141000918782798866653488190622531584.00
170141000918782798866653488190622531584.00
170141000918782798866653488190622531584.00
170141000918782798866653488190622531584.00
  -0.79
  -0.99
  -1.20
  -1.40
  -1.61
  -1.81
  -2.00
  -2.17
  -2.33
  -2.57
  -2.73
  -2.90
  -3.05
  -3.21
  -3.12
  -3.17
  -3.21
  -3.22
  -3.21
  -2.99
  -2.92
  -2.84
  -2.74
  -2.73
  -2.54
  -2.34
  -2.12
  -1.93
  -1.72
  -1.35
  -0.98
  -0.70
  -0.44
  -0.19
   0.04
   0.26
   0.45
   0.81
   0.94
   1.04
   1.13
   2.13
   2.42
   2.60
   3.30
   3.47
   3.61
   4.69
   4.66
   5.11
   5.20
   5.20
170141000918782798866653488190622531584.00
170141000918782798866653488190622531584.00
170141000918782798866653488190622531584.00
170141000918782798866653488190622531584.00
170141000918782798866653488190622531584.00
170141000918782798866653488190622531584.00
170141000918782798866653488190622531584.00
170141000918782798866653488190622531584.00
170141000918782798866653488190622531584.00
170141000918782798866653488190622531584.00
170141000918782798866653488190622531584.00
170141000918782798866653488190622531584.00
170141000918782798866653488190622531584.00
170141000918782798866653488190622531584.00
170141000918782798866653488190622531584.00
170141000918782798866653488190622531584.00
   3.54
   3.36
   3.37
   3.32
   3.36
   3.40
   3.44
   3.47
   3.51
   3.53
   3.71
   3.73
   3.74
   3.67
   3.65
   3.61
   3.56
   3.49
   3.41
   3.32
   3.24
   3.17
   3.04
   2.95
   2.85
   2.67
   2.77
   2.91
   3.20
   3.42
   3.37
   3.30
   3.25
   3.21
   3.18
170141000918782798866653488190622531584.00
170141000918782798866653488190622531584.00
170141000918782798866653488190622531584.00
170141000918782798866653488190622531584.00
170141000918782798866653488190622531584.00
170141000918782798866653488190622531584.00
170141000918782798866653488190622531584.00
170141000918782798866653488190622531584.00
170141000918782798866653488190622531584.00
170141000918782798866653488190622531584.00
170141000918782798866653488190622531584.00
170141000918782798866653488190622531584.00
170141000918782798866653488190622531584.00
170141000918782798866653488190622531584.00
170141000918782798866653488190622531584.00
170141000918782798866653488190622531584.00
170141000918782798866653488190622531584.00
170141000918782798866653488190622531584.00
170141000918782798866653488190622531584.00
170141000918782798866653488190622531584.00
170141000918782798866653488190622531584.00
170141000918782798866653488190622531584.00
170141000918782798866653488190622531584.00
  -1.06
  -1.28
  -1.51
  -1.73
  -1.95
  -2.16
  -2.36
  -2.57
  -2.80
  -2.98
  -3.16
  -3.33
  -3.47
  -3.49
  -3.55
  -3.59
  -3.61
  -3.61
  -3.45
  -3.40
  -3.33
  -3.23
  -3.11
  -3.00
  -2.79
  -2.57
  -2.37
  -2.15
  -1.94
  -1.45
  -1.21
  -1.00
  -0.43
  -0.17
   0.06
   0.28
   0.26
   0.38
   0.46
   0.53
   0.58
   1.53
   0.94
   0.98
   1.02
   1.05
170141000918782798866653488190622531584.00
170141000918782798866653488190622531584.00
170141000918782798866653488190622531584.00
170141000918782798866653488190622531584.00
170141000918782798866653488190622531584.00
170141000918782798866653488190622531584.00
170141000918782798866653488190622531584.00
170141000918782798866653488190622531584.00
170141000918782798866653488190622531584.00
170141000918782798866653488190622531584.00
170141000918782798866653488190622531584.00
170141000918782798866653488190622531584.00
170141000918782798866653488190622531584.00
170141000918782798866653488190622531584.00
170141000918782798866653488190622531584.00
170141000918782798866653488190622531584.00
170141000918782798866653488190622531584.00
170141000918782798866653488190622531584.00
170141000918782798866653488190622531584.00
170141000918782798866653488190622531584.00
170141000918782798866653488190622531584.00
   3.54
   3.37
   3.40
   3.42
   3.36
   3.40
   3.44
   3.48
   3.64
   3.68
   3.72
   3.74
   3.69
   3.68
   3.66
   3.63
   3.58
   3.51
   3.44
   3.31
   3.24
   3.17
   3.09
   3.17
   3.18
   2.78
   2.87
   3.08
170141000918782798866653488190622531584.00
   3.44
   3.45
   3.33
   3.28
   3.24
   3.22
170141000918782798866653488190622531584.00
170141000918782798866653488190622531584.00
170141000918782798866653488190622531584.00
170141000918782798866653488190622531584.00
170141000918782798866653488190622531584.00
170141000918782798866653488190622531584.00
170141000918782798866653488190622531584.00
170141000918782798866653488190622531584.00
170141000918782798866653488190622531584.00
170141000918782798866653488190622531584.00
170141000918782798866653488190622531584.00
170141000918782798866653488190622531584.00
170141000918782798866653488190622531584.00
170141000918782798866653488190622531584.00
170141000918782798866653488190622531584.00
170141000918782798866653488190622531584.00
170141000918782798866653488190622531584.00
170141000918782798866653488190622531584.00
170141000918782798866653488190622531584.00
170141000918782798866653488190622531584.00
170141000918782798866653488190622531584.00
170141000918782798866653488190622531584.00
  -0.87
  -1.10
  -1.34
  -1.58
  -1.82
  -2.06
  -2.37
  -2.56
  -2.75
  -2.99
  -3.18
  -3.37
  -3.56
  -3.76
  -3.80
  -3.88
  -3.93
  -3.96
  -3.96
  -3.87
170141000918782798866653488190622531584.00
170141000918782798866653488190622531584.00
170141000918782798866653488190622531584.00
170141000918782798866653488190622531584.00
170141000918782798866653488190622531584.00
170141000918782798866653488190622531584.00
170141000918782798866653488190622531584.00
170141000918782798866653488190622531584.00
170141000918782798866653488190622531584.00
170141000918782798866653488190622531584.00
170141000918782798866653488190622531584.00
170141000918782798866653488190622531584.00
170141000918782798866653488190622531584.00
170141000918782798866653488190622531584.00
170141000918782798866653488190622531584.00
170141000918782798866653488190622531584.00
  -0.06
   0.09
   0.22
   0.33
   0.41
  -0.51
   0.81
   0.87
   0.92
   0.97
   1.00
170141000918782798866653488190622531584.00
170141000918782798866653488190622531584.00
170141000918782798866653488190622531584.00
170141000918782798866653488190622531584.00
170141000918782798866653488190622531584.00
170141000918782798866653488190622531584.00
170141000918782798866653488190622531584.00
170141000918782798866653488190622531584.00
170141000918782798866653488190622531584.00
170141000918782798866653488190622531584.00
170141000918782798866653488190622531584.00
170141000918782798866653488190622531584.00
170141000918782798866653488190622531584.00
170141000918782798866653488190622531584.00
170141000918782798866653488190622531584.00
170141000918782798866653488190622531584.00
170141000918782798866653488190622531584.00
170141000918782798866653488190622531584.00
170141000918782798866653488190622531584.00
170141000918782798866653488190622531584.00
170141000918782798866653488190622531584.00
   3.54
   3.54
   3.40
   3.43
   3.45
   3.39
   3.44
   3.58
   3.63
   3.68
   3.72
   3.68
   3.69
   3.69
   3.67
   3.63
   3.59
   3.52
   3.45
   3.30
   3.24
   3.18
   3.23
   3.33
   3.30
   2.84
170141000918782798866653488190622531584.00
170141000918782798866653488190622531584.00
170141000918782798866653488190622531584.00
   3.44
   3.39
   3.35
   3.30
   3.28
   3.26
170141000918782798866653488190622531584.00
170141000918782798866653488190622531584.00
170141000918782798866653488190622531584.00
170141000918782798866653488190622531584.00
170141000918782798866653488190622531584.00
170141000918782798866653488190622531584.00
170141000918782798866653488190622531584.00
170141000918782798866653488190622531584.00
170141000918782798866653488190622531584.00
170141000918782798866653488190622531584.00
170141000918782798866653488190622531584.00
170141000918782798866653488190622531584.00
170141000918782798866653488190622531584.00
170141000918782798866653488190622531584.00
170141000918782798866653488190622531584.00
170141000918782798866653488190622531584.00
170141000918782798866653488190622531584.00
170141000918782798866653488190622531584.00
170141000918782798866653488190622531584.00
170141000918782798866653488190622531584.00
170141000918782798866653488190622531584.00
170141000918782798866653488190622531584.00
  -0.88
  -1.12
  -1.37
  -1.62
  -2.13
  -2.30
  -2.49
  -2.68
  -2.89
  -3.12
  -3.33
  -3.53
  -3.88
  -4.01
170141000918782798866653488190622531584.00
170141000918782798866653488190622531584.00
170141000918782798866653488190622531584.00
170141000918782798866653488190622531584.00
170141000918782798866653488190622531584.00
170141000918782798866653488190622531584.00
170141000918782798866653488190622531584.00
170141000918782798866653488190622531584.00
170141000918782798866653488190622531584.00
170141000918782798866653488190622531584.00
170141000918782798866653488190622531584.00
170141000918782798866653488190622531584.00
170141000918782798866653488190622531584.00
170141000918782798866653488190622531584.00
170141000918782798866653488190622531584.00
170141000918782798866653488190622531584.00
170141000918782798866653488190622531584.00
170141000918782798866653488190622531584.00
170141000918782798866653488190622531584.00
170141000918782798866653488190622531584.00
170141000918782798866653488190622531584.00
170141000918782798866653488190622531584.00
170141000918782798866653488190622531584.00
170141000918782798866653488190622531584.00
170141000918782798866653488190622531584.00
170141000918782798866653488190622531584.00
170141000918782798866653488190622531584.00
170141000918782798866653488190622531584.00
   0.75
   0.82
   0.87
170141000918782798866653488190622531584.00
170141000918782798866653488190622531584.00
170141000918782798866653488190622531584.00
170141000918782798866653488190622531584.00
170141000918782798866653488190622531584.00
170141000918782798866653488190622531584.00
170141000918782798866653488190622531584.00
170141000918782798866653488190622531584.00
170141000918782798866653488190622531584.00
170141000918782798866653488190622531584.00
170141000918782798866653488190622531584.00
170141000918782798866653488190622531584.00
170141000918782798866653488190622531584.00
170141000918782798866653488190622531584.00
170141000918782798866653488190622531584.00
170141000918782798866653488190622531584.00
170141000918782798866653488190622531584.00
170141000918782798866653488190622531584.00
170141000918782798866653488190622531584.00
170141000918782798866653488190622531584.00
170141000918782798866653488190622531584.00
170141000918782798866653488190622531584.00
170141000918782798866653488190622531584.00
170141000918782798866653488190622531584.00
   3.54
   3.40
   3.43
   3.46
   3.49
   3.50
   3.56
   3.62
   3.66
   3.64
   3.67
   3.68
   3.67
   3.66
   3.63
   3.58
   3.52
   3.36
   3.30
   3.24
   3.29
   3.27
   3.43
   3.40
   2.99
170141000918782798866653488190622531584.00
170141000918782798866653488190622531584.00
   3.08
   3.16
   3.42
   3.37
   3.34
   3.31
   3.29
170141000918782798866653488190622531584.00
170141000918782798866653488190622531584.00
170141000918782798866653488190622531584.00
170141000918782798866653488190622531584.00
170141000918782798866653488190622531584.00
170141000918782798866653488190622531584.00
170141000918782798866653488190622531584.00
170141000918782798866653488190622531584.00
170141000918782798866653488190622531584.00
170141000918782798866653488190622531584.00
170141000918782798866653488190622531584.00
170141000918782798866653488190622531584.00
170141000918782798866653488190622531584.00
170141000918782798866653488190622531584.00
170141000918782798866653488190622531584.00
170141000918782798866653488190622531584.00
170141000918782798866653488190622531584.00
170141000918782798866653488190622531584.00
170141000918782798866653488190622531584.00
170141000918782798866653488190622531584.00
170141000918782798866653488190622531584.00
170141000918782798866653488190622531584.00
  -1.13
  -1.12
  -1.37
  -2.03
  -2.20
  -2.38
  -2.57
  -2.77
  -2.98
  -3.21
170141000918782798866653488190622531584.00
170141000918782798866653488190622531584.00
170141000918782798866653488190622531584.00
170141000918782798866653488190622531584.00
170141000918782798866653488190622531584.00
170141000918782798866653488190622531584.00
170141000918782798866653488190622531584.00
170141000918782798866653488190622531584.00
170141000918782798866653488190622531584.00
170141000918782798866653488190622531584.00
170141000918782798866653488190622531584.00
170141000918782798866653488190622531584.00
170141000918782798866653488190622531584.00
170141000918782798866653488190622531584.00
170141000918782798866653488190622531584.00
170141000918782798866653488190622531584.00
170141000918782798866653488190622531584.00
170141000918782798866653488190622531584.00
170141000918782798866653488190622531584.00
170141000918782798866653488190622531584.00
170141000918782798866653488190622531584.00
170141000918782798866653488190622531584.00
170141000918782798866653488190622531584.00
170141000918782798866653488190622531584.00
170141000918782798866653488190622531584.00
170141000918782798866653488190622531584.00
170141000918782798866653488190622531584.00
170141000918782798866653488190622531584.00
170141000918782798866653488190622531584.00
170141000918782798866653488190622531584.00
170141000918782798866653488190622531584.00
170141000918782798866653488190622531584.00
170141000918782798866653488190622531584.00
170141000918782798866653488190622531584.00
170141000918782798866653488190622531584.00
170141000918782798866653488190622531584.00
170141000918782798866653488190622531584.00
170141000918782798866653488190622531584.00
170141000918782798866653488190622531584.00
170141000918782798866653488190622531584.00
170141000918782798866653488190622531584.00
170141000918782798866653488190622531584.00
170141000918782798866653488190622531584.00
170141000918782798866653488190622531584.00
170141000918782798866653488190622531584.00
170141000918782798866653488190622531584.00
170141000918782798866653488190622531584.00
170141000918782798866653488190622531584.00
170141000918782798866653488190622531584.00
170141000918782798866653488190622531584.00
170141000918782798866653488190622531584.00
170141000918782798866653488190622531584.00
170141000918782798866653488190622531584.00
170141000918782798866653488190622531584.00
170141000918782798866653488190622531584.00
170141000918782798866653488190622531584.00
170141000918782798866653488190622531584.00
170141000918782798866653488190622531584.00
170141000918782798866653488190622531584.00
   3.54
   3.54
   3.43
   3.45
   3.48
   3.52
   3.54
   3.59
   3.59
   3.62
   3.64
   3.65
   3.65
   3.64
   3.61
   3.57
   3.39
   3.34
   3.27
   3.23
   3.31
   1.78
   1.68
   1.58
170141000918782798866653488190622531584.00
170141000918782798866653488190622531584.00
170141000918782798866653488190622531584.00
   1.54
   1.81
   1.93
   1.99
   2.11
   2.20
   2.29
170141000918782798866653488190622531584.00
170141000918782798866653488190622531584.00
170141000918782798866653488190622531584.00
170141000918782798866653488190622531584.00
170141000918782798866653488190622531584.00
170141000918782798866653488190622531584.00
170141000918782798866653488190622531584.00
170141000918782798866653488190622531584.00
170141000918782798866653488190622531584.00
170141000918782798866653488190622531584.00
170141000918782798866653488190622531584.00
170141000918782798866653488190622531584.00
170141000918782798866653488190622531584.00
170141000918782798866653488190622531584.00
170141000918782798866653488190622531584.00
170141000918782798866653488190622531584.00
170141000918782798866653488190622531584.00
170141000918782798866653488190622531584.00
170141000918782798866653488190622531584.00
170141000918782798866653488190622531584.00
170141000918782798866653488190622531584.00
170141000918782798866653488190622531584.00
  -1.40
  -1.36
  -1.90
  -2.06
  -2.23
  -2.42
  -2.62
170141000918782798866653488190622531584.00
170141000918782798866653488190622531584.00
170141000918782798866653488190622531584.00
170141000918782798866653488190622531584.00
170141000918782798866653488190622531584.00
170141000918782798866653488190622531584.00
170141000918782798866653488190622531584.00
170141000918782798866653488190622531584.00
170141000918782798866653488190622531584.00
170141000918782798866653488190622531584.00
170141000918782798866653488190622531584.00
170141000918782798866653488190622531584.00
170141000918782798866653488190622531584.00
170141000918782798866653488190622531584.00
170141000918782798866653488190622531584.00
170141000918782798866653488190622531584.00
170141000918782798866653488190622531584.00
170141000918782798866653488190622531584.00
170141000918782798866653488190622531584.00
170141000918782798866653488190622531584.00
170141000918782798866653488190622531584.00
170141000918782798866653488190622531584.00
170141000918782798866653488190622531584.00
170141000918782798866653488190622531584.00
170141000918782798866653488190622531584.00
170141000918782798866653488190622531584.00
170141000918782798866653488190622531584.00
170141000918782798866653488190622531584.00
170141000918782798866653488190622531584.00
170141000918782798866653488190622531584.00
170141000918782798866653488190622531584.00
170141000918782798866653488190622531584.00
170141000918782798866653488190622531584.00
170141000918782798866653488190622531584.00
170141000918782798866653488190622531584.00
170141000918782798866653488190622531584.00
170141000918782798866653488190622531584.00
170141000918782798866653488190622531584.00
170141000918782798866653488190622531584.00
170141000918782798866653488190622531584.00
170141000918782798866653488190622531584.00
170141000918782798866653488190622531584.00
170141000918782798866653488190622531584.00
170141000918782798866653488190622531584.00
170141000918782798866653488190622531584.00
170141000918782798866653488190622531584.00
170141000918782798866653488190622531584.00
170141000918782798866653488190622531584.00
170141000918782798866653488190622531584.00
170141000918782798866653488190622531584.00
170141000918782798866653488190622531584.00
170141000918782798866653488190622531584.00
170141000918782798866653488190622531584.00
170141000918782798866653488190622531584.00
170141000918782798866653488190622531584.00
170141000918782798866653488190622531584.00
170141000918782798866653488190622531584.00
170141000918782798866653488190622531584.00
170141000918782798866653488190622531584.00
170141000918782798866653488190622531584.00
170141000918782798866653488190622531584.00
170141000918782798866653488190622531584.00
   3.54
   3.54
   3.54
   3.45
   3.48
   3.51
   3.57
   3.61
   3.56
   3.59
   3.61
   3.62
   3.62
   3.61
   3.58
   3.52
   3.37
   3.30
   3.26
   3.23
   1.65
   1.52
   1.40
   1.28
   0.85
   0.93
170141000918782798866653488190622531584.00
   1.18
   1.45
   1.55
   1.65
   1.75
170141000918782798866653488190622531584.00
170141000918782798866653488190622531584.00
170141000918782798866653488190622531584.00
170141000918782798866653488190622531584.00
170141000918782798866653488190622531584.00
170141000918782798866653488190622531584.00
170141000918782798866653488190622531584.00
170141000918782798866653488190622531584.00
170141000918782798866653488190622531584.00
170141000918782798866653488190622531584.00
170141000918782798866653488190622531584.00
170141000918782798866653488190622531584.00
170141000918782798866653488190622531584.00
170141000918782798866653488190622531584.00
170141000918782798866653488190622531584.00
170141000918782798866653488190622531584.00
170141000918782798866653488190622531584.00
170141000918782798866653488190622531584.00
170141000918782798866653488190622531584.00
170141000918782798866653488190622531584.00
170141000918782798866653488190622531584.00
  -1.11
  -1.21
  -1.33
  -1.47
  -1.63
  -2.31
  -2.07
  -2.25
170141000918782798866653488190622531584.00
170141000918782798866653488190622531584.00
170141000918782798866653488190622531584.00
170141000918782798866653488190622531584.00
170141000918782798866653488190622531584.00
170141000918782798866653488190622531584.00
170141000918782798866653488190622531584.00
170141000918782798866653488190622531584.00
170141000918782798866653488190622531584.00
170141000918782798866653488190622531584.00
170141000918782798866653488190622531584.00
170141000918782798866653488190622531584.00
170141000918782798866653488190622531584.00
170141000918782798866653488190622531584.00
170141000918782798866653488190622531584.00
170141000918782798866653488190622531584.00
170141000918782798866653488190622531584.00
170141000918782798866653488190622531584.00
170141000918782798866653488190622531584.00
170141000918782798866653488190622531584.00
170141000918782798866653488190622531584.00
170141000918782798866653488190622531584.00
170141000918782798866653488190622531584.00
170141000918782798866653488190622531584.00
170141000918782798866653488190622531584.00
170141000918782798866653488190622531584.00
170141000918782798866653488190622531584.00
170141000918782798866653488190622531584.00
170141000918782798866653488190622531584.00
170141000918782798866653488190622531584.00
170141000918782798866653488190622531584.00
170141000918782798866653488190622531584.00
170141000918782798866653488190622531584.00
170141000918782798866653488190622531584.00
170141000918782798866653488190622531584.00
170141000918782798866653488190622531584.00
170141000918782798866653488190622531584.00
170141000918782798866653488190622531584.00
170141000918782798866653488190622531584.00
170141000918782798866653488190622531584.00
170141000918782798866653488190622531584.00
170141000918782798866653488190622531584.00
170141000918782798866653488190622531584.00
170141000918782798866653488190622531584.00
170141000918782798866653488190622531584.00
170141000918782798866653488190622531584.00
170141000918782798866653488190622531584.00
170141000918782798866653488190622531584.00
170141000918782798866653488190622531584.00
170141000918782798866653488190622531584.00
170141000918782798866653488190622531584.00
170141000918782798866653488190622531584.00
170141000918782798866653488190622531584.00
170141000918782798866653488190622531584.00
170141000918782798866653488190622531584.00
170141000918782798866653488190622531584.00
170141000918782798866653488190622531584.00
170141000918782798866653488190622531584.00
170141000918782798866653488190622531584.00
170141000918782798866653488190622531584.00
170141000918782798866653488190622531584.00
170141000918782798866653488190622531584.00
170141000918782798866653488190622531584.00
170141000918782798866653488190622531584.00
170141000918782798866653488190622531584.00
   3.55
   3.55
   3.55
   3.47
   3.50
   3.54
   3.58
   3.52
   3.55
   3.57
   3.58
   3.58
   3.57
   3.53
   2.22
   2.09
   1.94
   1.77
   1.56
   1.41
   1.27
   1.13
   1.00
   0.55
   0.61
170141000918782798866653488190622531584.00
170141000918782798866653488190622531584.00
170141000918782798866653488190622531584.00
170141000918782798866653488190622531584.00
   1.28
170141000918782798866653488190622531584.00
170141000918782798866653488190622531584.00
170141000918782798866653488190622531584.00
170141000918782798866653488190622531584.00
170141000918782798866653488190622531584.00
170141000918782798866653488190622531584.00
170141000918782798866653488190622531584.00
170141000918782798866653488190622531584.00
170141000918782798866653488190622531584.00
170141000918782798866653488190622531584.00
170141000918782798866653488190622531584.00
170141000918782798866653488190622531584.00
170141000918782798866653488190622531584.00
170141000918782798866653488190622531584.00
170141000918782798866653488190622531584.00
170141000918782798866653488190622531584.00
170141000918782798866653488190622531584.00
170141000918782798866653488190622531584.00
170141000918782798866653488190622531584.00
170141000918782798866653488190622531584.00
170141000918782798866653488190622531584.00
170141000918782798866653488190622531584.00
  -2.55
  -2.59
  -2.64
  -1.53
  -1.69
170141000918782798866653488190622531584.00
170141000918782798866653488190622531584.00
170141000918782798866653488190622531584.00
170141000918782798866653488190622531584.00
170141000918782798866653488190622531584.00
170141000918782798866653488190622531584.00
170141000918782798866653488190622531584.00
170141000918782798866653488190622531584.00
170141000918782798866653488190622531584.00
170141000918782798866653488190622531584.00
170141000918782798866653488190622531584.00
170141000918782798866653488190622531584.00
170141000918782798866653488190622531584.00
170141000918782798866653488190622531584.00
170141000918782798866653488190622531584.00
170141000918782798866653488190622531584.00
170141000918782798866653488190622531584.00
170141000918782798866653488190622531584.00
170141000918782798866653488190622531584.00
170141000918782798866653488190622531584.00
170141000918782798866653488190622531584.00
170141000918782798866653488190622531584.00
170141000918782798866653488190622531584.00
170141000918782798866653488190622531584.00
170141000918782798866653488190622531584.00
170141000918782798866653488190622531584.00
170141000918782798866653488190622531584.00
170141000918782798866653488190622531584.00
170141000918782798866653488190622531584.00
170141000918782798866653488190622531584.00
170141000918782798866653488190622531584.00
170141000918782798866653488190622531584.00
170141000918782798866653488190622531584.00
170141000918782798866653488190622531584.00
170141000918782798866653488190622531584.00
170141000918782798866653488190622531584.00
170141000918782798866653488190622531584.00
170141000918782798866653488190622531584.00
170141000918782798866653488190622531584.00
170141000918782798866653488190622531584.00
170141000918782798866653488190622531584.00
170141000918782798866653488190622531584.00
170141000918782798866653488190622531584.00
170141000918782798866653488190622531584.00
170141000918782798866653488190622531584.00
170141000918782798866653488190622531584.00
170141000918782798866653488190622531584.00
170141000918782798866653488190622531584.00
170141000918782798866653488190622531584.00
170141000918782798866653488190622531584.00
170141000918782798866653488190622531584.00
170141000918782798866653488190622531584.00
170141000918782798866653488190622531584.00
170141000918782798866653488190622531584.00
170141000918782798866653488190622531584.00
170141000918782798866653488190622531584.00
170141000918782798866653488190622531584.00
170141000918782798866653488190622531584.00
170141000918782798866653488190622531584.00
170141000918782798866653488190622531584.00
170141000918782798866653488190622531584.00
170141000918782798866653488190622531584.00
170141000918782798866653488190622531584.00
170141000918782798866653488190622531584.00
170141000918782798866653488190622531584.00
170141000918782798866653488190622531584.00
170141000918782798866653488190622531584.00
170141000918782798866653488190622531584.00
   3.55
   3.55
   3.55
   3.55
   3.48
   3.51
   3.54
   3.12
   3.11
   3.09
   3.06
   3.01
   2.95
   2.27
   2.17
   2.04
   1.89
   1.58
   1.44
   1.19
   1.03
   0.88
   0.66
   0.26
   0.31
170141000918782798866653488190622531584.00
170141000918782798866653488190622531584.00
170141000918782798866653488190622531584.00
   0.82
   0.93
   1.04
170141000918782798866653488190622531584.00
170141000918782798866653488190622531584.00
170141000918782798866653488190622531584.00
170141000918782798866653488190622531584.00
170141000918782798866653488190622531584.00
170141000918782798866653488190622531584.00
170141000918782798866653488190622531584.00
170141000918782798866653488190622531584.00
170141000918782798866653488190622531584.00
170141000918782798866653488190622531584.00
170141000918782798866653488190622531584.00
170141000918782798866653488190622531584.00
170141000918782798866653488190622531584.00
170141000918782798866653488190622531584.00
170141000918782798866653488190622531584.00
170141000918782798866653488190622531584.00
170141000918782798866653488190622531584.00
170141000918782798866653488190622531584.00
170141000918782798866653488190622531584.00
170141000918782798866653488190622531584.00
170141000918782798866653488190622531584.00
170141000918782798866653488190622531584.00
  -2.65
  -2.70
170141000918782798866653488190622531584.00
170141000918782798866653488190622531584.00
170141000918782798866653488190622531584.00
170141000918782798866653488190622531584.00
170141000918782798866653488190622531584.00
170141000918782798866653488190622531584.00
170141000918782798866653488190622531584.00
170141000918782798866653488190622531584.00
170141000918782798866653488190622531584.00
170141000918782798866653488190622531584.00
170141000918782798866653488190622531584.00
170141000918782798866653488190622531584.00
170141000918782798866653488190622531584.00
170141000918782798866653488190622531584.00
170141000918782798866653488190622531584.00
170141000918782798866653488190622531584.00
170141000918782798866653488190622531584.00
170141000918782798866653488190622531584.00
170141000918782798866653488190622531584.00
170141000918782798866653488190622531584.00
170141000918782798866653488190622531584.00
170141000918782798866653488190622531584.00
170141000918782798866653488190622531584.00
170141000918782798866653488190622531584.00
170141000918782798866653488190622531584.00
170141000918782798866653488190622531584.00
170141000918782798866653488190622531584.00
170141000918782798866653488190622531584.00
170141000918782798866653488190622531584.00
170141000918782798866653488190622531584.00
170141000918782798866653488190622531584.00
170141000918782798866653488190622531584.00
170141000918782798866653488190622531584.00
170141000918782798866653488190622531584.00
170141000918782798866653488190622531584.00
170141000918782798866653488190622531584.00
170141000918782798866653488190622531584.00
170141000918782798866653488190622531584.00
170141000918782798866653488190622531584.00
170141000918782798866653488190622531584.00
170141000918782798866653488190622531584.00
170141000918782798866653488190622531584.00
170141000918782798866653488190622531584.00
170141000918782798866653488190622531584.00
170141000918782798866653488190622531584.00
170141000918782798866653488190622531584.00
170141000918782798866653488190622531584.00
170141000918782798866653488190622531584.00
170141000918782798866653488190622531584.00
170141000918782798866653488190622531584.00
170141000918782798866653488190622531584.00
170141000918782798866653488190622531584.00
170141000918782798866653488190622531584.00
170141000918782798866653488190622531584.00
170141000918782798866653488190622531584.00
170141000918782798866653488190622531584.00
170141000918782798866653488190622531584.00
170141000918782798866653488190622531584.00
170141000918782798866653488190622531584.00
170141000918782798866653488190622531584.00
170141000918782798866653488190622531584.00
170141000918782798866653488190622531584.00
170141000918782798866653488190622531584.00
170141000918782798866653488190622531584.00
170141000918782798866653488190622531584.00
170141000918782798866653488190622531584.00
170141000918782798866653488190622531584.00
170141000918782798866653488190622531584.00
170141000918782798866653488190622531584.00
170141000918782798866653488190622531584.00
170141000918782798866653488190622531584.00
   3.55
   3.55
   3.55
   3.55
   3.50
   3.03
   3.03
   3.01
   2.98
   2.94
   2.27
   2.21
   2.12
   2.02
   1.89
   1.73
   1.40
   1.25
   1.10
   0.94
   0.78
   0.17
   0.17
170141000918782798866653488190622531584.00
170141000918782798866653488190622531584.00
170141000918782798866653488190622531584.00
   0.39
   0.63
   0.84
   1.04
   1.26
170141000918782798866653488190622531584.00
170141000918782798866653488190622531584.00
170141000918782798866653488190622531584.00
170141000918782798866653488190622531584.00
170141000918782798866653488190622531584.00
170141000918782798866653488190622531584.00
170141000918782798866653488190622531584.00
170141000918782798866653488190622531584.00
170141000918782798866653488190622531584.00
170141000918782798866653488190622531584.00
170141000918782798866653488190622531584.00
170141000918782798866653488190622531584.00
170141000918782798866653488190622531584.00
170141000918782798866653488190622531584.00
170141000918782798866653488190622531584.00
170141000918782798866653488190622531584.00
170141000918782798866653488190622531584.00
170141000918782798866653488190622531584.00
170141000918782798866653488190622531584.00
170141000918782798866653488190622531584.00
170141000918782798866653488190622531584.00
170141000918782798866653488190622531584.00
170141000918782798866653488190622531584.00
170141000918782798866653488190622531584.00
170141000918782798866653488190622531584.00
170141000918782798866653488190622531584.00
170141000918782798866653488190622531584.00
170141000918782798866653488190622531584.00
170141000918782798866653488190622531584.00
170141000918782798866653488190622531584.00
170141000918782798866653488190622531584.00
170141000918782798866653488190622531584.00
170141000918782798866653488190622531584.00
170141000918782798866653488190622531584.00
170141000918782798866653488190622531584.00
170141000918782798866653488190622531584.00
170141000918782798866653488190622531584.00
170141000918782798866653488190622531584.00
170141000918782798866653488190622531584.00
170141000918782798866653488190622531584.00
170141000918782798866653488190622531584.00
170141000918782798866653488190622531584.00
170141000918782798866653488190622531584.00
170141000918782798866653488190622531584.00
170141000918782798866653488190622531584.00
170141000918782798866653488190622531584.00
170141000918782798866653488190622531584.00
170141000918782798866653488190622531584.00
170141000918782798866653488190622531584.00
170141000918782798866653488190622531584.00
170141000918782798866653488190622531584.00
170141000918782798866653488190622531584.00
170141000918782798866653488190622531584.00
170141000918782798866653488190622531584.00
170141000918782798866653488190622531584.00
170141000918782798866653488190622531584.00
170141000918782798866653488190622531584.00
170141000918782798866653488190622531584.00
170141000918782798866653488190622531584.00
170141000918782798866653488190622531584.00
170141000918782798866653488190622531584.00
170141000918782798866653488190622531584.00
170141000918782798866653488190622531584.00
170141000918782798866653488190622531584.00
170141000918782798866653488190622531584.00
170141000918782798866653488190622531584.00
170141000918782798866653488190622531584.00
170141000918782798866653488190622531584.00
170141000918782798866653488190622531584.00
170141000918782798866653488190622531584.00
170141000918782798866653488190622531584.00
170141000918782798866653488190622531584.00
170141000918782798866653488190622531584.00
170141000918782798866653488190622531584.00
170141000918782798866653488190622531584.00
170141000918782798866653488190622531584.00
170141000918782798866653488190622531584.00
170141000918782798866653488190622531584.00
170141000918782798866653488190622531584.00
170141000918782798866653488190622531584.00
170141000918782798866653488190622531584.00
170141000918782798866653488190622531584.00
170141000918782798866653488190622531584.00
170141000918782798866653488190622531584.00
170141000918782798866653488190622531584.00
170141000918782798866653488190622531584.00
170141000918782798866653488190622531584.00
170141000918782798866653488190622531584.00
170141000918782798866653488190622531584.00
170141000918782798866653488190622531584.00
170141000918782798866653488190622531584.00
170141000918782798866653488190622531584.00
170141000918782798866653488190622531584.00
170141000918782798866653488190622531584.00
   3.55
   3.55
   3.55
   3.55
   3.55
   2.68
   2.93
   2.91
   2.87
   2.20
   2.15
   2.08
   1.99
   1.88
   1.74
   1.59
   1.25
   1.09
   0.93
   0.76
   0.04
   0.00
  -0.02
  -0.01
170141000918782798866653488190622531584.00
170141000918782798866653488190622531584.00
   0.28
   0.45
   0.67
   0.83
   1.06
   1.30
170141000918782798866653488190622531584.00
170141000918782798866653488190622531584.00
170141000918782798866653488190622531584.00
170141000918782798866653488190622531584.00
170141000918782798866653488190622531584.00
170141000918782798866653488190622531584.00
170141000918782798866653488190622531584.00
170141000918782798866653488190622531584.00
170141000918782798866653488190622531584.00
170141000918782798866653488190622531584.00
170141000918782798866653488190622531584.00
170141000918782798866653488190622531584.00
170141000918782798866653488190622531584.00
170141000918782798866653488190622531584.00
170141000918782798866653488190622531584.00
170141000918782798866653488190622531584.00
170141000918782798866653488190622531584.00
170141000918782798866653488190622531584.00
170141000918782798866653488190622531584.00
170141000918782798866653488190622531584.00
170141000918782798866653488190622531584.00
170141000918782798866653488190622531584.00
170141000918782798866653488190622531584.00
170141000918782798866653488190622531584.00
170141000918782798866653488190622531584.00
170141000918782798866653488190622531584.00
170141000918782798866653488190622531584.00
170141000918782798866653488190622531584.00
170141000918782798866653488190622531584.00
170141000918782798866653488190622531584.00
170141000918782798866653488190622531584.00
170141000918782798866653488190622531584.00
170141000918782798866653488190622531584.00
170141000918782798866653488190622531584.00
170141000918782798866653488190622531584.00
170141000918782798866653488190622531584.00
170141000918782798866653488190622531584.00
170141000918782798866653488190622531584.00
170141000918782798866653488190622531584.00
170141000918782798866653488190622531584.00
170141000918782798866653488190622531584.00
170141000918782798866653488190622531584.00
170141000918782798866653488190622531584.00
170141000918782798866653488190622531584.00
170141000918782798866653488190622531584.00
170141000918782798866653488190622531584.00
170141000918782798866653488190622531584.00
170141000918782798866653488190622531584.00
170141000918782798866653488190622531584.00
170141000918782798866653488190622531584.00
170141000918782798866653488190622531584.00
170141000918782798866653488190622531584.00
170141000918782798866653488190622531584.00
170141000918782798866653488190622531584.00
170141000918782798866653488190622531584.00
170141000918782798866653488190622531584.00
170141000918782798866653488190622531584.00
170141000918782798866653488190622531584.00
170141000918782798866653488190622531584.00
170141000918782798866653488190622531584.00
170141000918782798866653488190622531584.00
170141000918782798866653488190622531584.00
170141000918782798866653488190622531584.00
170141000918782798866653488190622531584.00
170141000918782798866653488190622531584.00
170141000918782798866653488190622531584.00
170141000918782798866653488190622531584.00
170141000918782798866653488190622531584.00
170141000918782798866653488190622531584.00
170141000918782798866653488190622531584.00
170141000918782798866653488190622531584.00
170141000918782798866653488190622531584.00
170141000918782798866653488190622531584.00
170141000918782798866653488190622531584.00
170141000918782798866653488190622531584.00
170141000918782798866653488190622531584.00
170141000918782798866653488190622531584.00
170141000918782798866653488190622531584.00
170141000918782798866653488190622531584.00
170141000918782798866653488190622531584.00
170141000918782798866653488190622531584.00
170141000918782798866653488190622531584.00
170141000918782798866653488190622531584.00
170141000918782798866653488190622531584.00
170141000918782798866653488190622531584.00
170141000918782798866653488190622531584.00
170141000918782798866653488190622531584.00
170141000918782798866653488190622531584.00
170141000918782798866653488190622531584.00
170141000918782798866653488190622531584.00
170141000918782798866653488190622531584.00
170141000918782798866653488190622531584.00
170141000918782798866653488190622531584.00
170141000918782798866653488190622531584.00
   3.55
   3.55
   3.55
   2.65
   2.62
   2.67
   2.17
   2.14
   2.10
   2.05
   1.97
   1.87
   1.76
   1.62
   1.28
   1.12
   0.95
   0.78
   0.61
  -0.08
  -0.13
  -0.17
  -0.18
170141000918782798866653488190622531584.00
  -0.04
   0.10
   0.28
   0.49
   0.72
   0.90
   1.15
   1.40
   1.65
170141000918782798866653488190622531584.00
170141000918782798866653488190622531584.00
170141000918782798866653488190622531584.00
170141000918782798866653488190622531584.00
170141000918782798866653488190622531584.00
170141000918782798866653488190622531584.00
170141000918782798866653488190622531584.00
170141000918782798866653488190622531584.00
170141000918782798866653488190622531584.00
170141000918782798866653488190622531584.00
170141000918782798866653488190622531584.00
170141000918782798866653488190622531584.00
170141000918782798866653488190622531584.00
170141000918782798866653488190622531584.00
170141000918782798866653488190622531584.00
170141000918782798866653488190622531584.00
170141000918782798866653488190622531584.00
170141000918782798866653488190622531584.00
170141000918782798866653488190622531584.00
170141000918782798866653488190622531584.00
170141000918782798866653488190622531584.00
170141000918782798866653488190622531584.00
170141000918782798866653488190622531584.00
170141000918782798866653488190622531584.00
170141000918782798866653488190622531584.00
170141000918782798866653488190622531584.00
170141000918782798866653488190622531584.00
170141000918782798866653488190622531584.00
170141000918782798866653488190622531584.00
170141000918782798866653488190622531584.00
170141000918782798866653488190622531584.00
170141000918782798866653488190622531584.00
170141000918782798866653488190622531584.00
170141000918782798866653488190622531584.00
170141000918782798866653488190622531584.00
170141000918782798866653488190622531584.00
170141000918782798866653488190622531584.00
170141000918782798866653488190622531584.00
170141000918782798866653488190622531584.00
170141000918782798866653488190622531584.00
170141000918782798866653488190622531584.00
170141000918782798866653488190622531584.00
170141000918782798866653488190622531584.00
170141000918782798866653488190622531584.00
170141000918782798866653488190622531584.00
170141000918782798866653488190622531584.00
170141000918782798866653488190622531584.00
170141000918782798866653488190622531584.00
170141000918782798866653488190622531584.00
170141000918782798866653488190622531584.00
170141000918782798866653488190622531584.00
170141000918782798866653488190622531584.00
170141000918782798866653488190622531584.00
170141000918782798866653488190622531584.00
170141000918782798866653488190622531584.00
170141000918782798866653488190622531584.00
170141000918782798866653488190622531584.00
170141000918782798866653488190622531584.00
170141000918782798866653488190622531584.00
170141000918782798866653488190622531584.00
170141000918782798866653488190622531584.00
170141000918782798866653488190622531584.00
170141000918782798866653488190622531584.00
170141000918782798866653488190622531584.00
170141000918782798866653488190622531584.00
170141000918782798866653488190622531584.00
170141000918782798866653488190622531584.00
170141000918782798866653488190622531584.00
170141000918782798866653488190622531584.00
170141000918782798866653488190622531584.00
170141000918782798866653488190622531584.00
170141000918782798866653488190622531584.00
170141000918782798866653488190622531584.00
170141000918782798866653488190622531584.00
170141000918782798866653488190622531584.00
170141000918782798866653488190622531584.00
170141000918782798866653488190622531584.00
170141000918782798866653488190622531584.00
170141000918782798866653488190622531584.00
170141000918782798866653488190622531584.00
170141000918782798866653488190622531584.00
170141000918782798866653488190622531584.00
170141000918782798866653488190622531584.00
170141000918782798866653488190622531584.00
170141000918782798866653488190622531584.00
170141000918782798866653488190622531584.00
170141000918782798866653488190622531584.00
170141000918782798866653488190622531584.00
170141000918782798866653488190622531584.00
170141000918782798866653488190622531584.00
170141000918782798866653488190622531584.00
170141000918782798866653488190622531584.00
170141000918782798866653488190622531584.00
   3.55
   3.55
   2.60
   2.56
   2.51
   2.54
   2.06
   2.01
   1.95
   1.87
   1.77
   1.65
   1.51
   1.18
   1.02
   0.85
   0.67
   0.31
  -0.16
  -0.23
  -0.28
  -0.35
170141000918782798866653488190622531584.00
  -0.16
  -0.02
   0.16
   0.37
   0.60
   0.93
   1.20
   1.47
   1.72
   1.96
170141000918782798866653488190622531584.00
170141000918782798866653488190622531584.00
170141000918782798866653488190622531584.00
170141000918782798866653488190622531584.00
170141000918782798866653488190622531584.00
170141000918782798866653488190622531584.00
170141000918782798866653488190622531584.00
170141000918782798866653488190622531584.00
170141000918782798866653488190622531584.00
170141000918782798866653488190622531584.00
170141000918782798866653488190622531584.00
170141000918782798866653488190622531584.00
170141000918782798866653488190622531584.00
170141000918782798866653488190622531584.00
170141000918782798866653488190622531584.00
170141000918782798866653488190622531584.00
170141000918782798866653488190622531584.00
170141000918782798866653488190622531584.00
170141000918782798866653488190622531584.00
170141000918782798866653488190622531584.00
170141000918782798866653488190622531584.00
170141000918782798866653488190622531584.00
170141000918782798866653488190622531584.00
170141000918782798866653488190622531584.00
170141000918782798866653488190622531584.00
170141000918782798866653488190622531584.00
170141000918782798866653488190622531584.00
170141000918782798866653488190622531584.00
170141000918782798866653488190622531584.00
170141000918782798866653488190622531584.00
170141000918782798866653488190622531584.00
170141000918782798866653488190622531584.00
170141000918782798866653488190622531584.00
170141000918782798866653488190622531584.00
170141000918782798866653488190622531584.00
170141000918782798866653488190622531584.00
170141000918782798866653488190622531584.00
170141000918782798866653488190622531584.00
170141000918782798866653488190622531584.00
170141000918782798866653488190622531584.00
170141000918782798866653488190622531584.00
170141000918782798866653488190622531584.00
170141000918782798866653488190622531584.00
170141000918782798866653488190622531584.00
170141000918782798866653488190622531584.00
170141000918782798866653488190622531584.00
170141000918782798866653488190622531584.00
170141000918782798866653488190622531584.00
170141000918782798866653488190622531584.00
170141000918782798866653488190622531584.00
170141000918782798866653488190622531584.00
170141000918782798866653488190622531584.00
170141000918782798866653488190622531584.00
170141000918782798866653488190622531584.00
170141000918782798866653488190622531584.00
170141000918782798866653488190622531584.00
170141000918782798866653488190622531584.00
170141000918782798866653488190622531584.00
170141000918782798866653488190622531584.00
170141000918782798866653488190622531584.00
170141000918782798866653488190622531584.00
170141000918782798866653488190622531584.00
170141000918782798866653488190622531584.00
170141000918782798866653488190622531584.00
170141000918782798866653488190622531584.00
170141000918782798866653488190622531584.00
170141000918782798866653488190622531584.00
170141000918782798866653488190622531584.00
170141000918782798866653488190622531584.00
170141000918782798866653488190622531584.00
170141000918782798866653488190622531584.00
170141000918782798866653488190622531584.00
170141000918782798866653488190622531584.00
170141000918782798866653488190622531584.00
170141000918782798866653488190622531584.00
170141000918782798866653488190622531584.00
170141000918782798866653488190622531584.00
170141000918782798866653488190622531584.00
170141000918782798866653488190622531584.00
170141000918782798866653488190622531584.00
170141000918782798866653488190622531584.00
170141000918782798866653488190622531584.00
170141000918782798866653488190622531584.00
170141000918782798866653488190622531584.00
170141000918782798866653488190622531584.00
170141000918782798866653488190622531584.00
170141000918782798866653488190622531584.00
170141000918782798866653488190622531584.00
170141000918782798866653488190622531584.00
170141000918782798866653488190622531584.00
170141000918782798866653488190622531584.00
170141000918782798866653488190622531584.00
170141000918782798866653488190622531584.00
170141000918782798866653488190622531584.00
   2.56
   2.51
   2.45
   2.39
   1.98
   1.93
   1.86
   1.78
   1.68
   1.56
   1.42
   1.10
   0.94
   0.77
   0.40
   0.23
  -0.20
  -0.44
  -0.44
  -0.41
  -0.34
  -0.23
  -0.09
   0.09
   0.30
   0.53
   0.87
   1.14
   1.40
   1.66
   1.90
   2.11
   2.30
170141000918782798866653488190622531584.00
170141000918782798866653488190622531584.00
170141000918782798866653488190622531584.00
170141000918782798866653488190622531584.00
170141000918782798866653488190622531584.00
170141000918782798866653488190622531584.00
170141000918782798866653488190622531584.00
170141000918782798866653488190622531584.00
170141000918782798866653488190622531584.00
170141000918782798866653488190622531584.00
170141000918782798866653488190622531584.00
170141000918782798866653488190622531584.00
170141000918782798866653488190622531584.00
170141000918782798866653488190622531584.00
170141000918782798866653488190622531584.00
170141000918782798866653488190622531584.00
170141000918782798866653488190622531584.00
170141000918782798866653488190622531584.00
170141000918782798866653488190622531584.00
170141000918782798866653488190622531584.00
170141000918782798866653488190622531584.00
170141000918782798866653488190622531584.00
170141000918782798866653488190622531584.00
170141000918782798866653488190622531584.00
170141000918782798866653488190622531584.00
170141000918782798866653488190622531584.00
170141000918782798866653488190622531584.00
170141000918782798866653488190622531584.00
170141000918782798866653488190622531584.00
170141000918782798866653488190622531584.00
170141000918782798866653488190622531584.00
170141000918782798866653488190622531584.00
170141000918782798866653488190622531584.00
170141000918782798866653488190622531584.00
170141000918782798866653488190622531584.00
170141000918782798866653488190622531584.00
170141000918782798866653488190622531584.00
170141000918782798866653488190622531584.00
170141000918782798866653488190622531584.00
170141000918782798866653488190622531584.00
170141000918782798866653488190622531584.00
170141000918782798866653488190622531584.00
170141000918782798866653488190622531584.00
170141000918782798866653488190622531584.00
170141000918782798866653488190622531584.00
170141000918782798866653488190622531584.00
170141000918782798866653488190622531584.00
170141000918782798866653488190622531584.00
170141000918782798866653488190622531584.00
170141000918782798866653488190622531584.00
170141000918782798866653488190622531584.00
170141000918782798866653488190622531584.00
170141000918782798866653488190622531584.00
170141000918782798866653488190622531584.00
170141000918782798866653488190622531584.00
170141000918782798866653488190622531584.00
170141000918782798866653488190622531584.00
170141000918782798866653488190622531584.00
170141000918782798866653488190622531584.00
170141000918782798866653488190622531584.00
170141000918782798866653488190622531584.00
170141000918782798866653488190622531584.00
170141000918782798866653488190622531584.00
170141000918782798866653488190622531584.00
170141000918782798866653488190622531584.00
170141000918782798866653488190622531584.00
170141000918782798866653488190622531584.00
170141000918782798866653488190622531584.00
170141000918782798866653488190622531584.00
170141000918782798866653488190622531584.00
170141000918782798866653488190622531584.00
170141000918782798866653488190622531584.00
170141000918782798866653488190622531584.00
170141000918782798866653488190622531584.00
170141000918782798866653488190622531584.00
170141000918782798866653488190622531584.00
170141000918782798866653488190622531584.00
170141000918782798866653488190622531584.00
170141000918782798866653488190622531584.00
170141000918782798866653488190622531584.00
170141000918782798866653488190622531584.00
170141000918782798866653488190622531584.00
170141000918782798866653488190622531584.00
170141000918782798866653488190622531584.00
170141000918782798866653488190622531584.00
170141000918782798866653488190622531584.00
170141000918782798866653488190622531584.00
170141000918782798866653488190622531584.00
170141000918782798866653488190622531584.00
170141000918782798866653488190622531584.00
170141000918782798866653488190622531584.00
170141000918782798866653488190622531584.00
   1.88
   1.86
   2.40
   2.33
   1.79
   1.86
   1.79
   1.71
   1.60
   1.49
   1.20
   1.05
   0.89
   0.52
   0.35
  -0.09
  -0.40
  -0.44
  -0.45
  -0.42
  -0.35
  -0.25
  -0.11
   0.07
   0.27
   0.50
   0.84
   1.11
   1.37
   1.62
   1.86
   2.07
   2.26
170141000918782798866653488190622531584.00
170141000918782798866653488190622531584.00
170141000918782798866653488190622531584.00
170141000918782798866653488190622531584.00
170141000918782798866653488190622531584.00
170141000918782798866653488190622531584.00
170141000918782798866653488190622531584.00
170141000918782798866653488190622531584.00
170141000918782798866653488190622531584.00
170141000918782798866653488190622531584.00
170141000918782798866653488190622531584.00
170141000918782798866653488190622531584.00
170141000918782798866653488190622531584.00
170141000918782798866653488190622531584.00
170141000918782798866653488190622531584.00
170141000918782798866653488190622531584.00
170141000918782798866653488190622531584.00
170141000918782798866653488190622531584.00
170141000918782798866653488190622531584.00
170141000918782798866653488190622531584.00
170141000918782798866653488190622531584.00
170141000918782798866653488190622531584.00
170141000918782798866653488190622531584.00
170141000918782798866653488190622531584.00
170141000918782798866653488190622531584.00
170141000918782798866653488190622531584.00
170141000918782798866653488190622531584.00
170141000918782798866653488190622531584.00
170141000918782798866653488190622531584.00
170141000918782798866653488190622531584.00
170141000918782798866653488190622531584.00
170141000918782798866653488190622531584.00
170141000918782798866653488190622531584.00
170141000918782798866653488190622531584.00
170141000918782798866653488190622531584.00
170141000918782798866653488190622531584.00
170141000918782798866653488190622531584.00
170141000918782798866653488190622531584.00
170141000918782798866653488190622531584.00
170141000918782798866653488190622531584.00
170141000918782798866653488190622531584.00
170141000918782798866653488190622531584.00
170141000918782798866653488190622531584.00
170141000918782798866653488190622531584.00
170141000918782798866653488190622531584.00
170141000918782798866653488190622531584.00
170141000918782798866653488190622531584.00
170141000918782798866653488190622531584.00
170141000918782798866653488190622531584.00
170141000918782798866653488190622531584.00
170141000918782798866653488190622531584.00
170141000918782798866653488190622531584.00
170141000918782798866653488190622531584.00
170141000918782798866653488190622531584.00
170141000918782798866653488190622531584.00
170141000918782798866653488190622531584.00
170141000918782798866653488190622531584.00
170141000918782798866653488190622531584.00
170141000918782798866653488190622531584.00
170141000918782798866653488190622531584.00
170141000918782798866653488190622531584.00
170141000918782798866653488190622531584.00
170141000918782798866653488190622531584.00
170141000918782798866653488190622531584.00
170141000918782798866653488190622531584.00
170141000918782798866653488190622531584.00
170141000918782798866653488190622531584.00
170141000918782798866653488190622531584.00
170141000918782798866653488190622531584.00
170141000918782798866653488190622531584.00
170141000918782798866653488190622531584.00
170141000918782798866653488190622531584.00
170141000918782798866653488190622531584.00
170141000918782798866653488190622531584.00
170141000918782798866653488190622531584.00
170141000918782798866653488190622531584.00
170141000918782798866653488190622531584.00
170141000918782798866653488190622531584.00
170141000918782798866653488190622531584.00
170141000918782798866653488190622531584.00
170141000918782798866653488190622531584.00
170141000918782798866653488190622531584.00
170141000918782798866653488190622531584.00
170141000918782798866653488190622531584.00
170141000918782798866653488190622531584.00
170141000918782798866653488190622531584.00
170141000918782798866653488190622531584.00
170141000918782798866653488190622531584.00
170141000918782798866653488190622531584.00
170141000918782798866653488190622531584.00
170141000918782798866653488190622531584.00
170141000918782798866653488190622531584.00
170141000918782798866653488190622531584.00
   1.81
   1.77
   1.73
   1.73
   1.68
   1.73
   1.65
   1.55
   1.43
   1.16
   1.02
   0.67
   0.50
   0.34
  -0.30
  -0.36
  -0.40
  -0.41
  -0.38
  -0.32
  -0.21
  -0.08
   0.09
   0.29
   0.51
   0.85
   1.10
   1.36
   1.60
   1.83
   2.04
   2.23
170141000918782798866653488190622531584.00
170141000918782798866653488190622531584.00
170141000918782798866653488190622531584.00
170141000918782798866653488190622531584.00
170141000918782798866653488190622531584.00
170141000918782798866653488190622531584.00
170141000918782798866653488190622531584.00
170141000918782798866653488190622531584.00
170141000918782798866653488190622531584.00
170141000918782798866653488190622531584.00
170141000918782798866653488190622531584.00
170141000918782798866653488190622531584.00
170141000918782798866653488190622531584.00
170141000918782798866653488190622531584.00
170141000918782798866653488190622531584.00
170141000918782798866653488190622531584.00
170141000918782798866653488190622531584.00
170141000918782798866653488190622531584.00
170141000918782798866653488190622531584.00
170141000918782798866653488190622531584.00
170141000918782798866653488190622531584.00
170141000918782798866653488190622531584.00
170141000918782798866653488190622531584.00
170141000918782798866653488190622531584.00
170141000918782798866653488190622531584.00
170141000918782798866653488190622531584.00
170141000918782798866653488190622531584.00
170141000918782798866653488190622531584.00
170141000918782798866653488190622531584.00
170141000918782798866653488190622531584.00
170141000918782798866653488190622531584.00
170141000918782798866653488190622531584.00
170141000918782798866653488190622531584.00
170141000918782798866653488190622531584.00
170141000918782798866653488190622531584.00
170141000918782798866653488190622531584.00
170141000918782798866653488190622531584.00
170141000918782798866653488190622531584.00
170141000918782798866653488190622531584.00
170141000918782798866653488190622531584.00
170141000918782798866653488190622531584.00
170141000918782798866653488190622531584.00
170141000918782798866653488190622531584.00
170141000918782798866653488190622531584.00
170141000918782798866653488190622531584.00
170141000918782798866653488190622531584.00
170141000918782798866653488190622531584.00
170141000918782798866653488190622531584.00
170141000918782798866653488190622531584.00
170141000918782798866653488190622531584.00
170141000918782798866653488190622531584.00
170141000918782798866653488190622531584.00
170141000918782798866653488190622531584.00
170141000918782798866653488190622531584.00
170141000918782798866653488190622531584.00
170141000918782798866653488190622531584.00
170141000918782798866653488190622531584.00
170141000918782798866653488190622531584.00
170141000918782798866653488190622531584.00
170141000918782798866653488190622531584.00
170141000918782798866653488190622531584.00
170141000918782798866653488190622531584.00
170141000918782798866653488190622531584.00
170141000918782798866653488190622531584.00
170141000918782798866653488190622531584.00
170141000918782798866653488190622531584.00
170141000918782798866653488190622531584.00
170141000918782798866653488190622531584.00
170141000918782798866653488190622531584.00
170141000918782798866653488190622531584.00
170141000918782798866653488190622531584.00
170141000918782798866653488190622531584.00
170141000918782798866653488190622531584.00
170141000918782798866653488190622531584.00
170141000918782798866653488190622531584.00
170141000918782798866653488190622531584.00
170141000918782798866653488190622531584.00
170141000918782798866653488190622531584.00
170141000918782798866653488190622531584.00
170141000918782798866653488190622531584.00
170141000918782798866653488190622531584.00
170141000918782798866653488190622531584.00
170141000918782798866653488190622531584.00
170141000918782798866653488190622531584.00
170141000918782798866653488190622531584.00
170141000918782798866653488190622531584.00
170141000918782798866653488190622531584.00
170141000918782798866653488190622531584.00
170141000918782798866653488190622531584.00
170141000918782798866653488190622531584.00
170141000918782798866653488190622531584.00
170141000918782798866653488190622531584.00
170141000918782798866653488190622531584.00
170141000918782798866653488190622531584.00
   1.72
   1.67
   1.07
   1.08
   1.07
   1.05
   1.25
   1.17
   1.15
   0.84
   0.68
   0.14
   0.02
  -0.22
  -0.28
  -0.32
  -0.33
  -0.30
  -0.24
  -0.14
  -0.01
   0.15
   0.34
   0.56
   0.88
   1.13
   1.37
   1.61
   1.83
   2.03
   2.21
170141000918782798866653488190622531584.00
170141000918782798866653488190622531584.00
170141000918782798866653488190622531584.00
170141000918782798866653488190622531584.00
170141000918782798866653488190622531584.00
170141000918782798866653488190622531584.00
170141000918782798866653488190622531584.00
170141000918782798866653488190622531584.00
170141000918782798866653488190622531584.00
170141000918782798866653488190622531584.00
170141000918782798866653488190622531584.00
170141000918782798866653488190622531584.00
170141000918782798866653488190622531584.00
170141000918782798866653488190622531584.00
170141000918782798866653488190622531584.00
170141000918782798866653488190622531584.00
170141000918782798866653488190622531584.00
170141000918782798866653488190622531584.00
170141000918782798866653488190622531584.00
170141000918782798866653488190622531584.00
170141000918782798866653488190622531584.00
170141000918782798866653488190622531584.00
170141000918782798866653488190622531584.00
170141000918782798866653488190622531584.00
170141000918782798866653488190622531584.00
170141000918782798866653488190622531584.00
170141000918782798866653488190622531584.00
170141000918782798866653488190622531584.00
170141000918782798866653488190622531584.00
170141000918782798866653488190622531584.00
170141000918782798866653488190622531584.00
170141000918782798866653488190622531584.00
170141000918782798866653488190622531584.00
170141000918782798866653488190622531584.00
170141000918782798866653488190622531584.00
170141000918782798866653488190622531584.00
170141000918782798866653488190622531584.00
170141000918782798866653488190622531584.00
170141000918782798866653488190622531584.00
170141000918782798866653488190622531584.00
170141000918782798866653488190622531584.00
170141000918782798866653488190622531584.00
170141000918782798866653488190622531584.00
170141000918782798866653488190622531584.00
170141000918782798866653488190622531584.00
170141000918782798866653488190622531584.00
170141000918782798866653488190622531584.00
170141000918782798866653488190622531584.00
170141000918782798866653488190622531584.00
170141000918782798866653488190622531584.00
170141000918782798866653488190622531584.00
170141000918782798866653488190622531584.00
170141000918782798866653488190622531584.00
170141000918782798866653488190622531584.00
170141000918782798866653488190622531584.00
170141000918782798866653488190622531584.00
170141000918782798866653488190622531584.00
170141000918782798866653488190622531584.00
170141000918782798866653488190622531584.00
170141000918782798866653488190622531584.00
170141000918782798866653488190622531584.00
170141000918782798866653488190622531584.00
170141000918782798866653488190622531584.00
170141000918782798866653488190622531584.00
170141000918782798866653488190622531584.00
170141000918782798866653488190622531584.00
170141000918782798866653488190622531584.00
170141000918782798866653488190622531584.00
170141000918782798866653488190622531584.00
170141000918782798866653488190622531584.00
170141000918782798866653488190622531584.00
170141000918782798866653488190622531584.00
170141000918782798866653488190622531584.00
170141000918782798866653488190622531584.00
170141000918782798866653488190622531584.00
170141000918782798866653488190622531584.00
170141000918782798866653488190622531584.00
170141000918782798866653488190622531584.00
170141000918782798866653488190622531584.00
170141000918782798866653488190622531584.00
170141000918782798866653488190622531584.00
170141000918782798866653488190622531584.00
170141000918782798866653488190622531584.00
170141000918782798866653488190622531584.00
170141000918782798866653488190622531584.00
170141000918782798866653488190622531584.00
170141000918782798866653488190622531584.00
170141000918782798866653488190622531584.00
170141000918782798866653488190622531584.00
170141000918782798866653488190622531584.00
170141000918782798866653488190622531584.00
170141000918782798866653488190622531584.00
170141000918782798866653488190622531584.00
170141000918782798866653488190622531584.00
170141000918782798866653488190622531584.00
170141000918782798866653488190622531584.00
   1.56
   1.02
   1.01
   0.99
   0.96
   1.13
   1.04
   0.52
   0.32
   0.19
   0.08
  -0.11
  -0.17
  -0.21
  -0.21
  -0.19
  -0.13
  -0.03
   0.09
170141000918782798866653488190622531584.00
   0.43
   0.64
   0.94
   1.17
   1.40
   1.63
   1.84
   2.03
170141000918782798866653488190622531584.00
170141000918782798866653488190622531584.00
170141000918782798866653488190622531584.00
170141000918782798866653488190622531584.00
170141000918782798866653488190622531584.00
170141000918782798866653488190622531584.00
170141000918782798866653488190622531584.00
170141000918782798866653488190622531584.00
170141000918782798866653488190622531584.00
170141000918782798866653488190622531584.00
170141000918782798866653488190622531584.00
170141000918782798866653488190622531584.00
170141000918782798866653488190622531584.00
170141000918782798866653488190622531584.00
170141000918782798866653488190622531584.00
170141000918782798866653488190622531584.00
170141000918782798866653488190622531584.00
170141000918782798866653488190622531584.00
170141000918782798866653488190622531584.00
170141000918782798866653488190622531584.00
170141000918782798866653488190622531584.00
170141000918782798866653488190622531584.00
170141000918782798866653488190622531584.00
170141000918782798866653488190622531584.00
170141000918782798866653488190622531584.00
170141000918782798866653488190622531584.00
170141000918782798866653488190622531584.00
170141000918782798866653488190622531584.00
170141000918782798866653488190622531584.00
170141000918782798866653488190622531584.00
170141000918782798866653488190622531584.00
170141000918782798866653488190622531584.00
170141000918782798866653488190622531584.00
170141000918782798866653488190622531584.00
170141000918782798866653488190622531584.00
170141000918782798866653488190622531584.00
170141000918782798866653488190622531584.00
170141000918782798866653488190622531584.00
170141000918782798866653488190622531584.00
170141000918782798866653488190622531584.00
170141000918782798866653488190622531584.00
170141000918782798866653488190622531584.00
170141000918782798866653488190622531584.00
170141000918782798866653488190622531584.00
170141000918782798866653488190622531584.00
170141000918782798866653488190622531584.00
170141000918782798866653488190622531584.00
170141000918782798866653488190622531584.00
170141000918782798866653488190622531584.00
170141000918782798866653488190622531584.00
170141000918782798866653488190622531584.00
170141000918782798866653488190622531584.00
170141000918782798866653488190622531584.00
170141000918782798866653488190622531584.00
170141000918782798866653488190622531584.00
170141000918782798866653488190622531584.00
170141000918782798866653488190622531584.00
170141000918782798866653488190622531584.00
170141000918782798866653488190622531584.00
170141000918782798866653488190622531584.00
170141000918782798866653488190622531584.00
170141000918782798866653488190622531584.00
170141000918782798866653488190622531584.00
170141000918782798866653488190622531584.00
170141000918782798866653488190622531584.00
170141000918782798866653488190622531584.00
170141000918782798866653488190622531584.00
170141000918782798866653488190622531584.00
170141000918782798866653488190622531584.00
170141000918782798866653488190622531584.00
170141000918782798866653488190622531584.00
170141000918782798866653488190622531584.00
170141000918782798866653488190622531584.00
170141000918782798866653488190622531584.00
170141000918782798866653488190622531584.00
170141000918782798866653488190622531584.00
170141000918782798866653488190622531584.00
170141000918782798866653488190622531584.00
170141000918782798866653488190622531584.00
170141000918782798866653488190622531584.00
170141000918782798866653488190622531584.00
170141000918782798866653488190622531584.00
170141000918782798866653488190622531584.00
170141000918782798866653488190622531584.00
170141000918782798866653488190622531584.00
170141000918782798866653488190622531584.00
170141000918782798866653488190622531584.00
170141000918782798866653488190622531584.00
170141000918782798866653488190622531584.00
170141000918782798866653488190622531584.00
170141000918782798866653488190622531584.00
170141000918782798866653488190622531584.00
170141000918782798866653488190622531584.00
170141000918782798866653488190622531584.00
170141000918782798866653488190622531584.00
170141000918782798866653488190622531584.00
170141000918782798866653488190622531584.00
170141000918782798866653488190622531584.00
  -0.17
   0.96
   0.95
   0.92
   0.88
   0.83
   0.53
   0.38
   0.27
   0.17
   0.02
  -0.04
  -0.07
  -0.07
  -0.04
   0.02
   0.11
   0.23
170141000918782798866653488190622531584.00
   0.55
   0.74
   1.01
   1.23
   1.45
170141000918782798866653488190622531584.00
170141000918782798866653488190622531584.00
170141000918782798866653488190622531584.00
170141000918782798866653488190622531584.00
170141000918782798866653488190622531584.00
170141000918782798866653488190622531584.00
170141000918782798866653488190622531584.00
170141000918782798866653488190622531584.00
170141000918782798866653488190622531584.00
170141000918782798866653488190622531584.00
170141000918782798866653488190622531584.00
170141000918782798866653488190622531584.00
170141000918782798866653488190622531584.00
170141000918782798866653488190622531584.00
170141000918782798866653488190622531584.00
170141000918782798866653488190622531584.00
170141000918782798866653488190622531584.00
170141000918782798866653488190622531584.00
170141000918782798866653488190622531584.00
170141000918782798866653488190622531584.00
170141000918782798866653488190622531584.00
170141000918782798866653488190622531584.00
170141000918782798866653488190622531584.00
170141000918782798866653488190622531584.00
170141000918782798866653488190622531584.00
170141000918782798866653488190622531584.00
170141000918782798866653488190622531584.00
170141000918782798866653488190622531584.00
170141000918782798866653488190622531584.00
170141000918782798866653488190622531584.00
170141000918782798866653488190622531584.00
170141000918782798866653488190622531584.00
170141000918782798866653488190622531584.00
170141000918782798866653488190622531584.00
170141000918782798866653488190622531584.00
170141000918782798866653488190622531584.00
170141000918782798866653488190622531584.00
170141000918782798866653488190622531584.00
170141000918782798866653488190622531584.00
170141000918782798866653488190622531584.00
170141000918782798866653488190622531584.00
170141000918782798866653488190622531584.00
170141000918782798866653488190622531584.00
170141000918782798866653488190622531584.00
170141000918782798866653488190622531584.00
170141000918782798866653488190622531584.00
170141000918782798866653488190622531584.00
170141000918782798866653488190622531584.00
170141000918782798866653488190622531584.00
170141000918782798866653488190622531584.00
170141000918782798866653488190622531584.00
170141000918782798866653488190622531584.00
170141000918782798866653488190622531584.00
170141000918782798866653488190622531584.00
170141000918782798866653488190622531584.00
170141000918782798866653488190622531584.00
170141000918782798866653488190622531584.00
170141000918782798866653488190622531584.00
170141000918782798866653488190622531584.00
170141000918782798866653488190622531584.00
170141000918782798866653488190622531584.00
170141000918782798866653488190622531584.00
170141000918782798866653488190622531584.00
170141000918782798866653488190622531584.00
170141000918782798866653488190622531584.00
170141000918782798866653488190622531584.00
170141000918782798866653488190622531584.00
170141000918782798866653488190622531584.00
170141000918782798866653488190622531584.00
170141000918782798866653488190622531584.00
170141000918782798866653488190622531584.00
170141000918782798866653488190622531584.00
170141000918782798866653488190622531584.00
170141000918782798866653488190622531584.00
170141000918782798866653488190622531584.00
170141000918782798866653488190622531584.00
170141000918782798866653488190622531584.00
170141000918782798866653488190622531584.00
170141000918782798866653488190622531584.00
170141000918782798866653488190622531584.00
170141000918782798866653488190622531584.00
170141000918782798866653488190622531584.00
170141000918782798866653488190622531584.00
170141000918782798866653488190622531584.00
170141000918782798866653488190622531584.00
170141000918782798866653488190622531584.00
170141000918782798866653488190622531584.00
170141000918782798866653488190622531584.00
170141000918782798866653488190622531584.00
170141000918782798866653488190622531584.00
170141000918782798866653488190622531584.00
170141000918782798866653488190622531584.00
170141000918782798866653488190622531584.00
170141000918782798866653488190622531584.00
170141000918782798866653488190622531584.00
170141000918782798866653488190622531584.00
170141000918782798866653488190622531584.00
170141000918782798866653488190622531584.00
170141000918782798866653488190622531584.00
170141000918782798866653488190622531584.00
170141000918782798866653488190622531584.00
170141000918782798866653488190622531584.00
  -0.12
  -0.08
  -0.05
  -0.01
   0.81
   0.43
   0.46
   0.36
   0.24
   0.17
   0.12
   0.09
   0.10
   0.12
   0.18
170141000918782798866653488190622531584.00
170141000918782798866653488190622531584.00
170141000918782798866653488190622531584.00
170141000918782798866653488190622531584.00
170141000918782798866653488190622531584.00
170141000918782798866653488190622531584.00
170141000918782798866653488190622531584.00
170141000918782798866653488190622531584.00
170141000918782798866653488190622531584.00
170141000918782798866653488190622531584.00
170141000918782798866653488190622531584.00
170141000918782798866653488190622531584.00
170141000918782798866653488190622531584.00
170141000918782798866653488190622531584.00
170141000918782798866653488190622531584.00
170141000918782798866653488190622531584.00
170141000918782798866653488190622531584.00
170141000918782798866653488190622531584.00
170141000918782798866653488190622531584.00
170141000918782798866653488190622531584.00
170141000918782798866653488190622531584.00
170141000918782798866653488190622531584.00
170141000918782798866653488190622531584.00
170141000918782798866653488190622531584.00
170141000918782798866653488190622531584.00
170141000918782798866653488190622531584.00
170141000918782798866653488190622531584.00
170141000918782798866653488190622531584.00
170141000918782798866653488190622531584.00
170141000918782798866653488190622531584.00
170141000918782798866653488190622531584.00
170141000918782798866653488190622531584.00
170141000918782798866653488190622531584.00
170141000918782798866653488190622531584.00
170141000918782798866653488190622531584.00
170141000918782798866653488190622531584.00
170141000918782798866653488190622531584.00
170141000918782798866653488190622531584.00
170141000918782798866653488190622531584.00
170141000918782798866653488190622531584.00
170141000918782798866653488190622531584.00
170141000918782798866653488190622531584.00
170141000918782798866653488190622531584.00
170141000918782798866653488190622531584.00
170141000918782798866653488190622531584.00
170141000918782798866653488190622531584.00
170141000918782798866653488190622531584.00
170141000918782798866653488190622531584.00
170141000918782798866653488190622531584.00
170141000918782798866653488190622531584.00
170141000918782798866653488190622531584.00
170141000918782798866653488190622531584.00
170141000918782798866653488190622531584.00
170141000918782798866653488190622531584.00
170141000918782798866653488190622531584.00
170141000918782798866653488190622531584.00
170141000918782798866653488190622531584.00
170141000918782798866653488190622531584.00
170141000918782798866653488190622531584.00
170141000918782798866653488190622531584.00
170141000918782798866653488190622531584.00
170141000918782798866653488190622531584.00
170141000918782798866653488190622531584.00
170141000918782798866653488190622531584.00
170141000918782798866653488190622531584.00
170141000918782798866653488190622531584.00
170141000918782798866653488190622531584.00
170141000918782798866653488190622531584.00
170141000918782798866653488190622531584.00
170141000918782798866653488190622531584.00
170141000918782798866653488190622531584.00
170141000918782798866653488190622531584.00
170141000918782798866653488190622531584.00
170141000918782798866653488190622531584.00
170141000918782798866653488190622531584.00
170141000918782798866653488190622531584.00
170141000918782798866653488190622531584.00
170141000918782798866653488190622531584.00
170141000918782798866653488190622531584.00
170141000918782798866653488190622531584.00
170141000918782798866653488190622531584.00
170141000918782798866653488190622531584.00
170141000918782798866653488190622531584.00
170141000918782798866653488190622531584.00
170141000918782798866653488190622531584.00
170141000918782798866653488190622531584.00
170141000918782798866653488190622531584.00
170141000918782798866653488190622531584.00
170141000918782798866653488190622531584.00
170141000918782798866653488190622531584.00
170141000918782798866653488190622531584.00
170141000918782798866653488190622531584.00
170141000918782798866653488190622531584.00
170141000918782798866653488190622531584.00
170141000918782798866653488190622531584.00
170141000918782798866653488190622531584.00
170141000918782798866653488190622531584.00
170141000918782798866653488190622531584.00
170141000918782798866653488190622531584.00
170141000918782798866653488190622531584.00
170141000918782798866653488190622531584.00
170141000918782798866653488190622531584.00
170141000918782798866653488190622531584.00
170141000918782798866653488190622531584.00
170141000918782798866653488190622531584.00
170141000918782798866653488190622531584.00
170141000918782798866653488190622531584.00
170141000918782798866653488190622531584.00
170141000918782798866653488190622531584.00
170141000918782798866653488190622531584.00
  -0.10
170141000918782798866653488190622531584.00
170141000918782798866653488190622531584.00
170141000918782798866653488190622531584.00
   0.04
   0.05
   0.05
   0.05
   0.22
   0.18
   0.17
   0.27
   0.27
170141000918782798866653488190622531584.00
170141000918782798866653488190622531584.00
170141000918782798866653488190622531584.00
170141000918782798866653488190622531584.00
170141000918782798866653488190622531584.00
170141000918782798866653488190622531584.00
170141000918782798866653488190622531584.00
170141000918782798866653488190622531584.00
170141000918782798866653488190622531584.00
170141000918782798866653488190622531584.00
170141000918782798866653488190622531584.00
170141000918782798866653488190622531584.00
170141000918782798866653488190622531584.00
170141000918782798866653488190622531584.00
170141000918782798866653488190622531584.00
170141000918782798866653488190622531584.00
170141000918782798866653488190622531584.00
170141000918782798866653488190622531584.00
170141000918782798866653488190622531584.00
170141000918782798866653488190622531584.00
170141000918782798866653488190622531584.00
170141000918782798866653488190622531584.00
170141000918782798866653488190622531584.00
170141000918782798866653488190622531584.00
170141000918782798866653488190622531584.00
170141000918782798866653488190622531584.00
170141000918782798866653488190622531584.00
170141000918782798866653488190622531584.00
170141000918782798866653488190622531584.00
170141000918782798866653488190622531584.00
170141000918782798866653488190622531584.00
170141000918782798866653488190622531584.00
170141000918782798866653488190622531584.00
170141000918782798866653488190622531584.00
170141000918782798866653488190622531584.00
170141000918782798866653488190622531584.00
170141000918782798866653488190622531584.00
170141000918782798866653488190622531584.00
170141000918782798866653488190622531584.00
170141000918782798866653488190622531584.00
170141000918782798866653488190622531584.00
170141000918782798866653488190622531584.00
170141000918782798866653488190622531584.00
170141000918782798866653488190622531584.00
170141000918782798866653488190622531584.00
170141000918782798866653488190622531584.00
170141000918782798866653488190622531584.00
170141000918782798866653488190622531584.00
170141000918782798866653488190622531584.00
170141000918782798866653488190622531584.00
170141000918782798866653488190622531584.00
170141000918782798866653488190622531584.00
170141000918782798866653488190622531584.00
170141000918782798866653488190622531584.00
170141000918782798866653488190622531584.00
170141000918782798866653488190622531584.00
170141000918782798866653488190622531584.00
170141000918782798866653488190622531584.00
170141000918782798866653488190622531584.00
170141000918782798866653488190622531584.00
170141000918782798866653488190622531584.00
170141000918782798866653488190622531584.00
170141000918782798866653488190622531584.00
170141000918782798866653488190622531584.00
170141000918782798866653488190622531584.00
170141000918782798866653488190622531584.00
170141000918782798866653488190622531584.00
170141000918782798866653488190622531584.00
170141000918782798866653488190622531584.00
170141000918782798866653488190622531584.00
170141000918782798866653488190622531584.00
170141000918782798866653488190622531584.00
170141000918782798866653488190622531584.00
170141000918782798866653488190622531584.00
170141000918782798866653488190622531584.00
170141000918782798866653488190622531584.00
170141000918782798866653488190622531584.00
170141000918782798866653488190622531584.00
170141000918782798866653488190622531584.00
170141000918782798866653488190622531584.00
170141000918782798866653488190622531584.00
170141000918782798866653488190622531584.00
170141000918782798866653488190622531584.00
170141000918782798866653488190622531584.00
170141000918782798866653488190622531584.00
170141000918782798866653488190622531584.00
170141000918782798866653488190622531584.00
170141000918782798866653488190622531584.00
170141000918782798866653488190622531584.00
170141000918782798866653488190622531584.00
170141000918782798866653488190622531584.00
170141000918782798866653488190622531584.00
170141000918782798866653488190622531584.00
170141000918782798866653488190622531584.00
170141000918782798866653488190622531584.00
170141000918782798866653488190622531584.00
170141000918782798866653488190622531584.00
170141000918782798866653488190622531584.00
170141000918782798866653488190622531584.00
170141000918782798866653488190622531584.00
170141000918782798866653488190622531584.00
170141000918782798866653488190622531584.00
170141000918782798866653488190622531584.00
170141000918782798866653488190622531584.00
170141000918782798866653488190622531584.00
170141000918782798866653488190622531584.00
170141000918782798866653488190622531584.00
170141000918782798866653488190622531584.00
170141000918782798866653488190622531584.00
170141000918782798866653488190622531584.00
170141000918782798866653488190622531584.00
170141000918782798866653488190622531584.00
170141000918782798866653488190622531584.00
170141000918782798866653488190622531584.00
170141000918782798866653488190622531584.00
170141000918782798866653488190622531584.00
170141000918782798866653488190622531584.00
170141000918782798866653488190622531584.00
170141000918782798866653488190622531584.00
   0.14
170141000918782798866653488190622531584.00
170141000918782798866653488190622531584.00
   0.33
   0.33
170141000918782798866653488190622531584.00
170141000918782798866653488190622531584.00
170141000918782798866653488190622531584.00
170141000918782798866653488190622531584.00
170141000918782798866653488190622531584.00
170141000918782798866653488190622531584.00
170141000918782798866653488190622531584.00
170141000918782798866653488190622531584.00
170141000918782798866653488190622531584.00
170141000918782798866653488190622531584.00
170141000918782798866653488190622531584.00
170141000918782798866653488190622531584.00
170141000918782798866653488190622531584.00
170141000918782798866653488190622531584.00
170141000918782798866653488190622531584.00
170141000918782798866653488190622531584.00
170141000918782798866653488190622531584.00
170141000918782798866653488190622531584.00
170141000918782798866653488190622531584.00
170141000918782798866653488190622531584.00
170141000918782798866653488190622531584.00
170141000918782798866653488190622531584.00
170141000918782798866653488190622531584.00
170141000918782798866653488190622531584.00
170141000918782798866653488190622531584.00
170141000918782798866653488190622531584.00
170141000918782798866653488190622531584.00
170141000918782798866653488190622531584.00
170141000918782798866653488190622531584.00
170141000918782798866653488190622531584.00
170141000918782798866653488190622531584.00
170141000918782798866653488190622531584.00
170141000918782798866653488190622531584.00
170141000918782798866653488190622531584.00
170141000918782798866653488190622531584.00
170141000918782798866653488190622531584.00
170141000918782798866653488190622531584.00
170141000918782798866653488190622531584.00
170141000918782798866653488190622531584.00
170141000918782798866653488190622531584.00
170141000918782798866653488190622531584.00
170141000918782798866653488190622531584.00
170141000918782798866653488190622531584.00
170141000918782798866653488190622531584.00
170141000918782798866653488190622531584.00
170141000918782798866653488190622531584.00
170141000918782798866653488190622531584.00
170141000918782798866653488190622531584.00
170141000918782798866653488190622531584.00
170141000918782798866653488190622531584.00
170141000918782798866653488190622531584.00
170141000918782798866653488190622531584.00
170141000918782798866653488190622531584.00
170141000918782798866653488190622531584.00
170141000918782798866653488190622531584.00
170141000918782798866653488190622531584.00
170141000918782798866653488190622531584.00
170141000918782798866653488190622531584.00
170141000918782798866653488190622531584.00
170141000918782798866653488190622531584.00
170141000918782798866653488190622531584.00
170141000918782798866653488190622531584.00
170141000918782798866653488190622531584.00
170141000918782798866653488190622531584.00
170141000918782798866653488190622531584.00
170141000918782798866653488190622531584.00
170141000918782798866653488190622531584.00
170141000918782798866653488190622531584.00
170141000918782798866653488190622531584.00
170141000918782798866653488190622531584.00
170141000918782798866653488190622531584.00
170141000918782798866653488190622531584.00
170141000918782798866653488190622531584.00
170141000918782798866653488190622531584.00
170141000918782798866653488190622531584.00
170141000918782798866653488190622531584.00
170141000918782798866653488190622531584.00
170141000918782798866653488190622531584.00
170141000918782798866653488190622531584.00
170141000918782798866653488190622531584.00
170141000918782798866653488190622531584.00
170141000918782798866653488190622531584.00
170141000918782798866653488190622531584.00
170141000918782798866653488190622531584.00
170141000918782798866653488190622531584.00
170141000918782798866653488190622531584.00
170141000918782798866653488190622531584.00
170141000918782798866653488190622531584.00
170141000918782798866653488190622531584.00
170141000918782798866653488190622531584.00
170141000918782798866653488190622531584.00
170141000918782798866653488190622531584.00
170141000918782798866653488190622531584.00
170141000918782798866653488190622531584.00
170141000918782798866653488190622531584.00
170141000918782798866653488190622531584.00
170141000918782798866653488190622531584.00
170141000918782798866653488190622531584.00
170141000918782798866653488190622531584.00
170141000918782798866653488190622531584.00
170141000918782798866653488190622531584.00
170141000918782798866653488190622531584.00
170141000918782798866653488190622531584.00
170141000918782798866653488190622531584.00
170141000918782798866653488190622531584.00
170141000918782798866653488190622531584.00
170141000918782798866653488190622531584.00
170141000918782798866653488190622531584.00
170141000918782798866653488190622531584.00
170141000918782798866653488190622531584.00
170141000918782798866653488190622531584.00
170141000918782798866653488190622531584.00
170141000918782798866653488190622531584.00
170141000918782798866653488190622531584.00
170141000918782798866653488190622531584.00
170141000918782798866653488190622531584.00
170141000918782798866653488190622531584.00
170141000918782798866653488190622531584.00
170141000918782798866653488190622531584.00
170141000918782798866653488190622531584.00
170141000918782798866653488190622531584.00
170141000918782798866653488190622531584.00
170141000918782798866653488190622531584.00
170141000918782798866653488190622531584.00
170141000918782798866653488190622531584.00
170141000918782798866653488190622531584.00
170141000918782798866653488190622531584.00
170141000918782798866653488190622531584.00
170141000918782798866653488190622531584.00
170141000918782798866653488190622531584.00
170141000918782798866653488190622531584.00
170141000918782798866653488190622531584.00
170141000918782798866653488190622531584.00
170141000918782798866653488190622531584.00
170141000918782798866653488190622531584.00
170141000918782798866653488190622531584.00
170141000918782798866653488190622531584.00
170141000918782798866653488190622531584.00
170141000918782798866653488190622531584.00
170141000918782798866653488190622531584.00
170141000918782798866653488190622531584.00
170141000918782798866653488190622531584.00
170141000918782798866653488190622531584.00
170141000918782798866653488190622531584.00
170141000918782798866653488190622531584.00
170141000918782798866653488190622531584.00
170141000918782798866653488190622531584.00
170141000918782798866653488190622531584.00
170141000918782798866653488190622531584.00
170141000918782798866653488190622531584.00
170141000918782798866653488190622531584.00
170141000918782798866653488190622531584.00
170141000918782798866653488190622531584.00
170141000918782798866653488190622531584.00
170141000918782798866653488190622531584.00
170141000918782798866653488190622531584.00
170141000918782798866653488190622531584.00
170141000918782798866653488190622531584.00
170141000918782798866653488190622531584.00
170141000918782798866653488190622531584.00
170141000918782798866653488190622531584.00
170141000918782798866653488190622531584.00
170141000918782798866653488190622531584.00
170141000918782798866653488190622531584.00
170141000918782798866653488190622531584.00
170141000918782798866653488190622531584.00
170141000918782798866653488190622531584.00
170141000918782798866653488190622531584.00
170141000918782798866653488190622531584.00
170141000918782798866653488190622531584.00
170141000918782798866653488190622531584.00
170141000918782798866653488190622531584.00
170141000918782798866653488190622531584.00
170141000918782798866653488190622531584.00
170141000918782798866653488190622531584.00
170141000918782798866653488190622531584.00
170141000918782798866653488190622531584.00
170141000918782798866653488190622531584.00
170141000918782798866653488190622531584.00
170141000918782798866653488190622531584.00
170141000918782798866653488190622531584.00
170141000918782798866653488190622531584.00
170141000918782798866653488190622531584.00
170141000918782798866653488190622531584.00
170141000918782798866653488190622531584.00
170141000918782798866653488190622531584.00
170141000918782798866653488190622531584.00
170141000918782798866653488190622531584.00
170141000918782798866653488190622531584.00
170141000918782798866653488190622531584.00
170141000918782798866653488190622531584.00
170141000918782798866653488190622531584.00
170141000918782798866653488190622531584.00
170141000918782798866653488190622531584.00
170141000918782798866653488190622531584.00
170141000918782798866653488190622531584.00
170141000918782798866653488190622531584.00
170141000918782798866653488190622531584.00
170141000918782798866653488190622531584.00
170141000918782798866653488190622531584.00
170141000918782798866653488190622531584.00
170141000918782798866653488190622531584.00
170141000918782798866653488190622531584.00
170141000918782798866653488190622531584.00
170141000918782798866653488190622531584.00
170141000918782798866653488190622531584.00
170141000918782798866653488190622531584.00
170141000918782798866653488190622531584.00
170141000918782798866653488190622531584.00
170141000918782798866653488190622531584.00
170141000918782798866653488190622531584.00
170141000918782798866653488190622531584.00
170141000918782798866653488190622531584.00
170141000918782798866653488190622531584.00
170141000918782798866653488190622531584.00
170141000918782798866653488190622531584.00
170141000918782798866653488190622531584.00
170141000918782798866653488190622531584.00
170141000918782798866653488190622531584.00
170141000918782798866653488190622531584.00
170141000918782798866653488190622531584.00
170141000918782798866653488190622531584.00
170141000918782798866653488190622531584.00
170141000918782798866653488190622531584.00
170141000918782798866653488190622531584.00
170141000918782798866653488190622531584.00
170141000918782798866653488190622531584.00
170141000918782798866653488190622531584.00
170141000918782798866653488190622531584.00
170141000918782798866653488190622531584.00
170141000918782798866653488190622531584.00
170141000918782798866653488190622531584.00
170141000918782798866653488190622531584.00
170141000918782798866653488190622531584.00
170141000918782798866653488190622531584.00
170141000918782798866653488190622531584.00
170141000918782798866653488190622531584.00
170141000918782798866653488190622531584.00
170141000918782798866653488190622531584.00
170141000918782798866653488190622531584.00
170141000918782798866653488190622531584.00
170141000918782798866653488190622531584.00
170141000918782798866653488190622531584.00
170141000918782798866653488190622531584.00
170141000918782798866653488190622531584.00
170141000918782798866653488190622531584.00
170141000918782798866653488190622531584.00
170141000918782798866653488190622531584.00
170141000918782798866653488190622531584.00
170141000918782798866653488190622531584.00
170141000918782798866653488190622531584.00
170141000918782798866653488190622531584.00
170141000918782798866653488190622531584.00
170141000918782798866653488190622531584.00
170141000918782798866653488190622531584.00
170141000918782798866653488190622531584.00
170141000918782798866653488190622531584.00
170141000918782798866653488190622531584.00
170141000918782798866653488190622531584.00
170141000918782798866653488190622531584.00
170141000918782798866653488190622531584.00
170141000918782798866653488190622531584.00
170141000918782798866653488190622531584.00
170141000918782798866653488190622531584.00
170141000918782798866653488190622531584.00
170141000918782798866653488190622531584.00
170141000918782798866653488190622531584.00
170141000918782798866653488190622531584.00
170141000918782798866653488190622531584.00
170141000918782798866653488190622531584.00
170141000918782798866653488190622531584.00
170141000918782798866653488190622531584.00
170141000918782798866653488190622531584.00
170141000918782798866653488190622531584.00
170141000918782798866653488190622531584.00
170141000918782798866653488190622531584.00
170141000918782798866653488190622531584.00
170141000918782798866653488190622531584.00
170141000918782798866653488190622531584.00
170141000918782798866653488190622531584.00
170141000918782798866653488190622531584.00
170141000918782798866653488190622531584.00
170141000918782798866653488190622531584.00
170141000918782798866653488190622531584.00
170141000918782798866653488190622531584.00
170141000918782798866653488190622531584.00
170141000918782798866653488190622531584.00
170141000918782798866653488190622531584.00
170141000918782798866653488190622531584.00
170141000918782798866653488190622531584.00
170141000918782798866653488190622531584.00
170141000918782798866653488190622531584.00
170141000918782798866653488190622531584.00
170141000918782798866653488190622531584.00
170141000918782798866653488190622531584.00
170141000918782798866653488190622531584.00
170141000918782798866653488190622531584.00
170141000918782798866653488190622531584.00
170141000918782798866653488190622531584.00
170141000918782798866653488190622531584.00
170141000918782798866653488190622531584.00
170141000918782798866653488190622531584.00
170141000918782798866653488190622531584.00
170141000918782798866653488190622531584.00
170141000918782798866653488190622531584.00
170141000918782798866653488190622531584.00
170141000918782798866653488190622531584.00
170141000918782798866653488190622531584.00
170141000918782798866653488190622531584.00
170141000918782798866653488190622531584.00
170141000918782798866653488190622531584.00
170141000918782798866653488190622531584.00
170141000918782798866653488190622531584.00
170141000918782798866653488190622531584.00
170141000918782798866653488190622531584.00
170141000918782798866653488190622531584.00
170141000918782798866653488190622531584.00
170141000918782798866653488190622531584.00
170141000918782798866653488190622531584.00
170141000918782798866653488190622531584.00
170141000918782798866653488190622531584.00
170141000918782798866653488190622531584.00
170141000918782798866653488190622531584.00
170141000918782798866653488190622531584.00
170141000918782798866653488190622531584.00
170141000918782798866653488190622531584.00
170141000918782798866653488190622531584.00
170141000918782798866653488190622531584.00
170141000918782798866653488190622531584.00
170141000918782798866653488190622531584.00
170141000918782798866653488190622531584.00
170141000918782798866653488190622531584.00
170141000918782798866653488190622531584.00
170141000918782798866653488190622531584.00
170141000918782798866653488190622531584.00
170141000918782798866653488190622531584.00
170141000918782798866653488190622531584.00
170141000918782798866653488190622531584.00
170141000918782798866653488190622531584.00
170141000918782798866653488190622531584.00
170141000918782798866653488190622531584.00
170141000918782798866653488190622531584.00
170141000918782798866653488190622531584.00
170141000918782798866653488190622531584.00
170141000918782798866653488190622531584.00
170141000918782798866653488190622531584.00
170141000918782798866653488190622531584.00
170141000918782798866653488190622531584.00
170141000918782798866653488190622531584.00
170141000918782798866653488190622531584.00
170141000918782798866653488190622531584.00
170141000918782798866653488190622531584.00
170141000918782798866653488190622531584.00
170141000918782798866653488190622531584.00
170141000918782798866653488190622531584.00
170141000918782798866653488190622531584.00
170141000918782798866653488190622531584.00
170141000918782798866653488190622531584.00
170141000918782798866653488190622531584.00
170141000918782798866653488190622531584.00
170141000918782798866653488190622531584.00
170141000918782798866653488190622531584.00
170141000918782798866653488190622531584.00
170141000918782798866653488190622531584.00
170141000918782798866653488190622531584.00
170141000918782798866653488190622531584.00
170141000918782798866653488190622531584.00
170141000918782798866653488190622531584.00
170141000918782798866653488190622531584.00
170141000918782798866653488190622531584.00
170141000918782798866653488190622531584.00
170141000918782798866653488190622531584.00
170141000918782798866653488190622531584.00
170141000918782798866653488190622531584.00
170141000918782798866653488190622531584.00
170141000918782798866653488190622531584.00
170141000918782798866653488190622531584.00
170141000918782798866653488190622531584.00
170141000918782798866653488190622531584.00
170141000918782798866653488190622531584.00
170141000918782798866653488190622531584.00
170141000918782798866653488190622531584.00
170141000918782798866653488190622531584.00
170141000918782798866653488190622531584.00
170141000918782798866653488190622531584.00
170141000918782798866653488190622531584.00
170141000918782798866653488190622531584.00
170141000918782798866653488190622531584.00
170141000918782798866653488190622531584.00
170141000918782798866653488190622531584.00
170141000918782798866653488190622531584.00
170141000918782798866653488190622531584.00
170141000918782798866653488190622531584.00
170141000918782798866653488190622531584.00
170141000918782798866653488190622531584.00
170141000918782798866653488190622531584.00
170141000918782798866653488190622531584.00
170141000918782798866653488190622531584.00
170141000918782798866653488190622531584.00
170141000918782798866653488190622531584.00
170141000918782798866653488190622531584.00
170141000918782798866653488190622531584.00
170141000918782798866653488190622531584.00
170141000918782798866653488190622531584.00
170141000918782798866653488190622531584.00
170141000918782798866653488190622531584.00
170141000918782798866653488190622531584.00
170141000918782798866653488190622531584.00
170141000918782798866653488190622531584.00
170141000918782798866653488190622531584.00
170141000918782798866653488190622531584.00
170141000918782798866653488190622531584.00
170141000918782798866653488190622531584.00
170141000918782798866653488190622531584.00
170141000918782798866653488190622531584.00
170141000918782798866653488190622531584.00
170141000918782798866653488190622531584.00
170141000918782798866653488190622531584.00
170141000918782798866653488190622531584.00
170141000918782798866653488190622531584.00
170141000918782798866653488190622531584.00
170141000918782798866653488190622531584.00
170141000918782798866653488190622531584.00
170141000918782798866653488190622531584.00
170141000918782798866653488190622531584.00
170141000918782798866653488190622531584.00
170141000918782798866653488190622531584.00
170141000918782798866653488190622531584.00
170141000918782798866653488190622531584.00
170141000918782798866653488190622531584.00
170141000918782798866653488190622531584.00
170141000918782798866653488190622531584.00
170141000918782798866653488190622531584.00
170141000918782798866653488190622531584.00
170141000918782798866653488190622531584.00
170141000918782798866653488190622531584.00
170141000918782798866653488190622531584.00
170141000918782798866653488190622531584.00
170141000918782798866653488190622531584.00
170141000918782798866653488190622531584.00
170141000918782798866653488190622531584.00
170141000918782798866653488190622531584.00
170141000918782798866653488190622531584.00
170141000918782798866653488190622531584.00
170141000918782798866653488190622531584.00
170141000918782798866653488190622531584.00
170141000918782798866653488190622531584.00
170141000918782798866653488190622531584.00
170141000918782798866653488190622531584.00
170141000918782798866653488190622531584.00
170141000918782798866653488190622531584.00
170141000918782798866653488190622531584.00
170141000918782798866653488190622531584.00
170141000918782798866653488190622531584.00
170141000918782798866653488190622531584.00
170141000918782798866653488190622531584.00
170141000918782798866653488190622531584.00
170141000918782798866653488190622531584.00
170141000918782798866653488190622531584.00
170141000918782798866653488190622531584.00
170141000918782798866653488190622531584.00
170141000918782798866653488190622531584.00
170141000918782798866653488190622531584.00
170141000918782798866653488190622531584.00
170141000918782798866653488190622531584.00
170141000918782798866653488190622531584.00
170141000918782798866653488190622531584.00
170141000918782798866653488190622531584.00
170141000918782798866653488190622531584.00
170141000918782798866653488190622531584.00
170141000918782798866653488190622531584.00
170141000918782798866653488190622531584.00
170141000918782798866653488190622531584.00
170141000918782798866653488190622531584.00
170141000918782798866653488190622531584.00
170141000918782798866653488190622531584.00
170141000918782798866653488190622531584.00
170141000918782798866653488190622531584.00
170141000918782798866653488190622531584.00
170141000918782798866653488190622531584.00
170141000918782798866653488190622531584.00
170141000918782798866653488190622531584.00
170141000918782798866653488190622531584.00
170141000918782798866653488190622531584.00
170141000918782798866653488190622531584.00
170141000918782798866653488190622531584.00
170141000918782798866653488190622531584.00
170141000918782798866653488190622531584.00
170141000918782798866653488190622531584.00
170141000918782798866653488190622531584.00
170141000918782798866653488190622531584.00
170141000918782798866653488190622531584.00
170141000918782798866653488190622531584.00
170141000918782798866653488190622531584.00
170141000918782798866653488190622531584.00
170141000918782798866653488190622531584.00
170141000918782798866653488190622531584.00
170141000918782798866653488190622531584.00
170141000918782798866653488190622531584.00
170141000918782798866653488190622531584.00
170141000918782798866653488190622531584.00
170141000918782798866653488190622531584.00
170141000918782798866653488190622531584.00
170141000918782798866653488190622531584.00
170141000918782798866653488190622531584.00
170141000918782798866653488190622531584.00
170141000918782798866653488190622531584.00
170141000918782798866653488190622531584.00
170141000918782798866653488190622531584.00
170141000918782798866653488190622531584.00
170141000918782798866653488190622531584.00
170141000918782798866653488190622531584.00
170141000918782798866653488190622531584.00
170141000918782798866653488190622531584.00
170141000918782798866653488190622531584.00
170141000918782798866653488190622531584.00
170141000918782798866653488190622531584.00
170141000918782798866653488190622531584.00
170141000918782798866653488190622531584.00
170141000918782798866653488190622531584.00
170141000918782798866653488190622531584.00
170141000918782798866653488190622531584.00
170141000918782798866653488190622531584.00
170141000918782798866653488190622531584.00
170141000918782798866653488190622531584.00
170141000918782798866653488190622531584.00
170141000918782798866653488190622531584.00
170141000918782798866653488190622531584.00
170141000918782798866653488190622531584.00
170141000918782798866653488190622531584.00
170141000918782798866653488190622531584.00
170141000918782798866653488190622531584.00
170141000918782798866653488190622531584.00
170141000918782798866653488190622531584.00
170141000918782798866653488190622531584.00
170141000918782798866653488190622531584.00
170141000918782798866653488190622531584.00
170141000918782798866653488190622531584.00
170141000918782798866653488190622531584.00
170141000918782798866653488190622531584.00
170141000918782798866653488190622531584.00
170141000918782798866653488190622531584.00
170141000918782798866653488190622531584.00
170141000918782798866653488190622531584.00
170141000918782798866653488190622531584.00
170141000918782798866653488190622531584.00
170141000918782798866653488190622531584.00
170141000918782798866653488190622531584.00
170141000918782798866653488190622531584.00
170141000918782798866653488190622531584.00
170141000918782798866653488190622531584.00
170141000918782798866653488190622531584.00
170141000918782798866653488190622531584.00
170141000918782798866653488190622531584.00
170141000918782798866653488190622531584.00
170141000918782798866653488190622531584.00
170141000918782798866653488190622531584.00
170141000918782798866653488190622531584.00
170141000918782798866653488190622531584.00
170141000918782798866653488190622531584.00
170141000918782798866653488190622531584.00
170141000918782798866653488190622531584.00
170141000918782798866653488190622531584.00
170141000918782798866653488190622531584.00
170141000918782798866653488190622531584.00
170141000918782798866653488190622531584.00
170141000918782798866653488190622531584.00
170141000918782798866653488190622531584.00
170141000918782798866653488190622531584.00
170141000918782798866653488190622531584.00
170141000918782798866653488190622531584.00
170141000918782798866653488190622531584.00
170141000918782798866653488190622531584.00
170141000918782798866653488190622531584.00
170141000918782798866653488190622531584.00
170141000918782798866653488190622531584.00
170141000918782798866653488190622531584.00
170141000918782798866653488190622531584.00
170141000918782798866653488190622531584.00
170141000918782798866653488190622531584.00
170141000918782798866653488190622531584.00
170141000918782798866653488190622531584.00
170141000918782798866653488190622531584.00
170141000918782798866653488190622531584.00
170141000918782798866653488190622531584.00
170141000918782798866653488190622531584.00
170141000918782798866653488190622531584.00
170141000918782798866653488190622531584.00
170141000918782798866653488190622531584.00
170141000918782798866653488190622531584.00
170141000918782798866653488190622531584.00
170141000918782798866653488190622531584.00
170141000918782798866653488190622531584.00
170141000918782798866653488190622531584.00
170141000918782798866653488190622531584.00
170141000918782798866653488190622531584.00
170141000918782798866653488190622531584.00
170141000918782798866653488190622531584.00
170141000918782798866653488190622531584.00
170141000918782798866653488190622531584.00
170141000918782798866653488190622531584.00
170141000918782798866653488190622531584.00
170141000918782798866653488190622531584.00
170141000918782798866653488190622531584.00
170141000918782798866653488190622531584.00
170141000918782798866653488190622531584.00
170141000918782798866653488190622531584.00
170141000918782798866653488190622531584.00
170141000918782798866653488190622531584.00
170141000918782798866653488190622531584.00
170141000918782798866653488190622531584.00
170141000918782798866653488190622531584.00
170141000918782798866653488190622531584.00
170141000918782798866653488190622531584.00
170141000918782798866653488190622531584.00
170141000918782798866653488190622531584.00
170141000918782798866653488190622531584.00
170141000918782798866653488190622531584.00
170141000918782798866653488190622531584.00
170141000918782798866653488190622531584.00
170141000918782798866653488190622531584.00
170141000918782798866653488190622531584.00
170141000918782798866653488190622531584.00
170141000918782798866653488190622531584.00
170141000918782798866653488190622531584.00
170141000918782798866653488190622531584.00
170141000918782798866653488190622531584.00
170141000918782798866653488190622531584.00
170141000918782798866653488190622531584.00
170141000918782798866653488190622531584.00
170141000918782798866653488190622531584.00
170141000918782798866653488190622531584.00
170141000918782798866653488190622531584.00
170141000918782798866653488190622531584.00
170141000918782798866653488190622531584.00
170141000918782798866653488190622531584.00
170141000918782798866653488190622531584.00
170141000918782798866653488190622531584.00
170141000918782798866653488190622531584.00
170141000918782798866653488190622531584.00
170141000918782798866653488190622531584.00
170141000918782798866653488190622531584.00
170141000918782798866653488190622531584.00
170141000918782798866653488190622531584.00
170141000918782798866653488190622531584.00
170141000918782798866653488190622531584.00
170141000918782798866653488190622531584.00
170141000918782798866653488190622531584.00
170141000918782798866653488190622531584.00
170141000918782798866653488190622531584.00
170141000918782798866653488190622531584.00
170141000918782798866653488190622531584.00
170141000918782798866653488190622531584.00
170141000918782798866653488190622531584.00
170141000918782798866653488190622531584.00
170141000918782798866653488190622531584.00
170141000918782798866653488190622531584.00
170141000918782798866653488190622531584.00
170141000918782798866653488190622531584.00
170141000918782798866653488190622531584.00
170141000918782798866653488190622531584.00
170141000918782798866653488190622531584.00
170141000918782798866653488190622531584.00
170141000918782798866653488190622531584.00
170141000918782798866653488190622531584.00
170141000918782798866653488190622531584.00
170141000918782798866653488190622531584.00
170141000918782798866653488190622531584.00
170141000918782798866653488190622531584.00
170141000918782798866653488190622531584.00
170141000918782798866653488190622531584.00
170141000918782798866653488190622531584.00
170141000918782798866653488190622531584.00
170141000918782798866653488190622531584.00
170141000918782798866653488190622531584.00
170141000918782798866653488190622531584.00
170141000918782798866653488190622531584.00
170141000918782798866653488190622531584.00
170141000918782798866653488190622531584.00
170141000918782798866653488190622531584.00
170141000918782798866653488190622531584.00
170141000918782798866653488190622531584.00
170141000918782798866653488190622531584.00
170141000918782798866653488190622531584.00
170141000918782798866653488190622531584.00
170141000918782798866653488190622531584.00
170141000918782798866653488190622531584.00
170141000918782798866653488190622531584.00
170141000918782798866653488190622531584.00
170141000918782798866653488190622531584.00
170141000918782798866653488190622531584.00
170141000918782798866653488190622531584.00
170141000918782798866653488190622531584.00
170141000918782798866653488190622531584.00
170141000918782798866653488190622531584.00
170141000918782798866653488190622531584.00
170141000918782798866653488190622531584.00
170141000918782798866653488190622531584.00
170141000918782798866653488190622531584.00
170141000918782798866653488190622531584.00
170141000918782798866653488190622531584.00
170141000918782798866653488190622531584.00
170141000918782798866653488190622531584.00
170141000918782798866653488190622531584.00
170141000918782798866653488190622531584.00
170141000918782798866653488190622531584.00
170141000918782798866653488190622531584.00
170141000918782798866653488190622531584.00
170141000918782798866653488190622531584.00
170141000918782798866653488190622531584.00
170141000918782798866653488190622531584.00
170141000918782798866653488190622531584.00
170141000918782798866653488190622531584.00
170141000918782798866653488190622531584.00
170141000918782798866653488190622531584.00
170141000918782798866653488190622531584.00
170141000918782798866653488190622531584.00
170141000918782798866653488190622531584.00
170141000918782798866653488190622531584.00
170141000918782798866653488190622531584.00
170141000918782798866653488190622531584.00
170141000918782798866653488190622531584.00
170141000918782798866653488190622531584.00
170141000918782798866653488190622531584.00
170141000918782798866653488190622531584.00
170141000918782798866653488190622531584.00
170141000918782798866653488190622531584.00
170141000918782798866653488190622531584.00
170141000918782798866653488190622531584.00
170141000918782798866653488190622531584.00
170141000918782798866653488190622531584.00
170141000918782798866653488190622531584.00
170141000918782798866653488190622531584.00
170141000918782798866653488190622531584.00
170141000918782798866653488190622531584.00
170141000918782798866653488190622531584.00
170141000918782798866653488190622531584.00
170141000918782798866653488190622531584.00
170141000918782798866653488190622531584.00
170141000918782798866653488190622531584.00
170141000918782798866653488190622531584.00
170141000918782798866653488190622531584.00
170141000918782798866653488190622531584.00
170141000918782798866653488190622531584.00
170141000918782798866653488190622531584.00
170141000918782798866653488190622531584.00
170141000918782798866653488190622531584.00
170141000918782798866653488190622531584.00
170141000918782798866653488190622531584.00
170141000918782798866653488190622531584.00
170141000918782798866653488190622531584.00
170141000918782798866653488190622531584.00
170141000918782798866653488190622531584.00
170141000918782798866653488190622531584.00
170141000918782798866653488190622531584.00
170141000918782798866653488190622531584.00
170141000918782798866653488190622531584.00
170141000918782798866653488190622531584.00
170141000918782798866653488190622531584.00
170141000918782798866653488190622531584.00
170141000918782798866653488190622531584.00
170141000918782798866653488190622531584.00
170141000918782798866653488190622531584.00
170141000918782798866653488190622531584.00
170141000918782798866653488190622531584.00
170141000918782798866653488190622531584.00
170141000918782798866653488190622531584.00
170141000918782798866653488190622531584.00
170141000918782798866653488190622531584.00
170141000918782798866653488190622531584.00
170141000918782798866653488190622531584.00
170141000918782798866653488190622531584.00
170141000918782798866653488190622531584.00
170141000918782798866653488190622531584.00
170141000918782798866653488190622531584.00
170141000918782798866653488190622531584.00
170141000918782798866653488190622531584.00
170141000918782798866653488190622531584.00
170141000918782798866653488190622531584.00
170141000918782798866653488190622531584.00
170141000918782798866653488190622531584.00
170141000918782798866653488190622531584.00
170141000918782798866653488190622531584.00
170141000918782798866653488190622531584.00
170141000918782798866653488190622531584.00
170141000918782798866653488190622531584.00
170141000918782798866653488190622531584.00
170141000918782798866653488190622531584.00
170141000918782798866653488190622531584.00
170141000918782798866653488190622531584.00
170141000918782798866653488190622531584.00
170141000918782798866653488190622531584.00
170141000918782798866653488190622531584.00
170141000918782798866653488190622531584.00
170141000918782798866653488190622531584.00
170141000918782798866653488190622531584.00
170141000918782798866653488190622531584.00
170141000918782798866653488190622531584.00
170141000918782798866653488190622531584.00
170141000918782798866653488190622531584.00
170141000918782798866653488190622531584.00
170141000918782798866653488190622531584.00
170141000918782798866653488190622531584.00
170141000918782798866653488190622531584.00
170141000918782798866653488190622531584.00
170141000918782798866653488190622531584.00
170141000918782798866653488190622531584.00
170141000918782798866653488190622531584.00
170141000918782798866653488190622531584.00
170141000918782798866653488190622531584.00
170141000918782798866653488190622531584.00
170141000918782798866653488190622531584.00
170141000918782798866653488190622531584.00
170141000918782798866653488190622531584.00
170141000918782798866653488190622531584.00
170141000918782798866653488190622531584.00
170141000918782798866653488190622531584.00
170141000918782798866653488190622531584.00
170141000918782798866653488190622531584.00
170141000918782798866653488190622531584.00
170141000918782798866653488190622531584.00
170141000918782798866653488190622531584.00
170141000918782798866653488190622531584.00
170141000918782798866653488190622531584.00
170141000918782798866653488190622531584.00
170141000918782798866653488190622531584.00
170141000918782798866653488190622531584.00
170141000918782798866653488190622531584.00
170141000918782798866653488190622531584.00
170141000918782798866653488190622531584.00
170141000918782798866653488190622531584.00
170141000918782798866653488190622531584.00
170141000918782798866653488190622531584.00
170141000918782798866653488190622531584.00
170141000918782798866653488190622531584.00
170141000918782798866653488190622531584.00
170141000918782798866653488190622531584.00
170141000918782798866653488190622531584.00
170141000918782798866653488190622531584.00
170141000918782798866653488190622531584.00
170141000918782798866653488190622531584.00
170141000918782798866653488190622531584.00
170141000918782798866653488190622531584.00
170141000918782798866653488190622531584.00
170141000918782798866653488190622531584.00
170141000918782798866653488190622531584.00
170141000918782798866653488190622531584.00
170141000918782798866653488190622531584.00
170141000918782798866653488190622531584.00
170141000918782798866653488190622531584.00
170141000918782798866653488190622531584.00
170141000918782798866653488190622531584.00
170141000918782798866653488190622531584.00
170141000918782798866653488190622531584.00
170141000918782798866653488190622531584.00
170141000918782798866653488190622531584.00
170141000918782798866653488190622531584.00
170141000918782798866653488190622531584.00
170141000918782798866653488190622531584.00
170141000918782798866653488190622531584.00
170141000918782798866653488190622531584.00
170141000918782798866653488190622531584.00
170141000918782798866653488190622531584.00
170141000918782798866653488190622531584.00
170141000918782798866653488190622531584.00
170141000918782798866653488190622531584.00
170141000918782798866653488190622531584.00
170141000918782798866653488190622531584.00
170141000918782798866653488190622531584.00
170141000918782798866653488190622531584.00
170141000918782798866653488190622531584.00
170141000918782798866653488190622531584.00
170141000918782798866653488190622531584.00
170141000918782798866653488190622531584.00
170141000918782798866653488190622531584.00
170141000918782798866653488190622531584.00
170141000918782798866653488190622531584.00
170141000918782798866653488190622531584.00
170141000918782798866653488190622531584.00
170141000918782798866653488190622531584.00
170141000918782798866653488190622531584.00
170141000918782798866653488190622531584.00
170141000918782798866653488190622531584.00
170141000918782798866653488190622531584.00
170141000918782798866653488190622531584.00
170141000918782798866653488190622531584.00
170141000918782798866653488190622531584.00
170141000918782798866653488190622531584.00
170141000918782798866653488190622531584.00
170141000918782798866653488190622531584.00
170141000918782798866653488190622531584.00
170141000918782798866653488190622531584.00
170141000918782798866653488190622531584.00
170141000918782798866653488190622531584.00
170141000918782798866653488190622531584.00
170141000918782798866653488190622531584.00
170141000918782798866653488190622531584.00
170141000918782798866653488190622531584.00
170141000918782798866653488190622531584.00
170141000918782798866653488190622531584.00
170141000918782798866653488190622531584.00
170141000918782798866653488190622531584.00
170141000918782798866653488190622531584.00
170141000918782798866653488190622531584.00
170141000918782798866653488190622531584.00
170141000918782798866653488190622531584.00
170141000918782798866653488190622531584.00
170141000918782798866653488190622531584.00
170141000918782798866653488190622531584.00
170141000918782798866653488190622531584.00
170141000918782798866653488190622531584.00
170141000918782798866653488190622531584.00
170141000918782798866653488190622531584.00
170141000918782798866653488190622531584.00
170141000918782798866653488190622531584.00
170141000918782798866653488190622531584.00
170141000918782798866653488190622531584.00
170141000918782798866653488190622531584.00
170141000918782798866653488190622531584.00
170141000918782798866653488190622531584.00
170141000918782798866653488190622531584.00
170141000918782798866653488190622531584.00
170141000918782798866653488190622531584.00
170141000918782798866653488190622531584.00
170141000918782798866653488190622531584.00
170141000918782798866653488190622531584.00
170141000918782798866653488190622531584.00
170141000918782798866653488190622531584.00
170141000918782798866653488190622531584.00
170141000918782798866653488190622531584.00
170141000918782798866653488190622531584.00
170141000918782798866653488190622531584.00
170141000918782798866653488190622531584.00
170141000918782798866653488190622531584.00
170141000918782798866653488190622531584.00
170141000918782798866653488190622531584.00
170141000918782798866653488190622531584.00
170141000918782798866653488190622531584.00
170141000918782798866653488190622531584.00
170141000918782798866653488190622531584.00
170141000918782798866653488190622531584.00
170141000918782798866653488190622531584.00
170141000918782798866653488190622531584.00
170141000918782798866653488190622531584.00
170141000918782798866653488190622531584.00
170141000918782798866653488190622531584.00
170141000918782798866653488190622531584.00
170141000918782798866653488190622531584.00
170141000918782798866653488190622531584.00
170141000918782798866653488190622531584.00
170141000918782798866653488190622531584.00
170141000918782798866653488190622531584.00
170141000918782798866653488190622531584.00
170141000918782798866653488190622531584.00
170141000918782798866653488190622531584.00
170141000918782798866653488190622531584.00
170141000918782798866653488190622531584.00
170141000918782798866653488190622531584.00
170141000918782798866653488190622531584.00
170141000918782798866653488190622531584.00
170141000918782798866653488190622531584.00
170141000918782798866653488190622531584.00
170141000918782798866653488190622531584.00
170141000918782798866653488190622531584.00
170141000918782798866653488190622531584.00
170141000918782798866653488190622531584.00
170141000918782798866653488190622531584.00
170141000918782798866653488190622531584.00
170141000918782798866653488190622531584.00
170141000918782798866653488190622531584.00
170141000918782798866653488190622531584.00
170141000918782798866653488190622531584.00
170141000918782798866653488190622531584.00
170141000918782798866653488190622531584.00
170141000918782798866653488190622531584.00
170141000918782798866653488190622531584.00
170141000918782798866653488190622531584.00
170141000918782798866653488190622531584.00
170141000918782798866653488190622531584.00
170141000918782798866653488190622531584.00
170141000918782798866653488190622531584.00
170141000918782798866653488190622531584.00
170141000918782798866653488190622531584.00
170141000918782798866653488190622531584.00
170141000918782798866653488190622531584.00
170141000918782798866653488190622531584.00
170141000918782798866653488190622531584.00
170141000918782798866653488190622531584.00
170141000918782798866653488190622531584.00
170141000918782798866653488190622531584.00
170141000918782798866653488190622531584.00
170141000918782798866653488190622531584.00
170141000918782798866653488190622531584.00
170141000918782798866653488190622531584.00
170141000918782798866653488190622531584.00
170141000918782798866653488190622531584.00
170141000918782798866653488190622531584.00
170141000918782798866653488190622531584.00
170141000918782798866653488190622531584.00
170141000918782798866653488190622531584.00
170141000918782798866653488190622531584.00
170141000918782798866653488190622531584.00
170141000918782798866653488190622531584.00
170141000918782798866653488190622531584.00
170141000918782798866653488190622531584.00
170141000918782798866653488190622531584.00
170141000918782798866653488190622531584.00
170141000918782798866653488190622531584.00
170141000918782798866653488190622531584.00
170141000918782798866653488190622531584.00
170141000918782798866653488190622531584.00
170141000918782798866653488190622531584.00
170141000918782798866653488190622531584.00
170141000918782798866653488190622531584.00
170141000918782798866653488190622531584.00
170141000918782798866653488190622531584.00
170141000918782798866653488190622531584.00
170141000918782798866653488190622531584.00
170141000918782798866653488190622531584.00
170141000918782798866653488190622531584.00
170141000918782798866653488190622531584.00
170141000918782798866653488190622531584.00
170141000918782798866653488190622531584.00
170141000918782798866653488190622531584.00
170141000918782798866653488190622531584.00
170141000918782798866653488190622531584.00
170141000918782798866653488190622531584.00
170141000918782798866653488190622531584.00
170141000918782798866653488190622531584.00
170141000918782798866653488190622531584.00
170141000918782798866653488190622531584.00
170141000918782798866653488190622531584.00
170141000918782798866653488190622531584.00
170141000918782798866653488190622531584.00
170141000918782798866653488190622531584.00
170141000918782798866653488190622531584.00
170141000918782798866653488190622531584.00
170141000918782798866653488190622531584.00
170141000918782798866653488190622531584.00
170141000918782798866653488190622531584.00
170141000918782798866653488190622531584.00
170141000918782798866653488190622531584.00
170141000918782798866653488190622531584.00
170141000918782798866653488190622531584.00
170141000918782798866653488190622531584.00
170141000918782798866653488190622531584.00
170141000918782798866653488190622531584.00
170141000918782798866653488190622531584.00
170141000918782798866653488190622531584.00
170141000918782798866653488190622531584.00
170141000918782798866653488190622531584.00
170141000918782798866653488190622531584.00
170141000918782798866653488190622531584.00
170141000918782798866653488190622531584.00
170141000918782798866653488190622531584.00
170141000918782798866653488190622531584.00
170141000918782798866653488190622531584.00
170141000918782798866653488190622531584.00
170141000918782798866653488190622531584.00
170141000918782798866653488190622531584.00
170141000918782798866653488190622531584.00
170141000918782798866653488190622531584.00
170141000918782798866653488190622531584.00
170141000918782798866653488190622531584.00
170141000918782798866653488190622531584.00
170141000918782798866653488190622531584.00
170141000918782798866653488190622531584.00
170141000918782798866653488190622531584.00
170141000918782798866653488190622531584.00
170141000918782798866653488190622531584.00
170141000918782798866653488190622531584.00
170141000918782798866653488190622531584.00
170141000918782798866653488190622531584.00
170141000918782798866653488190622531584.00
170141000918782798866653488190622531584.00
170141000918782798866653488190622531584.00
170141000918782798866653488190622531584.00
170141000918782798866653488190622531584.00
170141000918782798866653488190622531584.00
170141000918782798866653488190622531584.00
170141000918782798866653488190622531584.00
170141000918782798866653488190622531584.00
170141000918782798866653488190622531584.00
170141000918782798866653488190622531584.00
170141000918782798866653488190622531584.00
170141000918782798866653488190622531584.00
170141000918782798866653488190622531584.00
170141000918782798866653488190622531584.00
170141000918782798866653488190622531584.00
170141000918782798866653488190622531584.00
170141000918782798866653488190622531584.00
170141000918782798866653488190622531584.00
170141000918782798866653488190622531584.00
170141000918782798866653488190622531584.00
170141000918782798866653488190622531584.00
170141000918782798866653488190622531584.00
170141000918782798866653488190622531584.00
170141000918782798866653488190622531584.00
170141000918782798866653488190622531584.00
170141000918782798866653488190622531584.00
170141000918782798866653488190622531584.00
170141000918782798866653488190622531584.00
170141000918782798866653488190622531584.00
170141000918782798866653488190622531584.00
170141000918782798866653488190622531584.00
170141000918782798866653488190622531584.00
170141000918782798866653488190622531584.00
170141000918782798866653488190622531584.00
170141000918782798866653488190622531584.00
170141000918782798866653488190622531584.00
170141000918782798866653488190622531584.00
170141000918782798866653488190622531584.00
170141000918782798866653488190622531584.00
170141000918782798866653488190622531584.00
170141000918782798866653488190622531584.00
170141000918782798866653488190622531584.00
170141000918782798866653488190622531584.00
170141000918782798866653488190622531584.00
170141000918782798866653488190622531584.00
170141000918782798866653488190622531584.00
170141000918782798866653488190622531584.00
170141000918782798866653488190622531584.00
170141000918782798866653488190622531584.00
170141000918782798866653488190622531584.00
170141000918782798866653488190622531584.00
170141000918782798866653488190622531584.00
170141000918782798866653488190622531584.00
170141000918782798866653488190622531584.00
170141000918782798866653488190622531584.00
170141000918782798866653488190622531584.00
170141000918782798866653488190622531584.00
170141000918782798866653488190622531584.00
170141000918782798866653488190622531584.00
170141000918782798866653488190622531584.00
170141000918782798866653488190622531584.00
170141000918782798866653488190622531584.00
170141000918782798866653488190622531584.00
170141000918782798866653488190622531584.00
170141000918782798866653488190622531584.00
170141000918782798866653488190622531584.00
170141000918782798866653488190622531584.00
170141000918782798866653488190622531584.00
170141000918782798866653488190622531584.00
170141000918782798866653488190622531584.00
170141000918782798866653488190622531584.00
170141000918782798866653488190622531584.00
170141000918782798866653488190622531584.00
170141000918782798866653488190622531584.00
170141000918782798866653488190622531584.00
170141000918782798866653488190622531584.00
170141000918782798866653488190622531584.00
170141000918782798866653488190622531584.00
170141000918782798866653488190622531584.00
170141000918782798866653488190622531584.00
170141000918782798866653488190622531584.00
170141000918782798866653488190622531584.00
170141000918782798866653488190622531584.00
170141000918782798866653488190622531584.00
170141000918782798866653488190622531584.00
170141000918782798866653488190622531584.00
170141000918782798866653488190622531584.00
170141000918782798866653488190622531584.00
170141000918782798866653488190622531584.00
170141000918782798866653488190622531584.00
170141000918782798866653488190622531584.00
170141000918782798866653488190622531584.00
170141000918782798866653488190622531584.00
170141000918782798866653488190622531584.00
170141000918782798866653488190622531584.00
170141000918782798866653488190622531584.00
170141000918782798866653488190622531584.00
170141000918782798866653488190622531584.00
170141000918782798866653488190622531584.00
170141000918782798866653488190622531584.00
170141000918782798866653488190622531584.00
170141000918782798866653488190622531584.00
170141000918782798866653488190622531584.00
170141000918782798866653488190622531584.00
170141000918782798866653488190622531584.00
170141000918782798866653488190622531584.00
170141000918782798866653488190622531584.00
170141000918782798866653488190622531584.00
170141000918782798866653488190622531584.00
170141000918782798866653488190622531584.00
170141000918782798866653488190622531584.00
170141000918782798866653488190622531584.00
170141000918782798866653488190622531584.00
170141000918782798866653488190622531584.00
170141000918782798866653488190622531584.00
170141000918782798866653488190622531584.00
170141000918782798866653488190622531584.00
170141000918782798866653488190622531584.00
170141000918782798866653488190622531584.00
170141000918782798866653488190622531584.00
170141000918782798866653488190622531584.00
170141000918782798866653488190622531584.00
170141000918782798866653488190622531584.00
170141000918782798866653488190622531584.00
170141000918782798866653488190622531584.00
170141000918782798866653488190622531584.00
170141000918782798866653488190622531584.00
170141000918782798866653488190622531584.00
170141000918782798866653488190622531584.00
170141000918782798866653488190622531584.00
170141000918782798866653488190622531584.00
170141000918782798866653488190622531584.00
170141000918782798866653488190622531584.00
170141000918782798866653488190622531584.00
170141000918782798866653488190622531584.00
170141000918782798866653488190622531584.00
170141000918782798866653488190622531584.00
170141000918782798866653488190622531584.00
170141000918782798866653488190622531584.00
170141000918782798866653488190622531584.00
170141000918782798866653488190622531584.00
170141000918782798866653488190622531584.00
170141000918782798866653488190622531584.00
170141000918782798866653488190622531584.00
170141000918782798866653488190622531584.00
170141000918782798866653488190622531584.00
170141000918782798866653488190622531584.00
170141000918782798866653488190622531584.00
170141000918782798866653488190622531584.00
170141000918782798866653488190622531584.00
170141000918782798866653488190622531584.00
170141000918782798866653488190622531584.00
170141000918782798866653488190622531584.00
170141000918782798866653488190622531584.00
170141000918782798866653488190622531584.00
170141000918782798866653488190622531584.00
170141000918782798866653488190622531584.00
170141000918782798866653488190622531584.00
170141000918782798866653488190622531584.00
170141000918782798866653488190622531584.00
170141000918782798866653488190622531584.00
170141000918782798866653488190622531584.00
170141000918782798866653488190622531584.00
170141000918782798866653488190622531584.00
170141000918782798866653488190622531584.00
170141000918782798866653488190622531584.00
170141000918782798866653488190622531584.00
170141000918782798866653488190622531584.00
170141000918782798866653488190622531584.00
170141000918782798866653488190622531584.00
170141000918782798866653488190622531584.00
170141000918782798866653488190622531584.00
170141000918782798866653488190622531584.00
170141000918782798866653488190622531584.00
170141000918782798866653488190622531584.00
170141000918782798866653488190622531584.00
170141000918782798866653488190622531584.00
170141000918782798866653488190622531584.00
170141000918782798866653488190622531584.00
170141000918782798866653488190622531584.00
170141000918782798866653488190622531584.00
170141000918782798866653488190622531584.00
170141000918782798866653488190622531584.00
170141000918782798866653488190622531584.00
170141000918782798866653488190622531584.00
170141000918782798866653488190622531584.00
170141000918782798866653488190622531584.00
170141000918782798866653488190622531584.00
170141000918782798866653488190622531584.00
170141000918782798866653488190622531584.00
170141000918782798866653488190622531584.00
170141000918782798866653488190622531584.00
170141000918782798866653488190622531584.00
170141000918782798866653488190622531584.00
170141000918782798866653488190622531584.00
170141000918782798866653488190622531584.00
170141000918782798866653488190622531584.00
170141000918782798866653488190622531584.00
170141000918782798866653488190622531584.00
170141000918782798866653488190622531584.00
170141000918782798866653488190622531584.00
170141000918782798866653488190622531584.00
170141000918782798866653488190622531584.00
170141000918782798866653488190622531584.00
170141000918782798866653488190622531584.00
170141000918782798866653488190622531584.00
170141000918782798866653488190622531584.00
170141000918782798866653488190622531584.00
170141000918782798866653488190622531584.00
170141000918782798866653488190622531584.00
170141000918782798866653488190622531584.00
170141000918782798866653488190622531584.00
170141000918782798866653488190622531584.00
170141000918782798866653488190622531584.00
170141000918782798866653488190622531584.00
170141000918782798866653488190622531584.00
170141000918782798866653488190622531584.00
170141000918782798866653488190622531584.00
170141000918782798866653488190622531584.00
170141000918782798866653488190622531584.00
170141000918782798866653488190622531584.00
170141000918782798866653488190622531584.00
170141000918782798866653488190622531584.00
170141000918782798866653488190622531584.00
170141000918782798866653488190622531584.00
170141000918782798866653488190622531584.00
170141000918782798866653488190622531584.00
170141000918782798866653488190622531584.00
170141000918782798866653488190622531584.00
170141000918782798866653488190622531584.00
170141000918782798866653488190622531584.00
170141000918782798866653488190622531584.00
170141000918782798866653488190622531584.00
170141000918782798866653488190622531584.00
170141000918782798866653488190622531584.00
170141000918782798866653488190622531584.00
170141000918782798866653488190622531584.00
170141000918782798866653488190622531584.00
170141000918782798866653488190622531584.00
170141000918782798866653488190622531584.00
170141000918782798866653488190622531584.00
170141000918782798866653488190622531584.00
170141000918782798866653488190622531584.00
170141000918782798866653488190622531584.00
170141000918782798866653488190622531584.00
170141000918782798866653488190622531584.00
170141000918782798866653488190622531584.00
170141000918782798866653488190622531584.00
170141000918782798866653488190622531584.00
170141000918782798866653488190622531584.00
170141000918782798866653488190622531584.00
170141000918782798866653488190622531584.00
170141000918782798866653488190622531584.00
170141000918782798866653488190622531584.00
170141000918782798866653488190622531584.00
170141000918782798866653488190622531584.00
170141000918782798866653488190622531584.00
170141000918782798866653488190622531584.00
170141000918782798866653488190622531584.00
170141000918782798866653488190622531584.00
170141000918782798866653488190622531584.00
170141000918782798866653488190622531584.00
170141000918782798866653488190622531584.00
170141000918782798866653488190622531584.00
170141000918782798866653488190622531584.00
170141000918782798866653488190622531584.00
170141000918782798866653488190622531584.00
170141000918782798866653488190622531584.00
170141000918782798866653488190622531584.00
170141000918782798866653488190622531584.00
170141000918782798866653488190622531584.00
170141000918782798866653488190622531584.00
170141000918782798866653488190622531584.00
170141000918782798866653488190622531584.00
170141000918782798866653488190622531584.00
170141000918782798866653488190622531584.00
170141000918782798866653488190622531584.00
170141000918782798866653488190622531584.00
170141000918782798866653488190622531584.00
170141000918782798866653488190622531584.00
170141000918782798866653488190622531584.00
170141000918782798866653488190622531584.00
170141000918782798866653488190622531584.00
170141000918782798866653488190622531584.00
170141000918782798866653488190622531584.00
170141000918782798866653488190622531584.00
170141000918782798866653488190622531584.00
170141000918782798866653488190622531584.00
170141000918782798866653488190622531584.00
170141000918782798866653488190622531584.00
170141000918782798866653488190622531584.00
170141000918782798866653488190622531584.00
170141000918782798866653488190622531584.00
170141000918782798866653488190622531584.00
170141000918782798866653488190622531584.00
170141000918782798866653488190622531584.00
170141000918782798866653488190622531584.00
170141000918782798866653488190622531584.00
170141000918782798866653488190622531584.00
170141000918782798866653488190622531584.00
170141000918782798866653488190622531584.00
170141000918782798866653488190622531584.00
170141000918782798866653488190622531584.00
170141000918782798866653488190622531584.00
170141000918782798866653488190622531584.00
170141000918782798866653488190622531584.00
170141000918782798866653488190622531584.00
170141000918782798866653488190622531584.00
170141000918782798866653488190622531584.00
170141000918782798866653488190622531584.00
170141000918782798866653488190622531584.00
170141000918782798866653488190622531584.00
170141000918782798866653488190622531584.00
170141000918782798866653488190622531584.00
170141000918782798866653488190622531584.00
170141000918782798866653488190622531584.00
170141000918782798866653488190622531584.00
170141000918782798866653488190622531584.00
170141000918782798866653488190622531584.00
170141000918782798866653488190622531584.00
170141000918782798866653488190622531584.00
170141000918782798866653488190622531584.00
170141000918782798866653488190622531584.00
170141000918782798866653488190622531584.00
170141000918782798866653488190622531584.00
170141000918782798866653488190622531584.00
170141000918782798866653488190622531584.00
170141000918782798866653488190622531584.00
170141000918782798866653488190622531584.00
170141000918782798866653488190622531584.00
170141000918782798866653488190622531584.00
170141000918782798866653488190622531584.00
170141000918782798866653488190622531584.00
170141000918782798866653488190622531584.00
170141000918782798866653488190622531584.00
170141000918782798866653488190622531584.00
170141000918782798866653488190622531584.00
170141000918782798866653488190622531584.00
170141000918782798866653488190622531584.00
170141000918782798866653488190622531584.00
170141000918782798866653488190622531584.00
170141000918782798866653488190622531584.00
170141000918782798866653488190622531584.00
170141000918782798866653488190622531584.00
170141000918782798866653488190622531584.00
170141000918782798866653488190622531584.00
170141000918782798866653488190622531584.00
170141000918782798866653488190622531584.00
170141000918782798866653488190622531584.00
170141000918782798866653488190622531584.00
170141000918782798866653488190622531584.00
170141000918782798866653488190622531584.00
170141000918782798866653488190622531584.00
170141000918782798866653488190622531584.00
170141000918782798866653488190622531584.00
170141000918782798866653488190622531584.00
170141000918782798866653488190622531584.00
170141000918782798866653488190622531584.00
170141000918782798866653488190622531584.00
170141000918782798866653488190622531584.00
170141000918782798866653488190622531584.00
170141000918782798866653488190622531584.00
170141000918782798866653488190622531584.00
170141000918782798866653488190622531584.00
170141000918782798866653488190622531584.00
170141000918782798866653488190622531584.00
170141000918782798866653488190622531584.00
170141000918782798866653488190622531584.00
170141000918782798866653488190622531584.00
170141000918782798866653488190622531584.00
170141000918782798866653488190622531584.00
170141000918782798866653488190622531584.00
170141000918782798866653488190622531584.00
170141000918782798866653488190622531584.00
170141000918782798866653488190622531584.00
170141000918782798866653488190622531584.00
170141000918782798866653488190622531584.00
170141000918782798866653488190622531584.00
170141000918782798866653488190622531584.00
170141000918782798866653488190622531584.00
170141000918782798866653488190622531584.00
170141000918782798866653488190622531584.00
170141000918782798866653488190622531584.00
170141000918782798866653488190622531584.00
170141000918782798866653488190622531584.00
170141000918782798866653488190622531584.00
170141000918782798866653488190622531584.00
170141000918782798866653488190622531584.00
170141000918782798866653488190622531584.00
170141000918782798866653488190622531584.00
170141000918782798866653488190622531584.00
170141000918782798866653488190622531584.00
170141000918782798866653488190622531584.00
170141000918782798866653488190622531584.00
170141000918782798866653488190622531584.00
170141000918782798866653488190622531584.00
170141000918782798866653488190622531584.00
170141000918782798866653488190622531584.00
170141000918782798866653488190622531584.00
170141000918782798866653488190622531584.00
170141000918782798866653488190622531584.00
170141000918782798866653488190622531584.00
170141000918782798866653488190622531584.00
170141000918782798866653488190622531584.00
170141000918782798866653488190622531584.00
170141000918782798866653488190622531584.00
170141000918782798866653488190622531584.00
170141000918782798866653488190622531584.00
170141000918782798866653488190622531584.00
170141000918782798866653488190622531584.00
170141000918782798866653488190622531584.00
170141000918782798866653488190622531584.00
170141000918782798866653488190622531584.00
170141000918782798866653488190622531584.00
170141000918782798866653488190622531584.00
170141000918782798866653488190622531584.00
170141000918782798866653488190622531584.00
170141000918782798866653488190622531584.00
170141000918782798866653488190622531584.00
170141000918782798866653488190622531584.00
170141000918782798866653488190622531584.00
170141000918782798866653488190622531584.00
170141000918782798866653488190622531584.00
170141000918782798866653488190622531584.00
170141000918782798866653488190622531584.00
170141000918782798866653488190622531584.00
170141000918782798866653488190622531584.00
170141000918782798866653488190622531584.00
170141000918782798866653488190622531584.00
170141000918782798866653488190622531584.00
170141000918782798866653488190622531584.00
170141000918782798866653488190622531584.00
170141000918782798866653488190622531584.00
170141000918782798866653488190622531584.00
170141000918782798866653488190622531584.00
170141000918782798866653488190622531584.00
170141000918782798866653488190622531584.00
170141000918782798866653488190622531584.00
170141000918782798866653488190622531584.00
170141000918782798866653488190622531584.00
170141000918782798866653488190622531584.00
170141000918782798866653488190622531584.00
170141000918782798866653488190622531584.00
170141000918782798866653488190622531584.00
170141000918782798866653488190622531584.00
170141000918782798866653488190622531584.00
170141000918782798866653488190622531584.00
170141000918782798866653488190622531584.00
170141000918782798866653488190622531584.00
170141000918782798866653488190622531584.00
170141000918782798866653488190622531584.00
170141000918782798866653488190622531584.00
170141000918782798866653488190622531584.00
170141000918782798866653488190622531584.00
170141000918782798866653488190622531584.00
170141000918782798866653488190622531584.00
170141000918782798866653488190622531584.00
170141000918782798866653488190622531584.00
170141000918782798866653488190622531584.00
170141000918782798866653488190622531584.00
170141000918782798866653488190622531584.00
170141000918782798866653488190622531584.00
170141000918782798866653488190622531584.00
170141000918782798866653488190622531584.00
170141000918782798866653488190622531584.00
170141000918782798866653488190622531584.00
170141000918782798866653488190622531584.00
170141000918782798866653488190622531584.00
170141000918782798866653488190622531584.00
170141000918782798866653488190622531584.00
170141000918782798866653488190622531584.00
170141000918782798866653488190622531584.00
170141000918782798866653488190622531584.00
170141000918782798866653488190622531584.00
170141000918782798866653488190622531584.00
170141000918782798866653488190622531584.00
170141000918782798866653488190622531584.00
170141000918782798866653488190622531584.00
170141000918782798866653488190622531584.00
170141000918782798866653488190622531584.00
170141000918782798866653488190622531584.00
170141000918782798866653488190622531584.00
170141000918782798866653488190622531584.00
170141000918782798866653488190622531584.00
170141000918782798866653488190622531584.00
170141000918782798866653488190622531584.00
170141000918782798866653488190622531584.00
170141000918782798866653488190622531584.00
170141000918782798866653488190622531584.00
170141000918782798866653488190622531584.00
170141000918782798866653488190622531584.00
170141000918782798866653488190622531584.00
170141000918782798866653488190622531584.00
170141000918782798866653488190622531584.00
170141000918782798866653488190622531584.00
170141000918782798866653488190622531584.00
170141000918782798866653488190622531584.00
170141000918782798866653488190622531584.00
170141000918782798866653488190622531584.00
170141000918782798866653488190622531584.00
170141000918782798866653488190622531584.00
170141000918782798866653488190622531584.00
170141000918782798866653488190622531584.00
170141000918782798866653488190622531584.00
170141000918782798866653488190622531584.00
170141000918782798866653488190622531584.00
170141000918782798866653488190622531584.00
170141000918782798866653488190622531584.00
170141000918782798866653488190622531584.00
170141000918782798866653488190622531584.00
170141000918782798866653488190622531584.00
170141000918782798866653488190622531584.00
170141000918782798866653488190622531584.00
170141000918782798866653488190622531584.00
170141000918782798866653488190622531584.00
170141000918782798866653488190622531584.00
170141000918782798866653488190622531584.00
170141000918782798866653488190622531584.00
170141000918782798866653488190622531584.00
170141000918782798866653488190622531584.00
170141000918782798866653488190622531584.00
170141000918782798866653488190622531584.00
170141000918782798866653488190622531584.00
170141000918782798866653488190622531584.00
170141000918782798866653488190622531584.00
170141000918782798866653488190622531584.00
170141000918782798866653488190622531584.00
170141000918782798866653488190622531584.00
170141000918782798866653488190622531584.00
170141000918782798866653488190622531584.00
170141000918782798866653488190622531584.00
170141000918782798866653488190622531584.00
170141000918782798866653488190622531584.00
170141000918782798866653488190622531584.00
170141000918782798866653488190622531584.00
170141000918782798866653488190622531584.00
170141000918782798866653488190622531584.00
170141000918782798866653488190622531584.00
170141000918782798866653488190622531584.00
170141000918782798866653488190622531584.00
170141000918782798866653488190622531584.00
170141000918782798866653488190622531584.00
170141000918782798866653488190622531584.00
170141000918782798866653488190622531584.00
170141000918782798866653488190622531584.00
170141000918782798866653488190622531584.00
170141000918782798866653488190622531584.00
170141000918782798866653488190622531584.00
170141000918782798866653488190622531584.00
170141000918782798866653488190622531584.00
170141000918782798866653488190622531584.00
170141000918782798866653488190622531584.00
170141000918782798866653488190622531584.00
170141000918782798866653488190622531584.00
170141000918782798866653488190622531584.00
170141000918782798866653488190622531584.00
170141000918782798866653488190622531584.00
170141000918782798866653488190622531584.00
170141000918782798866653488190622531584.00
170141000918782798866653488190622531584.00
170141000918782798866653488190622531584.00
170141000918782798866653488190622531584.00
170141000918782798866653488190622531584.00
170141000918782798866653488190622531584.00
170141000918782798866653488190622531584.00
170141000918782798866653488190622531584.00
170141000918782798866653488190622531584.00
170141000918782798866653488190622531584.00
170141000918782798866653488190622531584.00
170141000918782798866653488190622531584.00
170141000918782798866653488190622531584.00
170141000918782798866653488190622531584.00
170141000918782798866653488190622531584.00
170141000918782798866653488190622531584.00
170141000918782798866653488190622531584.00
170141000918782798866653488190622531584.00
170141000918782798866653488190622531584.00
170141000918782798866653488190622531584.00
170141000918782798866653488190622531584.00
170141000918782798866653488190622531584.00
170141000918782798866653488190622531584.00
170141000918782798866653488190622531584.00
170141000918782798866653488190622531584.00
170141000918782798866653488190622531584.00
170141000918782798866653488190622531584.00
170141000918782798866653488190622531584.00
170141000918782798866653488190622531584.00
170141000918782798866653488190622531584.00
170141000918782798866653488190622531584.00
170141000918782798866653488190622531584.00
170141000918782798866653488190622531584.00
170141000918782798866653488190622531584.00
170141000918782798866653488190622531584.00
170141000918782798866653488190622531584.00
170141000918782798866653488190622531584.00
170141000918782798866653488190622531584.00
170141000918782798866653488190622531584.00
170141000918782798866653488190622531584.00
170141000918782798866653488190622531584.00
170141000918782798866653488190622531584.00
170141000918782798866653488190622531584.00
170141000918782798866653488190622531584.00
170141000918782798866653488190622531584.00
170141000918782798866653488190622531584.00
170141000918782798866653488190622531584.00
170141000918782798866653488190622531584.00
170141000918782798866653488190622531584.00
170141000918782798866653488190622531584.00
170141000918782798866653488190622531584.00
170141000918782798866653488190622531584.00
170141000918782798866653488190622531584.00
170141000918782798866653488190622531584.00
170141000918782798866653488190622531584.00
170141000918782798866653488190622531584.00
170141000918782798866653488190622531584.00
170141000918782798866653488190622531584.00
170141000918782798866653488190622531584.00
170141000918782798866653488190622531584.00
170141000918782798866653488190622531584.00
170141000918782798866653488190622531584.00
170141000918782798866653488190622531584.00
170141000918782798866653488190622531584.00
170141000918782798866653488190622531584.00
170141000918782798866653488190622531584.00
170141000918782798866653488190622531584.00
170141000918782798866653488190622531584.00
170141000918782798866653488190622531584.00
170141000918782798866653488190622531584.00
170141000918782798866653488190622531584.00
170141000918782798866653488190622531584.00
170141000918782798866653488190622531584.00
170141000918782798866653488190622531584.00
170141000918782798866653488190622531584.00
170141000918782798866653488190622531584.00
170141000918782798866653488190622531584.00
170141000918782798866653488190622531584.00
170141000918782798866653488190622531584.00
170141000918782798866653488190622531584.00
170141000918782798866653488190622531584.00
170141000918782798866653488190622531584.00
170141000918782798866653488190622531584.00
170141000918782798866653488190622531584.00
170141000918782798866653488190622531584.00
170141000918782798866653488190622531584.00
170141000918782798866653488190622531584.00
170141000918782798866653488190622531584.00
170141000918782798866653488190622531584.00
170141000918782798866653488190622531584.00
170141000918782798866653488190622531584.00
170141000918782798866653488190622531584.00
170141000918782798866653488190622531584.00
170141000918782798866653488190622531584.00
170141000918782798866653488190622531584.00
170141000918782798866653488190622531584.00
170141000918782798866653488190622531584.00
170141000918782798866653488190622531584.00
170141000918782798866653488190622531584.00
170141000918782798866653488190622531584.00
170141000918782798866653488190622531584.00
170141000918782798866653488190622531584.00
170141000918782798866653488190622531584.00
170141000918782798866653488190622531584.00
170141000918782798866653488190622531584.00
170141000918782798866653488190622531584.00
170141000918782798866653488190622531584.00
170141000918782798866653488190622531584.00
170141000918782798866653488190622531584.00
170141000918782798866653488190622531584.00
170141000918782798866653488190622531584.00
170141000918782798866653488190622531584.00
170141000918782798866653488190622531584.00
170141000918782798866653488190622531584.00
170141000918782798866653488190622531584.00
170141000918782798866653488190622531584.00
170141000918782798866653488190622531584.00
170141000918782798866653488190622531584.00
170141000918782798866653488190622531584.00
170141000918782798866653488190622531584.00
170141000918782798866653488190622531584.00
170141000918782798866653488190622531584.00
170141000918782798866653488190622531584.00
170141000918782798866653488190622531584.00
170141000918782798866653488190622531584.00
170141000918782798866653488190622531584.00
170141000918782798866653488190622531584.00
170141000918782798866653488190622531584.00
170141000918782798866653488190622531584.00
170141000918782798866653488190622531584.00
170141000918782798866653488190622531584.00
170141000918782798866653488190622531584.00
170141000918782798866653488190622531584.00
170141000918782798866653488190622531584.00
170141000918782798866653488190622531584.00
170141000918782798866653488190622531584.00
170141000918782798866653488190622531584.00
170141000918782798866653488190622531584.00
170141000918782798866653488190622531584.00
170141000918782798866653488190622531584.00
170141000918782798866653488190622531584.00
170141000918782798866653488190622531584.00
170141000918782798866653488190622531584.00
170141000918782798866653488190622531584.00
170141000918782798866653488190622531584.00
170141000918782798866653488190622531584.00
170141000918782798866653488190622531584.00
170141000918782798866653488190622531584.00
170141000918782798866653488190622531584.00
170141000918782798866653488190622531584.00
170141000918782798866653488190622531584.00
170141000918782798866653488190622531584.00
170141000918782798866653488190622531584.00
170141000918782798866653488190622531584.00
170141000918782798866653488190622531584.00
170141000918782798866653488190622531584.00
170141000918782798866653488190622531584.00
170141000918782798866653488190622531584.00
170141000918782798866653488190622531584.00
170141000918782798866653488190622531584.00
170141000918782798866653488190622531584.00
170141000918782798866653488190622531584.00
170141000918782798866653488190622531584.00
170141000918782798866653488190622531584.00
170141000918782798866653488190622531584.00
170141000918782798866653488190622531584.00
170141000918782798866653488190622531584.00
170141000918782798866653488190622531584.00
170141000918782798866653488190622531584.00
170141000918782798866653488190622531584.00
170141000918782798866653488190622531584.00
170141000918782798866653488190622531584.00
170141000918782798866653488190622531584.00
170141000918782798866653488190622531584.00
170141000918782798866653488190622531584.00
170141000918782798866653488190622531584.00
170141000918782798866653488190622531584.00
170141000918782798866653488190622531584.00
170141000918782798866653488190622531584.00
170141000918782798866653488190622531584.00
170141000918782798866653488190622531584.00
170141000918782798866653488190622531584.00
170141000918782798866653488190622531584.00
170141000918782798866653488190622531584.00
170141000918782798866653488190622531584.00
170141000918782798866653488190622531584.00
170141000918782798866653488190622531584.00
170141000918782798866653488190622531584.00
170141000918782798866653488190622531584.00
170141000918782798866653488190622531584.00
170141000918782798866653488190622531584.00
170141000918782798866653488190622531584.00
170141000918782798866653488190622531584.00
170141000918782798866653488190622531584.00
170141000918782798866653488190622531584.00
170141000918782798866653488190622531584.00
170141000918782798866653488190622531584.00
170141000918782798866653488190622531584.00
170141000918782798866653488190622531584.00
170141000918782798866653488190622531584.00
170141000918782798866653488190622531584.00
170141000918782798866653488190622531584.00
170141000918782798866653488190622531584.00
170141000918782798866653488190622531584.00
170141000918782798866653488190622531584.00
170141000918782798866653488190622531584.00
170141000918782798866653488190622531584.00
170141000918782798866653488190622531584.00
170141000918782798866653488190622531584.00
170141000918782798866653488190622531584.00
170141000918782798866653488190622531584.00
170141000918782798866653488190622531584.00
170141000918782798866653488190622531584.00
170141000918782798866653488190622531584.00
170141000918782798866653488190622531584.00
170141000918782798866653488190622531584.00
170141000918782798866653488190622531584.00
170141000918782798866653488190622531584.00
170141000918782798866653488190622531584.00
170141000918782798866653488190622531584.00
170141000918782798866653488190622531584.00
170141000918782798866653488190622531584.00
170141000918782798866653488190622531584.00
170141000918782798866653488190622531584.00
170141000918782798866653488190622531584.00
170141000918782798866653488190622531584.00
170141000918782798866653488190622531584.00
170141000918782798866653488190622531584.00
170141000918782798866653488190622531584.00
170141000918782798866653488190622531584.00
170141000918782798866653488190622531584.00
170141000918782798866653488190622531584.00
170141000918782798866653488190622531584.00
170141000918782798866653488190622531584.00
170141000918782798866653488190622531584.00
170141000918782798866653488190622531584.00
170141000918782798866653488190622531584.00
170141000918782798866653488190622531584.00
170141000918782798866653488190622531584.00
170141000918782798866653488190622531584.00
170141000918782798866653488190622531584.00
170141000918782798866653488190622531584.00
170141000918782798866653488190622531584.00
170141000918782798866653488190622531584.00
170141000918782798866653488190622531584.00
170141000918782798866653488190622531584.00
170141000918782798866653488190622531584.00
170141000918782798866653488190622531584.00
170141000918782798866653488190622531584.00
170141000918782798866653488190622531584.00
170141000918782798866653488190622531584.00
170141000918782798866653488190622531584.00
170141000918782798866653488190622531584.00
170141000918782798866653488190622531584.00
170141000918782798866653488190622531584.00
170141000918782798866653488190622531584.00
170141000918782798866653488190622531584.00
170141000918782798866653488190622531584.00
170141000918782798866653488190622531584.00
170141000918782798866653488190622531584.00
170141000918782798866653488190622531584.00
170141000918782798866653488190622531584.00
170141000918782798866653488190622531584.00
170141000918782798866653488190622531584.00
170141000918782798866653488190622531584.00
170141000918782798866653488190622531584.00
170141000918782798866653488190622531584.00
170141000918782798866653488190622531584.00
170141000918782798866653488190622531584.00
170141000918782798866653488190622531584.00
170141000918782798866653488190622531584.00
170141000918782798866653488190622531584.00
170141000918782798866653488190622531584.00
170141000918782798866653488190622531584.00
170141000918782798866653488190622531584.00
170141000918782798866653488190622531584.00
170141000918782798866653488190622531584.00
170141000918782798866653488190622531584.00
170141000918782798866653488190622531584.00
170141000918782798866653488190622531584.00
170141000918782798866653488190622531584.00
170141000918782798866653488190622531584.00
170141000918782798866653488190622531584.00
170141000918782798866653488190622531584.00
170141000918782798866653488190622531584.00
170141000918782798866653488190622531584.00
170141000918782798866653488190622531584.00
170141000918782798866653488190622531584.00
170141000918782798866653488190622531584.00
170141000918782798866653488190622531584.00
170141000918782798866653488190622531584.00
170141000918782798866653488190622531584.00
170141000918782798866653488190622531584.00
170141000918782798866653488190622531584.00
170141000918782798866653488190622531584.00
170141000918782798866653488190622531584.00
170141000918782798866653488190622531584.00
170141000918782798866653488190622531584.00
170141000918782798866653488190622531584.00
170141000918782798866653488190622531584.00
170141000918782798866653488190622531584.00
170141000918782798866653488190622531584.00
170141000918782798866653488190622531584.00
170141000918782798866653488190622531584.00
170141000918782798866653488190622531584.00
170141000918782798866653488190622531584.00
170141000918782798866653488190622531584.00
170141000918782798866653488190622531584.00
170141000918782798866653488190622531584.00
170141000918782798866653488190622531584.00
170141000918782798866653488190622531584.00
170141000918782798866653488190622531584.00
170141000918782798866653488190622531584.00
170141000918782798866653488190622531584.00
170141000918782798866653488190622531584.00
170141000918782798866653488190622531584.00
170141000918782798866653488190622531584.00
170141000918782798866653488190622531584.00
170141000918782798866653488190622531584.00
170141000918782798866653488190622531584.00
170141000918782798866653488190622531584.00
170141000918782798866653488190622531584.00
170141000918782798866653488190622531584.00
170141000918782798866653488190622531584.00
170141000918782798866653488190622531584.00
170141000918782798866653488190622531584.00
170141000918782798866653488190622531584.00
170141000918782798866653488190622531584.00
170141000918782798866653488190622531584.00
170141000918782798866653488190622531584.00
170141000918782798866653488190622531584.00
170141000918782798866653488190622531584.00
170141000918782798866653488190622531584.00
170141000918782798866653488190622531584.00
170141000918782798866653488190622531584.00
170141000918782798866653488190622531584.00
170141000918782798866653488190622531584.00
170141000918782798866653488190622531584.00
170141000918782798866653488190622531584.00
170141000918782798866653488190622531584.00
170141000918782798866653488190622531584.00
170141000918782798866653488190622531584.00
170141000918782798866653488190622531584.00
170141000918782798866653488190622531584.00
170141000918782798866653488190622531584.00
170141000918782798866653488190622531584.00
170141000918782798866653488190622531584.00
170141000918782798866653488190622531584.00
170141000918782798866653488190622531584.00
170141000918782798866653488190622531584.00
170141000918782798866653488190622531584.00
170141000918782798866653488190622531584.00
170141000918782798866653488190622531584.00
170141000918782798866653488190622531584.00
170141000918782798866653488190622531584.00
170141000918782798866653488190622531584.00
170141000918782798866653488190622531584.00
170141000918782798866653488190622531584.00
170141000918782798866653488190622531584.00
170141000918782798866653488190622531584.00
170141000918782798866653488190622531584.00
170141000918782798866653488190622531584.00
170141000918782798866653488190622531584.00
170141000918782798866653488190622531584.00
170141000918782798866653488190622531584.00
170141000918782798866653488190622531584.00
170141000918782798866653488190622531584.00
170141000918782798866653488190622531584.00
170141000918782798866653488190622531584.00
170141000918782798866653488190622531584.00
170141000918782798866653488190622531584.00
170141000918782798866653488190622531584.00
170141000918782798866653488190622531584.00
170141000918782798866653488190622531584.00
170141000918782798866653488190622531584.00
170141000918782798866653488190622531584.00
170141000918782798866653488190622531584.00
170141000918782798866653488190622531584.00
170141000918782798866653488190622531584.00
170141000918782798866653488190622531584.00
170141000918782798866653488190622531584.00
170141000918782798866653488190622531584.00
170141000918782798866653488190622531584.00
170141000918782798866653488190622531584.00
170141000918782798866653488190622531584.00
170141000918782798866653488190622531584.00
170141000918782798866653488190622531584.00
170141000918782798866653488190622531584.00
170141000918782798866653488190622531584.00
170141000918782798866653488190622531584.00
170141000918782798866653488190622531584.00
170141000918782798866653488190622531584.00
170141000918782798866653488190622531584.00
170141000918782798866653488190622531584.00
170141000918782798866653488190622531584.00
170141000918782798866653488190622531584.00
170141000918782798866653488190622531584.00
170141000918782798866653488190622531584.00
170141000918782798866653488190622531584.00
170141000918782798866653488190622531584.00
170141000918782798866653488190622531584.00
170141000918782798866653488190622531584.00
170141000918782798866653488190622531584.00
170141000918782798866653488190622531584.00
170141000918782798866653488190622531584.00
170141000918782798866653488190622531584.00
170141000918782798866653488190622531584.00
170141000918782798866653488190622531584.00
170141000918782798866653488190622531584.00
170141000918782798866653488190622531584.00
170141000918782798866653488190622531584.00
170141000918782798866653488190622531584.00
170141000918782798866653488190622531584.00
170141000918782798866653488190622531584.00
170141000918782798866653488190622531584.00
170141000918782798866653488190622531584.00
170141000918782798866653488190622531584.00
170141000918782798866653488190622531584.00
170141000918782798866653488190622531584.00
170141000918782798866653488190622531584.00
170141000918782798866653488190622531584.00
170141000918782798866653488190622531584.00
170141000918782798866653488190622531584.00
170141000918782798866653488190622531584.00
170141000918782798866653488190622531584.00
170141000918782798866653488190622531584.00
170141000918782798866653488190622531584.00
170141000918782798866653488190622531584.00
170141000918782798866653488190622531584.00
170141000918782798866653488190622531584.00
170141000918782798866653488190622531584.00
170141000918782798866653488190622531584.00
170141000918782798866653488190622531584.00
170141000918782798866653488190622531584.00
170141000918782798866653488190622531584.00
170141000918782798866653488190622531584.00
170141000918782798866653488190622531584.00
170141000918782798866653488190622531584.00
170141000918782798866653488190622531584.00
170141000918782798866653488190622531584.00
170141000918782798866653488190622531584.00
170141000918782798866653488190622531584.00
170141000918782798866653488190622531584.00
170141000918782798866653488190622531584.00
170141000918782798866653488190622531584.00
170141000918782798866653488190622531584.00
170141000918782798866653488190622531584.00
170141000918782798866653488190622531584.00
170141000918782798866653488190622531584.00
170141000918782798866653488190622531584.00
170141000918782798866653488190622531584.00
170141000918782798866653488190622531584.00
170141000918782798866653488190622531584.00
170141000918782798866653488190622531584.00
170141000918782798866653488190622531584.00
170141000918782798866653488190622531584.00
170141000918782798866653488190622531584.00
170141000918782798866653488190622531584.00
170141000918782798866653488190622531584.00
170141000918782798866653488190622531584.00
170141000918782798866653488190622531584.00
170141000918782798866653488190622531584.00
170141000918782798866653488190622531584.00
170141000918782798866653488190622531584.00
170141000918782798866653488190622531584.00
170141000918782798866653488190622531584.00
170141000918782798866653488190622531584.00
170141000918782798866653488190622531584.00
170141000918782798866653488190622531584.00
170141000918782798866653488190622531584.00
170141000918782798866653488190622531584.00
170141000918782798866653488190622531584.00
170141000918782798866653488190622531584.00
170141000918782798866653488190622531584.00
170141000918782798866653488190622531584.00
170141000918782798866653488190622531584.00
170141000918782798866653488190622531584.00
170141000918782798866653488190622531584.00
170141000918782798866653488190622531584.00
170141000918782798866653488190622531584.00
170141000918782798866653488190622531584.00
170141000918782798866653488190622531584.00
170141000918782798866653488190622531584.00
170141000918782798866653488190622531584.00
170141000918782798866653488190622531584.00
170141000918782798866653488190622531584.00
170141000918782798866653488190622531584.00
170141000918782798866653488190622531584.00
170141000918782798866653488190622531584.00
170141000918782798866653488190622531584.00
170141000918782798866653488190622531584.00
170141000918782798866653488190622531584.00
170141000918782798866653488190622531584.00
170141000918782798866653488190622531584.00
170141000918782798866653488190622531584.00
170141000918782798866653488190622531584.00
170141000918782798866653488190622531584.00
170141000918782798866653488190622531584.00
170141000918782798866653488190622531584.00
170141000918782798866653488190622531584.00
170141000918782798866653488190622531584.00
170141000918782798866653488190622531584.00
170141000918782798866653488190622531584.00
170141000918782798866653488190622531584.00
170141000918782798866653488190622531584.00
170141000918782798866653488190622531584.00
170141000918782798866653488190622531584.00
170141000918782798866653488190622531584.00
170141000918782798866653488190622531584.00
170141000918782798866653488190622531584.00
170141000918782798866653488190622531584.00
170141000918782798866653488190622531584.00
170141000918782798866653488190622531584.00
170141000918782798866653488190622531584.00
170141000918782798866653488190622531584.00
170141000918782798866653488190622531584.00
170141000918782798866653488190622531584.00
170141000918782798866653488190622531584.00
170141000918782798866653488190622531584.00
170141000918782798866653488190622531584.00
170141000918782798866653488190622531584.00
170141000918782798866653488190622531584.00
170141000918782798866653488190622531584.00
170141000918782798866653488190622531584.00
170141000918782798866653488190622531584.00
170141000918782798866653488190622531584.00
170141000918782798866653488190622531584.00
170141000918782798866653488190622531584.00
170141000918782798866653488190622531584.00
170141000918782798866653488190622531584.00
170141000918782798866653488190622531584.00
170141000918782798866653488190622531584.00
170141000918782798866653488190622531584.00
170141000918782798866653488190622531584.00
170141000918782798866653488190622531584.00
170141000918782798866653488190622531584.00
170141000918782798866653488190622531584.00
170141000918782798866653488190622531584.00
170141000918782798866653488190622531584.00
170141000918782798866653488190622531584.00
170141000918782798866653488190622531584.00
170141000918782798866653488190622531584.00
170141000918782798866653488190622531584.00
170141000918782798866653488190622531584.00
170141000918782798866653488190622531584.00
170141000918782798866653488190622531584.00
170141000918782798866653488190622531584.00
170141000918782798866653488190622531584.00
170141000918782798866653488190622531584.00
170141000918782798866653488190622531584.00
170141000918782798866653488190622531584.00
170141000918782798866653488190622531584.00
170141000918782798866653488190622531584.00
170141000918782798866653488190622531584.00
170141000918782798866653488190622531584.00
170141000918782798866653488190622531584.00
170141000918782798866653488190622531584.00
170141000918782798866653488190622531584.00
170141000918782798866653488190622531584.00
170141000918782798866653488190622531584.00
170141000918782798866653488190622531584.00
170141000918782798866653488190622531584.00
170141000918782798866653488190622531584.00
170141000918782798866653488190622531584.00
170141000918782798866653488190622531584.00
170141000918782798866653488190622531584.00
170141000918782798866653488190622531584.00
170141000918782798866653488190622531584.00
170141000918782798866653488190622531584.00
170141000918782798866653488190622531584.00
170141000918782798866653488190622531584.00
170141000918782798866653488190622531584.00
170141000918782798866653488190622531584.00
170141000918782798866653488190622531584.00
170141000918782798866653488190622531584.00
170141000918782798866653488190622531584.00
170141000918782798866653488190622531584.00
170141000918782798866653488190622531584.00
170141000918782798866653488190622531584.00
170141000918782798866653488190622531584.00
170141000918782798866653488190622531584.00
170141000918782798866653488190622531584.00
170141000918782798866653488190622531584.00
170141000918782798866653488190622531584.00
170141000918782798866653488190622531584.00
170141000918782798866653488190622531584.00
170141000918782798866653488190622531584.00
170141000918782798866653488190622531584.00
170141000918782798866653488190622531584.00
170141000918782798866653488190622531584.00
170141000918782798866653488190622531584.00
170141000918782798866653488190622531584.00
170141000918782798866653488190622531584.00
170141000918782798866653488190622531584.00
170141000918782798866653488190622531584.00
170141000918782798866653488190622531584.00
170141000918782798866653488190622531584.00
170141000918782798866653488190622531584.00
170141000918782798866653488190622531584.00
170141000918782798866653488190622531584.00
170141000918782798866653488190622531584.00
170141000918782798866653488190622531584.00
170141000918782798866653488190622531584.00
170141000918782798866653488190622531584.00
170141000918782798866653488190622531584.00
170141000918782798866653488190622531584.00
170141000918782798866653488190622531584.00
170141000918782798866653488190622531584.00
170141000918782798866653488190622531584.00
170141000918782798866653488190622531584.00
170141000918782798866653488190622531584.00
170141000918782798866653488190622531584.00
170141000918782798866653488190622531584.00
170141000918782798866653488190622531584.00
170141000918782798866653488190622531584.00
170141000918782798866653488190622531584.00
170141000918782798866653488190622531584.00
170141000918782798866653488190622531584.00
170141000918782798866653488190622531584.00
170141000918782798866653488190622531584.00
170141000918782798866653488190622531584.00
170141000918782798866653488190622531584.00
170141000918782798866653488190622531584.00
170141000918782798866653488190622531584.00
170141000918782798866653488190622531584.00
170141000918782798866653488190622531584.00
170141000918782798866653488190622531584.00
170141000918782798866653488190622531584.00
170141000918782798866653488190622531584.00
170141000918782798866653488190622531584.00
170141000918782798866653488190622531584.00
170141000918782798866653488190622531584.00
170141000918782798866653488190622531584.00
170141000918782798866653488190622531584.00
170141000918782798866653488190622531584.00
170141000918782798866653488190622531584.00
170141000918782798866653488190622531584.00
170141000918782798866653488190622531584.00
170141000918782798866653488190622531584.00
170141000918782798866653488190622531584.00
170141000918782798866653488190622531584.00
170141000918782798866653488190622531584.00
170141000918782798866653488190622531584.00
170141000918782798866653488190622531584.00
170141000918782798866653488190622531584.00
170141000918782798866653488190622531584.00
170141000918782798866653488190622531584.00
170141000918782798866653488190622531584.00
170141000918782798866653488190622531584.00
170141000918782798866653488190622531584.00
170141000918782798866653488190622531584.00
170141000918782798866653488190622531584.00
170141000918782798866653488190622531584.00
170141000918782798866653488190622531584.00
170141000918782798866653488190622531584.00
170141000918782798866653488190622531584.00
170141000918782798866653488190622531584.00
170141000918782798866653488190622531584.00
170141000918782798866653488190622531584.00
170141000918782798866653488190622531584.00
170141000918782798866653488190622531584.00
170141000918782798866653488190622531584.00
170141000918782798866653488190622531584.00
170141000918782798866653488190622531584.00
170141000918782798866653488190622531584.00
170141000918782798866653488190622531584.00
170141000918782798866653488190622531584.00
170141000918782798866653488190622531584.00
170141000918782798866653488190622531584.00
170141000918782798866653488190622531584.00
170141000918782798866653488190622531584.00
170141000918782798866653488190622531584.00
170141000918782798866653488190622531584.00
170141000918782798866653488190622531584.00
170141000918782798866653488190622531584.00
170141000918782798866653488190622531584.00
170141000918782798866653488190622531584.00
170141000918782798866653488190622531584.00
170141000918782798866653488190622531584.00
170141000918782798866653488190622531584.00
170141000918782798866653488190622531584.00
170141000918782798866653488190622531584.00
170141000918782798866653488190622531584.00
170141000918782798866653488190622531584.00
170141000918782798866653488190622531584.00
170141000918782798866653488190622531584.00
170141000918782798866653488190622531584.00
170141000918782798866653488190622531584.00
170141000918782798866653488190622531584.00
170141000918782798866653488190622531584.00
170141000918782798866653488190622531584.00
170141000918782798866653488190622531584.00
170141000918782798866653488190622531584.00
170141000918782798866653488190622531584.00
170141000918782798866653488190622531584.00
170141000918782798866653488190622531584.00
170141000918782798866653488190622531584.00
170141000918782798866653488190622531584.00
170141000918782798866653488190622531584.00
170141000918782798866653488190622531584.00
170141000918782798866653488190622531584.00
170141000918782798866653488190622531584.00
170141000918782798866653488190622531584.00
170141000918782798866653488190622531584.00
170141000918782798866653488190622531584.00
170141000918782798866653488190622531584.00
170141000918782798866653488190622531584.00
170141000918782798866653488190622531584.00
170141000918782798866653488190622531584.00
170141000918782798866653488190622531584.00
170141000918782798866653488190622531584.00
170141000918782798866653488190622531584.00
170141000918782798866653488190622531584.00
170141000918782798866653488190622531584.00
170141000918782798866653488190622531584.00
170141000918782798866653488190622531584.00
170141000918782798866653488190622531584.00
170141000918782798866653488190622531584.00
170141000918782798866653488190622531584.00
170141000918782798866653488190622531584.00
170141000918782798866653488190622531584.00
170141000918782798866653488190622531584.00
170141000918782798866653488190622531584.00
170141000918782798866653488190622531584.00
170141000918782798866653488190622531584.00
170141000918782798866653488190622531584.00
170141000918782798866653488190622531584.00
170141000918782798866653488190622531584.00
170141000918782798866653488190622531584.00
170141000918782798866653488190622531584.00
170141000918782798866653488190622531584.00
170141000918782798866653488190622531584.00
170141000918782798866653488190622531584.00
170141000918782798866653488190622531584.00
170141000918782798866653488190622531584.00
170141000918782798866653488190622531584.00
170141000918782798866653488190622531584.00
170141000918782798866653488190622531584.00
170141000918782798866653488190622531584.00
170141000918782798866653488190622531584.00
170141000918782798866653488190622531584.00
170141000918782798866653488190622531584.00
170141000918782798866653488190622531584.00
170141000918782798866653488190622531584.00
170141000918782798866653488190622531584.00
170141000918782798866653488190622531584.00
170141000918782798866653488190622531584.00
170141000918782798866653488190622531584.00
170141000918782798866653488190622531584.00
170141000918782798866653488190622531584.00
170141000918782798866653488190622531584.00
170141000918782798866653488190622531584.00
170141000918782798866653488190622531584.00
170141000918782798866653488190622531584.00
170141000918782798866653488190622531584.00
170141000918782798866653488190622531584.00
170141000918782798866653488190622531584.00
170141000918782798866653488190622531584.00
170141000918782798866653488190622531584.00
170141000918782798866653488190622531584.00
170141000918782798866653488190622531584.00
170141000918782798866653488190622531584.00
170141000918782798866653488190622531584.00
170141000918782798866653488190622531584.00
170141000918782798866653488190622531584.00
170141000918782798866653488190622531584.00
170141000918782798866653488190622531584.00
170141000918782798866653488190622531584.00
170141000918782798866653488190622531584.00
170141000918782798866653488190622531584.00
170141000918782798866653488190622531584.00
170141000918782798866653488190622531584.00
170141000918782798866653488190622531584.00
170141000918782798866653488190622531584.00
170141000918782798866653488190622531584.00
170141000918782798866653488190622531584.00
170141000918782798866653488190622531584.00
170141000918782798866653488190622531584.00
170141000918782798866653488190622531584.00
170141000918782798866653488190622531584.00
170141000918782798866653488190622531584.00
170141000918782798866653488190622531584.00
170141000918782798866653488190622531584.00
170141000918782798866653488190622531584.00
170141000918782798866653488190622531584.00
170141000918782798866653488190622531584.00
170141000918782798866653488190622531584.00
170141000918782798866653488190622531584.00
170141000918782798866653488190622531584.00
170141000918782798866653488190622531584.00
170141000918782798866653488190622531584.00
170141000918782798866653488190622531584.00
170141000918782798866653488190622531584.00
170141000918782798866653488190622531584.00
170141000918782798866653488190622531584.00
170141000918782798866653488190622531584.00
170141000918782798866653488190622531584.00
170141000918782798866653488190622531584.00
170141000918782798866653488190622531584.00
170141000918782798866653488190622531584.00
170141000918782798866653488190622531584.00
170141000918782798866653488190622531584.00
170141000918782798866653488190622531584.00
170141000918782798866653488190622531584.00
170141000918782798866653488190622531584.00
170141000918782798866653488190622531584.00
170141000918782798866653488190622531584.00
170141000918782798866653488190622531584.00
170141000918782798866653488190622531584.00
170141000918782798866653488190622531584.00
170141000918782798866653488190622531584.00
170141000918782798866653488190622531584.00
170141000918782798866653488190622531584.00
170141000918782798866653488190622531584.00
170141000918782798866653488190622531584.00
170141000918782798866653488190622531584.00
170141000918782798866653488190622531584.00
170141000918782798866653488190622531584.00
170141000918782798866653488190622531584.00
170141000918782798866653488190622531584.00
170141000918782798866653488190622531584.00
170141000918782798866653488190622531584.00
170141000918782798866653488190622531584.00
170141000918782798866653488190622531584.00
170141000918782798866653488190622531584.00
170141000918782798866653488190622531584.00
170141000918782798866653488190622531584.00
170141000918782798866653488190622531584.00
170141000918782798866653488190622531584.00
170141000918782798866653488190622531584.00
170141000918782798866653488190622531584.00
170141000918782798866653488190622531584.00
170141000918782798866653488190622531584.00
170141000918782798866653488190622531584.00
170141000918782798866653488190622531584.00
170141000918782798866653488190622531584.00
170141000918782798866653488190622531584.00
170141000918782798866653488190622531584.00
170141000918782798866653488190622531584.00
170141000918782798866653488190622531584.00
170141000918782798866653488190622531584.00
170141000918782798866653488190622531584.00
170141000918782798866653488190622531584.00
170141000918782798866653488190622531584.00
170141000918782798866653488190622531584.00
170141000918782798866653488190622531584.00
170141000918782798866653488190622531584.00
170141000918782798866653488190622531584.00
170141000918782798866653488190622531584.00
170141000918782798866653488190622531584.00
170141000918782798866653488190622531584.00
170141000918782798866653488190622531584.00
170141000918782798866653488190622531584.00
170141000918782798866653488190622531584.00
170141000918782798866653488190622531584.00
170141000918782798866653488190622531584.00
170141000918782798866653488190622531584.00
170141000918782798866653488190622531584.00
170141000918782798866653488190622531584.00
170141000918782798866653488190622531584.00
170141000918782798866653488190622531584.00
170141000918782798866653488190622531584.00
170141000918782798866653488190622531584.00
170141000918782798866653488190622531584.00
170141000918782798866653488190622531584.00
170141000918782798866653488190622531584.00
170141000918782798866653488190622531584.00
170141000918782798866653488190622531584.00
170141000918782798866653488190622531584.00
170141000918782798866653488190622531584.00
170141000918782798866653488190622531584.00
170141000918782798866653488190622531584.00
170141000918782798866653488190622531584.00
170141000918782798866653488190622531584.00
170141000918782798866653488190622531584.00
170141000918782798866653488190622531584.00
170141000918782798866653488190622531584.00
170141000918782798866653488190622531584.00
170141000918782798866653488190622531584.00
170141000918782798866653488190622531584.00
170141000918782798866653488190622531584.00
170141000918782798866653488190622531584.00
170141000918782798866653488190622531584.00
170141000918782798866653488190622531584.00
170141000918782798866653488190622531584.00
170141000918782798866653488190622531584.00
170141000918782798866653488190622531584.00
170141000918782798866653488190622531584.00
170141000918782798866653488190622531584.00
170141000918782798866653488190622531584.00
170141000918782798866653488190622531584.00
170141000918782798866653488190622531584.00
170141000918782798866653488190622531584.00
170141000918782798866653488190622531584.00
170141000918782798866653488190622531584.00
170141000918782798866653488190622531584.00
170141000918782798866653488190622531584.00
170141000918782798866653488190622531584.00
170141000918782798866653488190622531584.00
170141000918782798866653488190622531584.00
170141000918782798866653488190622531584.00
170141000918782798866653488190622531584.00
170141000918782798866653488190622531584.00
170141000918782798866653488190622531584.00
170141000918782798866653488190622531584.00
170141000918782798866653488190622531584.00
170141000918782798866653488190622531584.00
170141000918782798866653488190622531584.00
170141000918782798866653488190622531584.00
170141000918782798866653488190622531584.00
170141000918782798866653488190622531584.00
170141000918782798866653488190622531584.00
170141000918782798866653488190622531584.00
170141000918782798866653488190622531584.00
170141000918782798866653488190622531584.00
170141000918782798866653488190622531584.00
170141000918782798866653488190622531584.00
170141000918782798866653488190622531584.00
170141000918782798866653488190622531584.00
170141000918782798866653488190622531584.00
170141000918782798866653488190622531584.00
170141000918782798866653488190622531584.00
170141000918782798866653488190622531584.00
170141000918782798866653488190622531584.00
170141000918782798866653488190622531584.00
170141000918782798866653488190622531584.00
170141000918782798866653488190622531584.00
170141000918782798866653488190622531584.00
170141000918782798866653488190622531584.00
170141000918782798866653488190622531584.00
170141000918782798866653488190622531584.00
170141000918782798866653488190622531584.00
170141000918782798866653488190622531584.00
170141000918782798866653488190622531584.00
170141000918782798866653488190622531584.00
170141000918782798866653488190622531584.00
170141000918782798866653488190622531584.00
170141000918782798866653488190622531584.00
170141000918782798866653488190622531584.00
170141000918782798866653488190622531584.00
170141000918782798866653488190622531584.00
170141000918782798866653488190622531584.00
170141000918782798866653488190622531584.00
170141000918782798866653488190622531584.00
170141000918782798866653488190622531584.00
170141000918782798866653488190622531584.00
170141000918782798866653488190622531584.00
170141000918782798866653488190622531584.00
170141000918782798866653488190622531584.00
170141000918782798866653488190622531584.00
170141000918782798866653488190622531584.00
170141000918782798866653488190622531584.00
170141000918782798866653488190622531584.00
170141000918782798866653488190622531584.00
170141000918782798866653488190622531584.00
170141000918782798866653488190622531584.00
170141000918782798866653488190622531584.00
170141000918782798866653488190622531584.00
170141000918782798866653488190622531584.00
170141000918782798866653488190622531584.00
170141000918782798866653488190622531584.00
170141000918782798866653488190622531584.00
170141000918782798866653488190622531584.00
170141000918782798866653488190622531584.00
170141000918782798866653488190622531584.00
170141000918782798866653488190622531584.00
170141000918782798866653488190622531584.00
170141000918782798866653488190622531584.00
170141000918782798866653488190622531584.00
170141000918782798866653488190622531584.00
170141000918782798866653488190622531584.00
170141000918782798866653488190622531584.00
170141000918782798866653488190622531584.00
170141000918782798866653488190622531584.00
170141000918782798866653488190622531584.00
170141000918782798866653488190622531584.00
170141000918782798866653488190622531584.00
170141000918782798866653488190622531584.00
170141000918782798866653488190622531584.00
170141000918782798866653488190622531584.00
170141000918782798866653488190622531584.00
170141000918782798866653488190622531584.00
170141000918782798866653488190622531584.00
170141000918782798866653488190622531584.00
170141000918782798866653488190622531584.00
170141000918782798866653488190622531584.00
170141000918782798866653488190622531584.00
170141000918782798866653488190622531584.00
170141000918782798866653488190622531584.00
170141000918782798866653488190622531584.00
170141000918782798866653488190622531584.00
170141000918782798866653488190622531584.00
170141000918782798866653488190622531584.00
170141000918782798866653488190622531584.00
170141000918782798866653488190622531584.00
170141000918782798866653488190622531584.00
170141000918782798866653488190622531584.00
170141000918782798866653488190622531584.00
170141000918782798866653488190622531584.00
170141000918782798866653488190622531584.00
170141000918782798866653488190622531584.00
170141000918782798866653488190622531584.00
170141000918782798866653488190622531584.00
170141000918782798866653488190622531584.00
170141000918782798866653488190622531584.00
170141000918782798866653488190622531584.00
170141000918782798866653488190622531584.00
170141000918782798866653488190622531584.00
170141000918782798866653488190622531584.00
170141000918782798866653488190622531584.00
170141000918782798866653488190622531584.00
170141000918782798866653488190622531584.00
170141000918782798866653488190622531584.00
170141000918782798866653488190622531584.00
170141000918782798866653488190622531584.00
170141000918782798866653488190622531584.00
170141000918782798866653488190622531584.00
170141000918782798866653488190622531584.00
170141000918782798866653488190622531584.00
170141000918782798866653488190622531584.00
170141000918782798866653488190622531584.00
170141000918782798866653488190622531584.00
170141000918782798866653488190622531584.00
170141000918782798866653488190622531584.00
170141000918782798866653488190622531584.00
170141000918782798866653488190622531584.00
170141000918782798866653488190622531584.00
170141000918782798866653488190622531584.00
170141000918782798866653488190622531584.00
170141000918782798866653488190622531584.00
170141000918782798866653488190622531584.00
170141000918782798866653488190622531584.00
170141000918782798866653488190622531584.00
170141000918782798866653488190622531584.00
170141000918782798866653488190622531584.00
170141000918782798866653488190622531584.00
170141000918782798866653488190622531584.00
170141000918782798866653488190622531584.00
170141000918782798866653488190622531584.00
170141000918782798866653488190622531584.00
170141000918782798866653488190622531584.00
170141000918782798866653488190622531584.00
170141000918782798866653488190622531584.00
170141000918782798866653488190622531584.00
170141000918782798866653488190622531584.00
170141000918782798866653488190622531584.00
170141000918782798866653488190622531584.00
170141000918782798866653488190622531584.00
170141000918782798866653488190622531584.00
170141000918782798866653488190622531584.00
170141000918782798866653488190622531584.00
170141000918782798866653488190622531584.00
170141000918782798866653488190622531584.00
170141000918782798866653488190622531584.00
170141000918782798866653488190622531584.00
170141000918782798866653488190622531584.00
170141000918782798866653488190622531584.00
170141000918782798866653488190622531584.00
170141000918782798866653488190622531584.00
170141000918782798866653488190622531584.00
170141000918782798866653488190622531584.00
170141000918782798866653488190622531584.00
170141000918782798866653488190622531584.00
170141000918782798866653488190622531584.00
170141000918782798866653488190622531584.00
170141000918782798866653488190622531584.00
170141000918782798866653488190622531584.00
170141000918782798866653488190622531584.00
170141000918782798866653488190622531584.00
170141000918782798866653488190622531584.00
170141000918782798866653488190622531584.00
170141000918782798866653488190622531584.00
170141000918782798866653488190622531584.00
170141000918782798866653488190622531584.00
170141000918782798866653488190622531584.00
170141000918782798866653488190622531584.00
170141000918782798866653488190622531584.00
170141000918782798866653488190622531584.00
170141000918782798866653488190622531584.00
170141000918782798866653488190622531584.00
170141000918782798866653488190622531584.00
170141000918782798866653488190622531584.00
170141000918782798866653488190622531584.00
170141000918782798866653488190622531584.00
170141000918782798866653488190622531584.00
170141000918782798866653488190622531584.00
170141000918782798866653488190622531584.00
170141000918782798866653488190622531584.00
170141000918782798866653488190622531584.00
170141000918782798866653488190622531584.00
170141000918782798866653488190622531584.00
170141000918782798866653488190622531584.00
170141000918782798866653488190622531584.00
170141000918782798866653488190622531584.00
170141000918782798866653488190622531584.00
170141000918782798866653488190622531584.00
170141000918782798866653488190622531584.00
170141000918782798866653488190622531584.00
170141000918782798866653488190622531584.00
170141000918782798866653488190622531584.00
170141000918782798866653488190622531584.00
170141000918782798866653488190622531584.00
170141000918782798866653488190622531584.00
170141000918782798866653488190622531584.00
170141000918782798866653488190622531584.00
170141000918782798866653488190622531584.00
170141000918782798866653488190622531584.00
170141000918782798866653488190622531584.00
170141000918782798866653488190622531584.00
170141000918782798866653488190622531584.00
170141000918782798866653488190622531584.00
170141000918782798866653488190622531584.00
170141000918782798866653488190622531584.00
170141000918782798866653488190622531584.00
170141000918782798866653488190622531584.00
170141000918782798866653488190622531584.00
170141000918782798866653488190622531584.00
170141000918782798866653488190622531584.00
170141000918782798866653488190622531584.00
170141000918782798866653488190622531584.00
170141000918782798866653488190622531584.00
170141000918782798866653488190622531584.00
170141000918782798866653488190622531584.00
170141000918782798866653488190622531584.00
170141000918782798866653488190622531584.00
170141000918782798866653488190622531584.00
170141000918782798866653488190622531584.00
170141000918782798866653488190622531584.00
170141000918782798866653488190622531584.00
170141000918782798866653488190622531584.00
170141000918782798866653488190622531584.00
170141000918782798866653488190622531584.00
170141000918782798866653488190622531584.00
170141000918782798866653488190622531584.00
170141000918782798866653488190622531584.00
170141000918782798866653488190622531584.00
170141000918782798866653488190622531584.00
170141000918782798866653488190622531584.00
170141000918782798866653488190622531584.00
170141000918782798866653488190622531584.00
170141000918782798866653488190622531584.00
170141000918782798866653488190622531584.00
170141000918782798866653488190622531584.00
170141000918782798866653488190622531584.00
170141000918782798866653488190622531584.00
170141000918782798866653488190622531584.00
170141000918782798866653488190622531584.00
170141000918782798866653488190622531584.00
170141000918782798866653488190622531584.00
170141000918782798866653488190622531584.00
170141000918782798866653488190622531584.00
170141000918782798866653488190622531584.00
170141000918782798866653488190622531584.00
170141000918782798866653488190622531584.00
170141000918782798866653488190622531584.00
170141000918782798866653488190622531584.00
170141000918782798866653488190622531584.00
170141000918782798866653488190622531584.00
170141000918782798866653488190622531584.00
170141000918782798866653488190622531584.00
170141000918782798866653488190622531584.00
170141000918782798866653488190622531584.00
170141000918782798866653488190622531584.00
170141000918782798866653488190622531584.00
170141000918782798866653488190622531584.00
170141000918782798866653488190622531584.00
170141000918782798866653488190622531584.00
170141000918782798866653488190622531584.00
170141000918782798866653488190622531584.00
170141000918782798866653488190622531584.00
170141000918782798866653488190622531584.00
170141000918782798866653488190622531584.00
170141000918782798866653488190622531584.00
170141000918782798866653488190622531584.00
170141000918782798866653488190622531584.00
170141000918782798866653488190622531584.00
170141000918782798866653488190622531584.00
170141000918782798866653488190622531584.00
170141000918782798866653488190622531584.00
170141000918782798866653488190622531584.00
170141000918782798866653488190622531584.00
170141000918782798866653488190622531584.00
170141000918782798866653488190622531584.00
170141000918782798866653488190622531584.00
170141000918782798866653488190622531584.00
170141000918782798866653488190622531584.00
170141000918782798866653488190622531584.00
170141000918782798866653488190622531584.00
170141000918782798866653488190622531584.00
170141000918782798866653488190622531584.00
170141000918782798866653488190622531584.00
170141000918782798866653488190622531584.00
170141000918782798866653488190622531584.00
170141000918782798866653488190622531584.00
170141000918782798866653488190622531584.00
170141000918782798866653488190622531584.00
170141000918782798866653488190622531584.00
170141000918782798866653488190622531584.00
170141000918782798866653488190622531584.00
170141000918782798866653488190622531584.00
170141000918782798866653488190622531584.00
170141000918782798866653488190622531584.00
170141000918782798866653488190622531584.00
170141000918782798866653488190622531584.00
170141000918782798866653488190622531584.00
170141000918782798866653488190622531584.00
170141000918782798866653488190622531584.00
170141000918782798866653488190622531584.00
170141000918782798866653488190622531584.00
170141000918782798866653488190622531584.00
170141000918782798866653488190622531584.00
170141000918782798866653488190622531584.00
170141000918782798866653488190622531584.00
170141000918782798866653488190622531584.00
170141000918782798866653488190622531584.00
170141000918782798866653488190622531584.00
170141000918782798866653488190622531584.00
170141000918782798866653488190622531584.00
170141000918782798866653488190622531584.00
170141000918782798866653488190622531584.00
170141000918782798866653488190622531584.00
170141000918782798866653488190622531584.00
170141000918782798866653488190622531584.00
170141000918782798866653488190622531584.00
170141000918782798866653488190622531584.00
170141000918782798866653488190622531584.00
170141000918782798866653488190622531584.00
170141000918782798866653488190622531584.00
170141000918782798866653488190622531584.00
170141000918782798866653488190622531584.00
170141000918782798866653488190622531584.00
170141000918782798866653488190622531584.00
170141000918782798866653488190622531584.00
170141000918782798866653488190622531584.00
170141000918782798866653488190622531584.00
170141000918782798866653488190622531584.00
170141000918782798866653488190622531584.00
170141000918782798866653488190622531584.00
170141000918782798866653488190622531584.00
170141000918782798866653488190622531584.00
170141000918782798866653488190622531584.00
170141000918782798866653488190622531584.00
170141000918782798866653488190622531584.00
170141000918782798866653488190622531584.00
170141000918782798866653488190622531584.00
170141000918782798866653488190622531584.00
170141000918782798866653488190622531584.00
170141000918782798866653488190622531584.00
170141000918782798866653488190622531584.00
170141000918782798866653488190622531584.00
170141000918782798866653488190622531584.00
170141000918782798866653488190622531584.00
170141000918782798866653488190622531584.00
170141000918782798866653488190622531584.00
170141000918782798866653488190622531584.00
170141000918782798866653488190622531584.00
170141000918782798866653488190622531584.00
170141000918782798866653488190622531584.00
170141000918782798866653488190622531584.00
170141000918782798866653488190622531584.00
170141000918782798866653488190622531584.00
170141000918782798866653488190622531584.00
170141000918782798866653488190622531584.00
170141000918782798866653488190622531584.00
170141000918782798866653488190622531584.00
170141000918782798866653488190622531584.00
170141000918782798866653488190622531584.00
170141000918782798866653488190622531584.00
170141000918782798866653488190622531584.00
170141000918782798866653488190622531584.00
170141000918782798866653488190622531584.00
170141000918782798866653488190622531584.00
170141000918782798866653488190622531584.00
170141000918782798866653488190622531584.00
170141000918782798866653488190622531584.00
170141000918782798866653488190622531584.00
170141000918782798866653488190622531584.00
170141000918782798866653488190622531584.00
170141000918782798866653488190622531584.00
170141000918782798866653488190622531584.00
170141000918782798866653488190622531584.00
170141000918782798866653488190622531584.00
170141000918782798866653488190622531584.00
170141000918782798866653488190622531584.00
170141000918782798866653488190622531584.00
170141000918782798866653488190622531584.00
170141000918782798866653488190622531584.00
170141000918782798866653488190622531584.00
170141000918782798866653488190622531584.00
170141000918782798866653488190622531584.00
170141000918782798866653488190622531584.00
170141000918782798866653488190622531584.00
170141000918782798866653488190622531584.00
170141000918782798866653488190622531584.00
170141000918782798866653488190622531584.00
170141000918782798866653488190622531584.00
170141000918782798866653488190622531584.00
170141000918782798866653488190622531584.00
170141000918782798866653488190622531584.00
170141000918782798866653488190622531584.00
170141000918782798866653488190622531584.00
170141000918782798866653488190622531584.00
170141000918782798866653488190622531584.00
170141000918782798866653488190622531584.00
170141000918782798866653488190622531584.00
170141000918782798866653488190622531584.00
170141000918782798866653488190622531584.00
170141000918782798866653488190622531584.00
170141000918782798866653488190622531584.00
170141000918782798866653488190622531584.00
170141000918782798866653488190622531584.00
170141000918782798866653488190622531584.00
170141000918782798866653488190622531584.00
170141000918782798866653488190622531584.00
170141000918782798866653488190622531584.00
170141000918782798866653488190622531584.00
170141000918782798866653488190622531584.00
170141000918782798866653488190622531584.00
170141000918782798866653488190622531584.00
170141000918782798866653488190622531584.00
170141000918782798866653488190622531584.00
170141000918782798866653488190622531584.00
170141000918782798866653488190622531584.00
170141000918782798866653488190622531584.00
170141000918782798866653488190622531584.00
170141000918782798866653488190622531584.00
170141000918782798866653488190622531584.00
170141000918782798866653488190622531584.00
170141000918782798866653488190622531584.00
170141000918782798866653488190622531584.00
170141000918782798866653488190622531584.00
170141000918782798866653488190622531584.00
170141000918782798866653488190622531584.00
170141000918782798866653488190622531584.00
170141000918782798866653488190622531584.00
170141000918782798866653488190622531584.00
170141000918782798866653488190622531584.00
170141000918782798866653488190622531584.00
170141000918782798866653488190622531584.00
170141000918782798866653488190622531584.00
170141000918782798866653488190622531584.00
170141000918782798866653488190622531584.00
170141000918782798866653488190622531584.00
170141000918782798866653488190622531584.00
170141000918782798866653488190622531584.00
170141000918782798866653488190622531584.00
170141000918782798866653488190622531584.00
170141000918782798866653488190622531584.00
170141000918782798866653488190622531584.00
170141000918782798866653488190622531584.00
170141000918782798866653488190622531584.00
170141000918782798866653488190622531584.00
170141000918782798866653488190622531584.00
170141000918782798866653488190622531584.00
170141000918782798866653488190622531584.00
170141000918782798866653488190622531584.00
170141000918782798866653488190622531584.00
170141000918782798866653488190622531584.00
170141000918782798866653488190622531584.00
170141000918782798866653488190622531584.00
170141000918782798866653488190622531584.00
170141000918782798866653488190622531584.00
170141000918782798866653488190622531584.00
170141000918782798866653488190622531584.00
170141000918782798866653488190622531584.00
170141000918782798866653488190622531584.00
170141000918782798866653488190622531584.00
170141000918782798866653488190622531584.00
170141000918782798866653488190622531584.00
170141000918782798866653488190622531584.00
170141000918782798866653488190622531584.00
170141000918782798866653488190622531584.00
170141000918782798866653488190622531584.00
170141000918782798866653488190622531584.00
170141000918782798866653488190622531584.00
170141000918782798866653488190622531584.00
170141000918782798866653488190622531584.00
170141000918782798866653488190622531584.00
170141000918782798866653488190622531584.00
170141000918782798866653488190622531584.00
170141000918782798866653488190622531584.00
170141000918782798866653488190622531584.00
170141000918782798866653488190622531584.00
170141000918782798866653488190622531584.00
170141000918782798866653488190622531584.00
170141000918782798866653488190622531584.00
170141000918782798866653488190622531584.00
170141000918782798866653488190622531584.00
170141000918782798866653488190622531584.00
170141000918782798866653488190622531584.00
170141000918782798866653488190622531584.00
170141000918782798866653488190622531584.00
170141000918782798866653488190622531584.00
170141000918782798866653488190622531584.00
170141000918782798866653488190622531584.00
170141000918782798866653488190622531584.00
170141000918782798866653488190622531584.00
170141000918782798866653488190622531584.00
170141000918782798866653488190622531584.00
170141000918782798866653488190622531584.00
170141000918782798866653488190622531584.00
170141000918782798866653488190622531584.00
170141000918782798866653488190622531584.00
170141000918782798866653488190622531584.00
170141000918782798866653488190622531584.00
170141000918782798866653488190622531584.00
170141000918782798866653488190622531584.00
170141000918782798866653488190622531584.00
170141000918782798866653488190622531584.00
170141000918782798866653488190622531584.00
170141000918782798866653488190622531584.00
170141000918782798866653488190622531584.00
170141000918782798866653488190622531584.00
170141000918782798866653488190622531584.00
170141000918782798866653488190622531584.00
170141000918782798866653488190622531584.00
170141000918782798866653488190622531584.00
170141000918782798866653488190622531584.00
170141000918782798866653488190622531584.00
170141000918782798866653488190622531584.00
170141000918782798866653488190622531584.00
170141000918782798866653488190622531584.00
170141000918782798866653488190622531584.00
170141000918782798866653488190622531584.00
170141000918782798866653488190622531584.00
170141000918782798866653488190622531584.00
170141000918782798866653488190622531584.00
170141000918782798866653488190622531584.00
170141000918782798866653488190622531584.00
170141000918782798866653488190622531584.00
170141000918782798866653488190622531584.00
170141000918782798866653488190622531584.00
170141000918782798866653488190622531584.00
170141000918782798866653488190622531584.00
170141000918782798866653488190622531584.00
170141000918782798866653488190622531584.00
170141000918782798866653488190622531584.00
170141000918782798866653488190622531584.00
170141000918782798866653488190622531584.00
170141000918782798866653488190622531584.00
170141000918782798866653488190622531584.00
170141000918782798866653488190622531584.00
170141000918782798866653488190622531584.00
170141000918782798866653488190622531584.00
170141000918782798866653488190622531584.00
170141000918782798866653488190622531584.00
170141000918782798866653488190622531584.00
170141000918782798866653488190622531584.00
170141000918782798866653488190622531584.00
170141000918782798866653488190622531584.00
170141000918782798866653488190622531584.00
170141000918782798866653488190622531584.00
170141000918782798866653488190622531584.00
170141000918782798866653488190622531584.00
170141000918782798866653488190622531584.00
170141000918782798866653488190622531584.00
170141000918782798866653488190622531584.00
170141000918782798866653488190622531584.00
170141000918782798866653488190622531584.00
170141000918782798866653488190622531584.00
170141000918782798866653488190622531584.00
170141000918782798866653488190622531584.00
170141000918782798866653488190622531584.00
170141000918782798866653488190622531584.00
170141000918782798866653488190622531584.00
170141000918782798866653488190622531584.00
170141000918782798866653488190622531584.00
170141000918782798866653488190622531584.00
170141000918782798866653488190622531584.00
170141000918782798866653488190622531584.00
170141000918782798866653488190622531584.00
170141000918782798866653488190622531584.00
170141000918782798866653488190622531584.00
170141000918782798866653488190622531584.00
170141000918782798866653488190622531584.00
170141000918782798866653488190622531584.00
170141000918782798866653488190622531584.00
170141000918782798866653488190622531584.00
170141000918782798866653488190622531584.00
170141000918782798866653488190622531584.00
170141000918782798866653488190622531584.00
170141000918782798866653488190622531584.00
170141000918782798866653488190622531584.00
170141000918782798866653488190622531584.00
170141000918782798866653488190622531584.00
170141000918782798866653488190622531584.00
170141000918782798866653488190622531584.00
170141000918782798866653488190622531584.00
170141000918782798866653488190622531584.00
170141000918782798866653488190622531584.00
170141000918782798866653488190622531584.00
170141000918782798866653488190622531584.00
170141000918782798866653488190622531584.00
170141000918782798866653488190622531584.00
170141000918782798866653488190622531584.00
170141000918782798866653488190622531584.00
170141000918782798866653488190622531584.00
170141000918782798866653488190622531584.00
170141000918782798866653488190622531584.00
170141000918782798866653488190622531584.00
170141000918782798866653488190622531584.00
170141000918782798866653488190622531584.00
170141000918782798866653488190622531584.00
170141000918782798866653488190622531584.00
170141000918782798866653488190622531584.00
170141000918782798866653488190622531584.00
170141000918782798866653488190622531584.00
170141000918782798866653488190622531584.00
170141000918782798866653488190622531584.00
170141000918782798866653488190622531584.00
170141000918782798866653488190622531584.00
170141000918782798866653488190622531584.00
170141000918782798866653488190622531584.00
170141000918782798866653488190622531584.00
170141000918782798866653488190622531584.00
170141000918782798866653488190622531584.00
170141000918782798866653488190622531584.00
170141000918782798866653488190622531584.00
170141000918782798866653488190622531584.00
170141000918782798866653488190622531584.00
170141000918782798866653488190622531584.00
170141000918782798866653488190622531584.00
170141000918782798866653488190622531584.00
170141000918782798866653488190622531584.00
170141000918782798866653488190622531584.00
170141000918782798866653488190622531584.00
170141000918782798866653488190622531584.00
170141000918782798866653488190622531584.00
170141000918782798866653488190622531584.00
170141000918782798866653488190622531584.00
170141000918782798866653488190622531584.00
170141000918782798866653488190622531584.00
170141000918782798866653488190622531584.00
170141000918782798866653488190622531584.00
170141000918782798866653488190622531584.00
170141000918782798866653488190622531584.00
170141000918782798866653488190622531584.00
170141000918782798866653488190622531584.00
170141000918782798866653488190622531584.00
170141000918782798866653488190622531584.00
170141000918782798866653488190622531584.00
170141000918782798866653488190622531584.00
170141000918782798866653488190622531584.00
170141000918782798866653488190622531584.00
170141000918782798866653488190622531584.00
170141000918782798866653488190622531584.00
170141000918782798866653488190622531584.00
170141000918782798866653488190622531584.00
170141000918782798866653488190622531584.00
170141000918782798866653488190622531584.00
170141000918782798866653488190622531584.00
170141000918782798866653488190622531584.00
170141000918782798866653488190622531584.00
170141000918782798866653488190622531584.00
170141000918782798866653488190622531584.00
170141000918782798866653488190622531584.00
170141000918782798866653488190622531584.00
170141000918782798866653488190622531584.00
170141000918782798866653488190622531584.00
170141000918782798866653488190622531584.00
170141000918782798866653488190622531584.00
170141000918782798866653488190622531584.00
170141000918782798866653488190622531584.00
170141000918782798866653488190622531584.00
170141000918782798866653488190622531584.00
170141000918782798866653488190622531584.00
170141000918782798866653488190622531584.00
170141000918782798866653488190622531584.00
170141000918782798866653488190622531584.00
170141000918782798866653488190622531584.00
170141000918782798866653488190622531584.00
170141000918782798866653488190622531584.00
170141000918782798866653488190622531584.00
170141000918782798866653488190622531584.00
170141000918782798866653488190622531584.00
170141000918782798866653488190622531584.00
170141000918782798866653488190622531584.00
170141000918782798866653488190622531584.00
170141000918782798866653488190622531584.00
170141000918782798866653488190622531584.00
170141000918782798866653488190622531584.00
170141000918782798866653488190622531584.00
170141000918782798866653488190622531584.00
170141000918782798866653488190622531584.00
170141000918782798866653488190622531584.00
170141000918782798866653488190622531584.00
170141000918782798866653488190622531584.00
170141000918782798866653488190622531584.00
170141000918782798866653488190622531584.00
170141000918782798866653488190622531584.00
170141000918782798866653488190622531584.00
170141000918782798866653488190622531584.00
170141000918782798866653488190622531584.00
170141000918782798866653488190622531584.00
170141000918782798866653488190622531584.00
170141000918782798866653488190622531584.00
170141000918782798866653488190622531584.00
170141000918782798866653488190622531584.00
170141000918782798866653488190622531584.00
170141000918782798866653488190622531584.00
170141000918782798866653488190622531584.00
170141000918782798866653488190622531584.00
170141000918782798866653488190622531584.00
170141000918782798866653488190622531584.00
170141000918782798866653488190622531584.00
170141000918782798866653488190622531584.00
170141000918782798866653488190622531584.00
170141000918782798866653488190622531584.00
170141000918782798866653488190622531584.00
170141000918782798866653488190622531584.00
170141000918782798866653488190622531584.00
170141000918782798866653488190622531584.00
170141000918782798866653488190622531584.00
170141000918782798866653488190622531584.00
170141000918782798866653488190622531584.00
170141000918782798866653488190622531584.00
170141000918782798866653488190622531584.00
170141000918782798866653488190622531584.00
170141000918782798866653488190622531584.00
170141000918782798866653488190622531584.00
170141000918782798866653488190622531584.00
170141000918782798866653488190622531584.00
170141000918782798866653488190622531584.00
170141000918782798866653488190622531584.00
170141000918782798866653488190622531584.00
170141000918782798866653488190622531584.00
170141000918782798866653488190622531584.00
170141000918782798866653488190622531584.00
170141000918782798866653488190622531584.00
170141000918782798866653488190622531584.00
170141000918782798866653488190622531584.00
170141000918782798866653488190622531584.00
170141000918782798866653488190622531584.00
170141000918782798866653488190622531584.00
170141000918782798866653488190622531584.00
170141000918782798866653488190622531584.00
170141000918782798866653488190622531584.00
170141000918782798866653488190622531584.00
170141000918782798866653488190622531584.00
170141000918782798866653488190622531584.00
170141000918782798866653488190622531584.00
170141000918782798866653488190622531584.00
170141000918782798866653488190622531584.00
170141000918782798866653488190622531584.00
170141000918782798866653488190622531584.00
170141000918782798866653488190622531584.00
170141000918782798866653488190622531584.00
170141000918782798866653488190622531584.00
170141000918782798866653488190622531584.00
170141000918782798866653488190622531584.00
170141000918782798866653488190622531584.00
170141000918782798866653488190622531584.00
170141000918782798866653488190622531584.00
170141000918782798866653488190622531584.00
170141000918782798866653488190622531584.00
170141000918782798866653488190622531584.00
170141000918782798866653488190622531584.00
170141000918782798866653488190622531584.00
170141000918782798866653488190622531584.00
170141000918782798866653488190622531584.00
170141000918782798866653488190622531584.00
170141000918782798866653488190622531584.00
170141000918782798866653488190622531584.00
170141000918782798866653488190622531584.00
170141000918782798866653488190622531584.00
170141000918782798866653488190622531584.00
170141000918782798866653488190622531584.00
170141000918782798866653488190622531584.00
170141000918782798866653488190622531584.00
170141000918782798866653488190622531584.00
170141000918782798866653488190622531584.00
170141000918782798866653488190622531584.00
170141000918782798866653488190622531584.00
170141000918782798866653488190622531584.00
170141000918782798866653488190622531584.00
170141000918782798866653488190622531584.00
170141000918782798866653488190622531584.00
170141000918782798866653488190622531584.00
170141000918782798866653488190622531584.00
170141000918782798866653488190622531584.00
170141000918782798866653488190622531584.00
170141000918782798866653488190622531584.00
170141000918782798866653488190622531584.00
170141000918782798866653488190622531584.00
170141000918782798866653488190622531584.00
170141000918782798866653488190622531584.00
170141000918782798866653488190622531584.00
170141000918782798866653488190622531584.00
170141000918782798866653488190622531584.00
170141000918782798866653488190622531584.00
170141000918782798866653488190622531584.00
170141000918782798866653488190622531584.00
170141000918782798866653488190622531584.00
170141000918782798866653488190622531584.00
170141000918782798866653488190622531584.00
170141000918782798866653488190622531584.00
170141000918782798866653488190622531584.00
170141000918782798866653488190622531584.00
170141000918782798866653488190622531584.00
170141000918782798866653488190622531584.00
170141000918782798866653488190622531584.00
170141000918782798866653488190622531584.00
170141000918782798866653488190622531584.00
170141000918782798866653488190622531584.00
170141000918782798866653488190622531584.00
170141000918782798866653488190622531584.00
170141000918782798866653488190622531584.00
170141000918782798866653488190622531584.00
170141000918782798866653488190622531584.00
170141000918782798866653488190622531584.00
170141000918782798866653488190622531584.00
170141000918782798866653488190622531584.00
170141000918782798866653488190622531584.00
170141000918782798866653488190622531584.00
170141000918782798866653488190622531584.00
170141000918782798866653488190622531584.00
170141000918782798866653488190622531584.00
170141000918782798866653488190622531584.00
170141000918782798866653488190622531584.00
170141000918782798866653488190622531584.00
170141000918782798866653488190622531584.00
170141000918782798866653488190622531584.00
170141000918782798866653488190622531584.00
170141000918782798866653488190622531584.00
170141000918782798866653488190622531584.00
170141000918782798866653488190622531584.00
170141000918782798866653488190622531584.00
170141000918782798866653488190622531584.00
170141000918782798866653488190622531584.00
170141000918782798866653488190622531584.00
170141000918782798866653488190622531584.00
170141000918782798866653488190622531584.00
170141000918782798866653488190622531584.00
170141000918782798866653488190622531584.00
170141000918782798866653488190622531584.00
170141000918782798866653488190622531584.00
170141000918782798866653488190622531584.00
170141000918782798866653488190622531584.00
170141000918782798866653488190622531584.00
170141000918782798866653488190622531584.00
170141000918782798866653488190622531584.00
170141000918782798866653488190622531584.00
170141000918782798866653488190622531584.00
170141000918782798866653488190622531584.00
170141000918782798866653488190622531584.00
170141000918782798866653488190622531584.00
170141000918782798866653488190622531584.00
170141000918782798866653488190622531584.00
170141000918782798866653488190622531584.00
170141000918782798866653488190622531584.00
170141000918782798866653488190622531584.00
170141000918782798866653488190622531584.00
170141000918782798866653488190622531584.00
170141000918782798866653488190622531584.00
170141000918782798866653488190622531584.00
170141000918782798866653488190622531584.00
170141000918782798866653488190622531584.00
170141000918782798866653488190622531584.00
170141000918782798866653488190622531584.00
170141000918782798866653488190622531584.00
170141000918782798866653488190622531584.00
170141000918782798866653488190622531584.00
170141000918782798866653488190622531584.00
170141000918782798866653488190622531584.00
170141000918782798866653488190622531584.00
170141000918782798866653488190622531584.00
170141000918782798866653488190622531584.00
170141000918782798866653488190622531584.00
170141000918782798866653488190622531584.00
170141000918782798866653488190622531584.00
170141000918782798866653488190622531584.00
170141000918782798866653488190622531584.00
170141000918782798866653488190622531584.00
170141000918782798866653488190622531584.00
170141000918782798866653488190622531584.00
170141000918782798866653488190622531584.00
170141000918782798866653488190622531584.00
170141000918782798866653488190622531584.00
170141000918782798866653488190622531584.00
170141000918782798866653488190622531584.00
170141000918782798866653488190622531584.00
170141000918782798866653488190622531584.00
170141000918782798866653488190622531584.00
170141000918782798866653488190622531584.00
170141000918782798866653488190622531584.00
170141000918782798866653488190622531584.00
170141000918782798866653488190622531584.00
170141000918782798866653488190622531584.00
170141000918782798866653488190622531584.00
170141000918782798866653488190622531584.00
170141000918782798866653488190622531584.00
170141000918782798866653488190622531584.00
170141000918782798866653488190622531584.00
170141000918782798866653488190622531584.00
170141000918782798866653488190622531584.00
170141000918782798866653488190622531584.00
170141000918782798866653488190622531584.00
170141000918782798866653488190622531584.00
170141000918782798866653488190622531584.00
170141000918782798866653488190622531584.00
170141000918782798866653488190622531584.00
170141000918782798866653488190622531584.00
170141000918782798866653488190622531584.00
170141000918782798866653488190622531584.00
170141000918782798866653488190622531584.00
170141000918782798866653488190622531584.00
170141000918782798866653488190622531584.00
170141000918782798866653488190622531584.00
170141000918782798866653488190622531584.00
170141000918782798866653488190622531584.00
170141000918782798866653488190622531584.00
170141000918782798866653488190622531584.00
170141000918782798866653488190622531584.00
170141000918782798866653488190622531584.00
170141000918782798866653488190622531584.00
170141000918782798866653488190622531584.00
170141000918782798866653488190622531584.00
170141000918782798866653488190622531584.00
170141000918782798866653488190622531584.00
170141000918782798866653488190622531584.00
170141000918782798866653488190622531584.00
170141000918782798866653488190622531584.00
170141000918782798866653488190622531584.00
170141000918782798866653488190622531584.00
170141000918782798866653488190622531584.00
170141000918782798866653488190622531584.00
170141000918782798866653488190622531584.00
170141000918782798866653488190622531584.00
170141000918782798866653488190622531584.00
170141000918782798866653488190622531584.00
170141000918782798866653488190622531584.00
170141000918782798866653488190622531584.00
170141000918782798866653488190622531584.00
170141000918782798866653488190622531584.00
170141000918782798866653488190622531584.00
170141000918782798866653488190622531584.00
170141000918782798866653488190622531584.00
170141000918782798866653488190622531584.00
170141000918782798866653488190622531584.00
170141000918782798866653488190622531584.00
170141000918782798866653488190622531584.00
170141000918782798866653488190622531584.00
170141000918782798866653488190622531584.00
170141000918782798866653488190622531584.00
170141000918782798866653488190622531584.00
170141000918782798866653488190622531584.00
170141000918782798866653488190622531584.00
170141000918782798866653488190622531584.00
170141000918782798866653488190622531584.00
170141000918782798866653488190622531584.00
170141000918782798866653488190622531584.00
170141000918782798866653488190622531584.00
170141000918782798866653488190622531584.00
170141000918782798866653488190622531584.00
170141000918782798866653488190622531584.00
170141000918782798866653488190622531584.00
170141000918782798866653488190622531584.00
170141000918782798866653488190622531584.00
170141000918782798866653488190622531584.00
170141000918782798866653488190622531584.00
170141000918782798866653488190622531584.00
170141000918782798866653488190622531584.00
170141000918782798866653488190622531584.00
170141000918782798866653488190622531584.00
170141000918782798866653488190622531584.00
170141000918782798866653488190622531584.00
170141000918782798866653488190622531584.00
170141000918782798866653488190622531584.00
170141000918782798866653488190622531584.00
170141000918782798866653488190622531584.00
170141000918782798866653488190622531584.00
170141000918782798866653488190622531584.00
170141000918782798866653488190622531584.00
170141000918782798866653488190622531584.00
170141000918782798866653488190622531584.00
170141000918782798866653488190622531584.00
170141000918782798866653488190622531584.00
170141000918782798866653488190622531584.00
170141000918782798866653488190622531584.00
170141000918782798866653488190622531584.00
170141000918782798866653488190622531584.00
170141000918782798866653488190622531584.00
170141000918782798866653488190622531584.00
170141000918782798866653488190622531584.00
170141000918782798866653488190622531584.00
170141000918782798866653488190622531584.00
170141000918782798866653488190622531584.00
170141000918782798866653488190622531584.00
170141000918782798866653488190622531584.00
170141000918782798866653488190622531584.00
170141000918782798866653488190622531584.00
170141000918782798866653488190622531584.00
170141000918782798866653488190622531584.00
170141000918782798866653488190622531584.00
170141000918782798866653488190622531584.00
170141000918782798866653488190622531584.00
170141000918782798866653488190622531584.00
170141000918782798866653488190622531584.00
170141000918782798866653488190622531584.00
170141000918782798866653488190622531584.00
170141000918782798866653488190622531584.00
170141000918782798866653488190622531584.00
170141000918782798866653488190622531584.00
170141000918782798866653488190622531584.00
170141000918782798866653488190622531584.00
170141000918782798866653488190622531584.00
170141000918782798866653488190622531584.00
170141000918782798866653488190622531584.00
170141000918782798866653488190622531584.00
170141000918782798866653488190622531584.00
170141000918782798866653488190622531584.00
170141000918782798866653488190622531584.00
170141000918782798866653488190622531584.00
170141000918782798866653488190622531584.00
170141000918782798866653488190622531584.00
170141000918782798866653488190622531584.00
170141000918782798866653488190622531584.00
170141000918782798866653488190622531584.00
170141000918782798866653488190622531584.00
170141000918782798866653488190622531584.00
170141000918782798866653488190622531584.00
170141000918782798866653488190622531584.00
170141000918782798866653488190622531584.00
170141000918782798866653488190622531584.00
170141000918782798866653488190622531584.00
170141000918782798866653488190622531584.00
170141000918782798866653488190622531584.00
170141000918782798866653488190622531584.00
170141000918782798866653488190622531584.00
170141000918782798866653488190622531584.00
170141000918782798866653488190622531584.00
170141000918782798866653488190622531584.00
170141000918782798866653488190622531584.00
170141000918782798866653488190622531584.00
170141000918782798866653488190622531584.00
170141000918782798866653488190622531584.00
170141000918782798866653488190622531584.00
170141000918782798866653488190622531584.00
170141000918782798866653488190622531584.00
170141000918782798866653488190622531584.00
170141000918782798866653488190622531584.00
170141000918782798866653488190622531584.00
170141000918782798866653488190622531584.00
170141000918782798866653488190622531584.00
170141000918782798866653488190622531584.00
170141000918782798866653488190622531584.00
170141000918782798866653488190622531584.00
170141000918782798866653488190622531584.00
170141000918782798866653488190622531584.00
170141000918782798866653488190622531584.00
170141000918782798866653488190622531584.00
170141000918782798866653488190622531584.00
170141000918782798866653488190622531584.00
170141000918782798866653488190622531584.00
170141000918782798866653488190622531584.00
170141000918782798866653488190622531584.00
170141000918782798866653488190622531584.00
170141000918782798866653488190622531584.00
170141000918782798866653488190622531584.00
170141000918782798866653488190622531584.00
170141000918782798866653488190622531584.00
170141000918782798866653488190622531584.00
170141000918782798866653488190622531584.00
170141000918782798866653488190622531584.00
170141000918782798866653488190622531584.00
170141000918782798866653488190622531584.00
170141000918782798866653488190622531584.00
170141000918782798866653488190622531584.00
170141000918782798866653488190622531584.00
170141000918782798866653488190622531584.00
170141000918782798866653488190622531584.00
170141000918782798866653488190622531584.00
170141000918782798866653488190622531584.00
170141000918782798866653488190622531584.00
170141000918782798866653488190622531584.00
170141000918782798866653488190622531584.00
170141000918782798866653488190622531584.00
170141000918782798866653488190622531584.00
170141000918782798866653488190622531584.00
170141000918782798866653488190622531584.00
170141000918782798866653488190622531584.00
170141000918782798866653488190622531584.00
170141000918782798866653488190622531584.00
170141000918782798866653488190622531584.00
170141000918782798866653488190622531584.00
170141000918782798866653488190622531584.00
170141000918782798866653488190622531584.00
170141000918782798866653488190622531584.00
170141000918782798866653488190622531584.00
170141000918782798866653488190622531584.00
170141000918782798866653488190622531584.00
170141000918782798866653488190622531584.00
170141000918782798866653488190622531584.00
170141000918782798866653488190622531584.00
170141000918782798866653488190622531584.00
170141000918782798866653488190622531584.00
170141000918782798866653488190622531584.00
170141000918782798866653488190622531584.00
170141000918782798866653488190622531584.00
170141000918782798866653488190622531584.00
170141000918782798866653488190622531584.00
170141000918782798866653488190622531584.00
170141000918782798866653488190622531584.00
170141000918782798866653488190622531584.00
170141000918782798866653488190622531584.00
170141000918782798866653488190622531584.00
170141000918782798866653488190622531584.00
170141000918782798866653488190622531584.00
170141000918782798866653488190622531584.00
170141000918782798866653488190622531584.00
170141000918782798866653488190622531584.00
170141000918782798866653488190622531584.00
170141000918782798866653488190622531584.00
170141000918782798866653488190622531584.00
170141000918782798866653488190622531584.00
170141000918782798866653488190622531584.00
170141000918782798866653488190622531584.00
170141000918782798866653488190622531584.00
170141000918782798866653488190622531584.00
170141000918782798866653488190622531584.00
170141000918782798866653488190622531584.00
170141000918782798866653488190622531584.00
170141000918782798866653488190622531584.00
170141000918782798866653488190622531584.00
170141000918782798866653488190622531584.00
170141000918782798866653488190622531584.00
170141000918782798866653488190622531584.00
170141000918782798866653488190622531584.00
170141000918782798866653488190622531584.00
170141000918782798866653488190622531584.00
170141000918782798866653488190622531584.00
170141000918782798866653488190622531584.00
170141000918782798866653488190622531584.00
170141000918782798866653488190622531584.00
170141000918782798866653488190622531584.00
170141000918782798866653488190622531584.00
170141000918782798866653488190622531584.00
170141000918782798866653488190622531584.00
170141000918782798866653488190622531584.00
170141000918782798866653488190622531584.00
170141000918782798866653488190622531584.00
170141000918782798866653488190622531584.00
170141000918782798866653488190622531584.00
170141000918782798866653488190622531584.00
170141000918782798866653488190622531584.00
170141000918782798866653488190622531584.00
170141000918782798866653488190622531584.00
170141000918782798866653488190622531584.00
170141000918782798866653488190622531584.00
170141000918782798866653488190622531584.00
170141000918782798866653488190622531584.00
170141000918782798866653488190622531584.00
170141000918782798866653488190622531584.00
170141000918782798866653488190622531584.00
170141000918782798866653488190622531584.00
170141000918782798866653488190622531584.00
170141000918782798866653488190622531584.00
170141000918782798866653488190622531584.00
170141000918782798866653488190622531584.00
170141000918782798866653488190622531584.00
170141000918782798866653488190622531584.00
170141000918782798866653488190622531584.00
170141000918782798866653488190622531584.00
170141000918782798866653488190622531584.00
170141000918782798866653488190622531584.00
170141000918782798866653488190622531584.00
170141000918782798866653488190622531584.00
170141000918782798866653488190622531584.00
170141000918782798866653488190622531584.00
170141000918782798866653488190622531584.00
170141000918782798866653488190622531584.00
170141000918782798866653488190622531584.00
170141000918782798866653488190622531584.00
170141000918782798866653488190622531584.00
170141000918782798866653488190622531584.00
170141000918782798866653488190622531584.00
170141000918782798866653488190622531584.00
170141000918782798866653488190622531584.00
170141000918782798866653488190622531584.00
170141000918782798866653488190622531584.00
170141000918782798866653488190622531584.00
170141000918782798866653488190622531584.00
170141000918782798866653488190622531584.00
170141000918782798866653488190622531584.00
170141000918782798866653488190622531584.00
170141000918782798866653488190622531584.00
170141000918782798866653488190622531584.00
170141000918782798866653488190622531584.00
170141000918782798866653488190622531584.00
170141000918782798866653488190622531584.00
170141000918782798866653488190622531584.00
170141000918782798866653488190622531584.00
170141000918782798866653488190622531584.00
170141000918782798866653488190622531584.00
170141000918782798866653488190622531584.00
170141000918782798866653488190622531584.00
170141000918782798866653488190622531584.00
170141000918782798866653488190622531584.00
170141000918782798866653488190622531584.00
170141000918782798866653488190622531584.00
170141000918782798866653488190622531584.00
170141000918782798866653488190622531584.00
170141000918782798866653488190622531584.00
170141000918782798866653488190622531584.00
170141000918782798866653488190622531584.00
170141000918782798866653488190622531584.00
170141000918782798866653488190622531584.00
170141000918782798866653488190622531584.00
170141000918782798866653488190622531584.00
170141000918782798866653488190622531584.00
170141000918782798866653488190622531584.00
170141000918782798866653488190622531584.00
170141000918782798866653488190622531584.00
170141000918782798866653488190622531584.00
170141000918782798866653488190622531584.00
170141000918782798866653488190622531584.00
170141000918782798866653488190622531584.00
170141000918782798866653488190622531584.00
170141000918782798866653488190622531584.00
170141000918782798866653488190622531584.00
170141000918782798866653488190622531584.00
170141000918782798866653488190622531584.00
170141000918782798866653488190622531584.00
170141000918782798866653488190622531584.00
170141000918782798866653488190622531584.00
170141000918782798866653488190622531584.00
170141000918782798866653488190622531584.00
170141000918782798866653488190622531584.00
170141000918782798866653488190622531584.00
170141000918782798866653488190622531584.00
170141000918782798866653488190622531584.00
170141000918782798866653488190622531584.00
170141000918782798866653488190622531584.00
170141000918782798866653488190622531584.00
170141000918782798866653488190622531584.00
170141000918782798866653488190622531584.00
170141000918782798866653488190622531584.00
170141000918782798866653488190622531584.00
170141000918782798866653488190622531584.00
170141000918782798866653488190622531584.00
170141000918782798866653488190622531584.00
170141000918782798866653488190622531584.00
170141000918782798866653488190622531584.00
170141000918782798866653488190622531584.00
170141000918782798866653488190622531584.00
170141000918782798866653488190622531584.00
170141000918782798866653488190622531584.00
170141000918782798866653488190622531584.00
170141000918782798866653488190622531584.00
170141000918782798866653488190622531584.00
170141000918782798866653488190622531584.00
170141000918782798866653488190622531584.00
170141000918782798866653488190622531584.00
170141000918782798866653488190622531584.00
170141000918782798866653488190622531584.00
170141000918782798866653488190622531584.00
170141000918782798866653488190622531584.00
170141000918782798866653488190622531584.00
170141000918782798866653488190622531584.00
170141000918782798866653488190622531584.00
170141000918782798866653488190622531584.00
170141000918782798866653488190622531584.00
170141000918782798866653488190622531584.00
170141000918782798866653488190622531584.00
170141000918782798866653488190622531584.00
170141000918782798866653488190622531584.00
170141000918782798866653488190622531584.00
170141000918782798866653488190622531584.00
170141000918782798866653488190622531584.00
170141000918782798866653488190622531584.00
170141000918782798866653488190622531584.00
170141000918782798866653488190622531584.00
170141000918782798866653488190622531584.00
170141000918782798866653488190622531584.00
170141000918782798866653488190622531584.00
170141000918782798866653488190622531584.00
170141000918782798866653488190622531584.00
170141000918782798866653488190622531584.00
170141000918782798866653488190622531584.00
170141000918782798866653488190622531584.00
170141000918782798866653488190622531584.00
170141000918782798866653488190622531584.00
170141000918782798866653488190622531584.00
170141000918782798866653488190622531584.00
170141000918782798866653488190622531584.00
170141000918782798866653488190622531584.00
170141000918782798866653488190622531584.00
170141000918782798866653488190622531584.00
170141000918782798866653488190622531584.00
170141000918782798866653488190622531584.00
170141000918782798866653488190622531584.00
170141000918782798866653488190622531584.00
170141000918782798866653488190622531584.00
170141000918782798866653488190622531584.00
170141000918782798866653488190622531584.00
170141000918782798866653488190622531584.00
170141000918782798866653488190622531584.00
170141000918782798866653488190622531584.00
170141000918782798866653488190622531584.00
170141000918782798866653488190622531584.00
170141000918782798866653488190622531584.00
170141000918782798866653488190622531584.00
170141000918782798866653488190622531584.00
170141000918782798866653488190622531584.00
170141000918782798866653488190622531584.00
170141000918782798866653488190622531584.00
170141000918782798866653488190622531584.00
170141000918782798866653488190622531584.00
170141000918782798866653488190622531584.00
170141000918782798866653488190622531584.00
170141000918782798866653488190622531584.00
170141000918782798866653488190622531584.00
170141000918782798866653488190622531584.00
170141000918782798866653488190622531584.00
170141000918782798866653488190622531584.00
170141000918782798866653488190622531584.00
170141000918782798866653488190622531584.00
170141000918782798866653488190622531584.00
170141000918782798866653488190622531584.00
170141000918782798866653488190622531584.00
170141000918782798866653488190622531584.00
170141000918782798866653488190622531584.00
170141000918782798866653488190622531584.00
170141000918782798866653488190622531584.00
170141000918782798866653488190622531584.00
170141000918782798866653488190622531584.00
170141000918782798866653488190622531584.00
170141000918782798866653488190622531584.00
170141000918782798866653488190622531584.00
170141000918782798866653488190622531584.00
170141000918782798866653488190622531584.00
170141000918782798866653488190622531584.00
170141000918782798866653488190622531584.00
170141000918782798866653488190622531584.00
170141000918782798866653488190622531584.00
170141000918782798866653488190622531584.00
170141000918782798866653488190622531584.00
170141000918782798866653488190622531584.00
170141000918782798866653488190622531584.00
170141000918782798866653488190622531584.00
170141000918782798866653488190622531584.00
170141000918782798866653488190622531584.00
170141000918782798866653488190622531584.00
170141000918782798866653488190622531584.00
170141000918782798866653488190622531584.00
170141000918782798866653488190622531584.00
170141000918782798866653488190622531584.00
170141000918782798866653488190622531584.00
170141000918782798866653488190622531584.00
170141000918782798866653488190622531584.00
170141000918782798866653488190622531584.00
170141000918782798866653488190622531584.00
170141000918782798866653488190622531584.00
170141000918782798866653488190622531584.00
170141000918782798866653488190622531584.00
170141000918782798866653488190622531584.00
170141000918782798866653488190622531584.00
170141000918782798866653488190622531584.00
170141000918782798866653488190622531584.00
170141000918782798866653488190622531584.00
170141000918782798866653488190622531584.00
170141000918782798866653488190622531584.00
170141000918782798866653488190622531584.00
170141000918782798866653488190622531584.00
170141000918782798866653488190622531584.00
170141000918782798866653488190622531584.00
170141000918782798866653488190622531584.00
170141000918782798866653488190622531584.00
170141000918782798866653488190622531584.00
170141000918782798866653488190622531584.00
170141000918782798866653488190622531584.00
170141000918782798866653488190622531584.00
170141000918782798866653488190622531584.00
170141000918782798866653488190622531584.00
170141000918782798866653488190622531584.00
170141000918782798866653488190622531584.00
170141000918782798866653488190622531584.00
170141000918782798866653488190622531584.00
170141000918782798866653488190622531584.00
170141000918782798866653488190622531584.00
170141000918782798866653488190622531584.00
170141000918782798866653488190622531584.00
170141000918782798866653488190622531584.00
170141000918782798866653488190622531584.00
170141000918782798866653488190622531584.00
170141000918782798866653488190622531584.00
170141000918782798866653488190622531584.00
170141000918782798866653488190622531584.00
170141000918782798866653488190622531584.00
170141000918782798866653488190622531584.00
170141000918782798866653488190622531584.00
170141000918782798866653488190622531584.00
170141000918782798866653488190622531584.00
170141000918782798866653488190622531584.00
170141000918782798866653488190622531584.00
170141000918782798866653488190622531584.00
170141000918782798866653488190622531584.00
170141000918782798866653488190622531584.00
170141000918782798866653488190622531584.00
170141000918782798866653488190622531584.00
170141000918782798866653488190622531584.00
170141000918782798866653488190622531584.00
170141000918782798866653488190622531584.00
170141000918782798866653488190622531584.00
170141000918782798866653488190622531584.00
170141000918782798866653488190622531584.00
170141000918782798866653488190622531584.00
170141000918782798866653488190622531584.00
170141000918782798866653488190622531584.00
170141000918782798866653488190622531584.00
170141000918782798866653488190622531584.00
170141000918782798866653488190622531584.00
170141000918782798866653488190622531584.00
170141000918782798866653488190622531584.00
170141000918782798866653488190622531584.00
170141000918782798866653488190622531584.00
170141000918782798866653488190622531584.00
170141000918782798866653488190622531584.00
170141000918782798866653488190622531584.00
170141000918782798866653488190622531584.00
170141000918782798866653488190622531584.00
170141000918782798866653488190622531584.00
170141000918782798866653488190622531584.00
170141000918782798866653488190622531584.00
170141000918782798866653488190622531584.00
170141000918782798866653488190622531584.00
170141000918782798866653488190622531584.00
170141000918782798866653488190622531584.00
170141000918782798866653488190622531584.00
170141000918782798866653488190622531584.00
170141000918782798866653488190622531584.00
170141000918782798866653488190622531584.00
170141000918782798866653488190622531584.00
170141000918782798866653488190622531584.00
170141000918782798866653488190622531584.00
170141000918782798866653488190622531584.00
170141000918782798866653488190622531584.00
170141000918782798866653488190622531584.00
170141000918782798866653488190622531584.00
170141000918782798866653488190622531584.00
170141000918782798866653488190622531584.00
170141000918782798866653488190622531584.00
170141000918782798866653488190622531584.00
170141000918782798866653488190622531584.00
170141000918782798866653488190622531584.00
170141000918782798866653488190622531584.00
170141000918782798866653488190622531584.00
170141000918782798866653488190622531584.00
170141000918782798866653488190622531584.00
170141000918782798866653488190622531584.00
170141000918782798866653488190622531584.00
170141000918782798866653488190622531584.00
170141000918782798866653488190622531584.00
170141000918782798866653488190622531584.00
170141000918782798866653488190622531584.00
170141000918782798866653488190622531584.00
170141000918782798866653488190622531584.00
170141000918782798866653488190622531584.00
170141000918782798866653488190622531584.00
170141000918782798866653488190622531584.00
170141000918782798866653488190622531584.00
170141000918782798866653488190622531584.00
170141000918782798866653488190622531584.00
170141000918782798866653488190622531584.00
170141000918782798866653488190622531584.00
170141000918782798866653488190622531584.00
170141000918782798866653488190622531584.00
170141000918782798866653488190622531584.00
170141000918782798866653488190622531584.00
170141000918782798866653488190622531584.00
170141000918782798866653488190622531584.00
170141000918782798866653488190622531584.00
170141000918782798866653488190622531584.00
170141000918782798866653488190622531584.00
170141000918782798866653488190622531584.00
170141000918782798866653488190622531584.00
170141000918782798866653488190622531584.00
170141000918782798866653488190622531584.00
170141000918782798866653488190622531584.00
170141000918782798866653488190622531584.00
170141000918782798866653488190622531584.00
170141000918782798866653488190622531584.00
170141000918782798866653488190622531584.00
170141000918782798866653488190622531584.00
170141000918782798866653488190622531584.00
170141000918782798866653488190622531584.00
170141000918782798866653488190622531584.00
170141000918782798866653488190622531584.00
170141000918782798866653488190622531584.00
170141000918782798866653488190622531584.00
170141000918782798866653488190622531584.00
170141000918782798866653488190622531584.00
170141000918782798866653488190622531584.00
170141000918782798866653488190622531584.00
170141000918782798866653488190622531584.00
170141000918782798866653488190622531584.00
170141000918782798866653488190622531584.00
170141000918782798866653488190622531584.00
170141000918782798866653488190622531584.00
170141000918782798866653488190622531584.00
170141000918782798866653488190622531584.00
170141000918782798866653488190622531584.00
170141000918782798866653488190622531584.00
170141000918782798866653488190622531584.00
170141000918782798866653488190622531584.00
170141000918782798866653488190622531584.00
170141000918782798866653488190622531584.00
170141000918782798866653488190622531584.00
170141000918782798866653488190622531584.00
170141000918782798866653488190622531584.00
170141000918782798866653488190622531584.00
170141000918782798866653488190622531584.00
170141000918782798866653488190622531584.00
170141000918782798866653488190622531584.00
170141000918782798866653488190622531584.00
170141000918782798866653488190622531584.00
170141000918782798866653488190622531584.00
170141000918782798866653488190622531584.00
170141000918782798866653488190622531584.00
170141000918782798866653488190622531584.00
170141000918782798866653488190622531584.00
170141000918782798866653488190622531584.00
170141000918782798866653488190622531584.00
170141000918782798866653488190622531584.00
170141000918782798866653488190622531584.00
170141000918782798866653488190622531584.00
170141000918782798866653488190622531584.00
170141000918782798866653488190622531584.00
170141000918782798866653488190622531584.00
170141000918782798866653488190622531584.00
170141000918782798866653488190622531584.00
170141000918782798866653488190622531584.00
170141000918782798866653488190622531584.00
170141000918782798866653488190622531584.00
170141000918782798866653488190622531584.00
170141000918782798866653488190622531584.00
170141000918782798866653488190622531584.00
170141000918782798866653488190622531584.00
170141000918782798866653488190622531584.00
170141000918782798866653488190622531584.00
170141000918782798866653488190622531584.00
170141000918782798866653488190622531584.00
170141000918782798866653488190622531584.00
170141000918782798866653488190622531584.00
170141000918782798866653488190622531584.00
170141000918782798866653488190622531584.00
170141000918782798866653488190622531584.00
170141000918782798866653488190622531584.00
170141000918782798866653488190622531584.00
170141000918782798866653488190622531584.00
170141000918782798866653488190622531584.00
170141000918782798866653488190622531584.00
170141000918782798866653488190622531584.00
170141000918782798866653488190622531584.00
170141000918782798866653488190622531584.00
170141000918782798866653488190622531584.00
170141000918782798866653488190622531584.00
170141000918782798866653488190622531584.00
170141000918782798866653488190622531584.00
170141000918782798866653488190622531584.00
170141000918782798866653488190622531584.00
170141000918782798866653488190622531584.00
170141000918782798866653488190622531584.00
170141000918782798866653488190622531584.00
170141000918782798866653488190622531584.00
170141000918782798866653488190622531584.00
170141000918782798866653488190622531584.00
170141000918782798866653488190622531584.00
170141000918782798866653488190622531584.00
170141000918782798866653488190622531584.00
170141000918782798866653488190622531584.00
170141000918782798866653488190622531584.00
170141000918782798866653488190622531584.00
170141000918782798866653488190622531584.00
170141000918782798866653488190622531584.00
170141000918782798866653488190622531584.00
170141000918782798866653488190622531584.00
170141000918782798866653488190622531584.00
170141000918782798866653488190622531584.00
170141000918782798866653488190622531584.00
170141000918782798866653488190622531584.00
170141000918782798866653488190622531584.00
170141000918782798866653488190622531584.00
170141000918782798866653488190622531584.00
170141000918782798866653488190622531584.00
170141000918782798866653488190622531584.00
170141000918782798866653488190622531584.00
170141000918782798866653488190622531584.00
170141000918782798866653488190622531584.00
170141000918782798866653488190622531584.00
170141000918782798866653488190622531584.00
170141000918782798866653488190622531584.00
170141000918782798866653488190622531584.00
170141000918782798866653488190622531584.00
170141000918782798866653488190622531584.00
170141000918782798866653488190622531584.00
170141000918782798866653488190622531584.00
170141000918782798866653488190622531584.00
170141000918782798866653488190622531584.00
170141000918782798866653488190622531584.00
170141000918782798866653488190622531584.00
170141000918782798866653488190622531584.00
170141000918782798866653488190622531584.00
170141000918782798866653488190622531584.00
170141000918782798866653488190622531584.00
170141000918782798866653488190622531584.00
170141000918782798866653488190622531584.00
170141000918782798866653488190622531584.00
170141000918782798866653488190622531584.00
170141000918782798866653488190622531584.00
170141000918782798866653488190622531584.00
170141000918782798866653488190622531584.00
170141000918782798866653488190622531584.00
170141000918782798866653488190622531584.00
170141000918782798866653488190622531584.00
170141000918782798866653488190622531584.00
170141000918782798866653488190622531584.00
170141000918782798866653488190622531584.00
170141000918782798866653488190622531584.00
170141000918782798866653488190622531584.00
170141000918782798866653488190622531584.00
170141000918782798866653488190622531584.00
170141000918782798866653488190622531584.00
170141000918782798866653488190622531584.00
170141000918782798866653488190622531584.00
170141000918782798866653488190622531584.00
170141000918782798866653488190622531584.00
170141000918782798866653488190622531584.00
170141000918782798866653488190622531584.00
170141000918782798866653488190622531584.00
170141000918782798866653488190622531584.00
170141000918782798866653488190622531584.00
170141000918782798866653488190622531584.00
170141000918782798866653488190622531584.00
170141000918782798866653488190622531584.00
170141000918782798866653488190622531584.00
170141000918782798866653488190622531584.00
170141000918782798866653488190622531584.00
170141000918782798866653488190622531584.00
170141000918782798866653488190622531584.00
170141000918782798866653488190622531584.00
170141000918782798866653488190622531584.00
170141000918782798866653488190622531584.00
170141000918782798866653488190622531584.00
170141000918782798866653488190622531584.00
170141000918782798866653488190622531584.00
170141000918782798866653488190622531584.00
170141000918782798866653488190622531584.00
170141000918782798866653488190622531584.00
170141000918782798866653488190622531584.00
170141000918782798866653488190622531584.00
170141000918782798866653488190622531584.00
170141000918782798866653488190622531584.00
170141000918782798866653488190622531584.00
170141000918782798866653488190622531584.00
170141000918782798866653488190622531584.00
170141000918782798866653488190622531584.00
170141000918782798866653488190622531584.00
170141000918782798866653488190622531584.00
170141000918782798866653488190622531584.00
170141000918782798866653488190622531584.00
170141000918782798866653488190622531584.00
170141000918782798866653488190622531584.00
170141000918782798866653488190622531584.00
170141000918782798866653488190622531584.00
170141000918782798866653488190622531584.00
170141000918782798866653488190622531584.00
170141000918782798866653488190622531584.00
170141000918782798866653488190622531584.00
170141000918782798866653488190622531584.00
170141000918782798866653488190622531584.00
170141000918782798866653488190622531584.00
170141000918782798866653488190622531584.00
170141000918782798866653488190622531584.00
170141000918782798866653488190622531584.00
170141000918782798866653488190622531584.00
170141000918782798866653488190622531584.00
170141000918782798866653488190622531584.00
170141000918782798866653488190622531584.00
170141000918782798866653488190622531584.00
170141000918782798866653488190622531584.00
170141000918782798866653488190622531584.00
170141000918782798866653488190622531584.00
170141000918782798866653488190622531584.00
170141000918782798866653488190622531584.00
170141000918782798866653488190622531584.00
170141000918782798866653488190622531584.00
170141000918782798866653488190622531584.00
170141000918782798866653488190622531584.00
170141000918782798866653488190622531584.00
170141000918782798866653488190622531584.00
170141000918782798866653488190622531584.00
170141000918782798866653488190622531584.00
170141000918782798866653488190622531584.00
170141000918782798866653488190622531584.00
170141000918782798866653488190622531584.00
170141000918782798866653488190622531584.00
170141000918782798866653488190622531584.00
170141000918782798866653488190622531584.00
170141000918782798866653488190622531584.00
170141000918782798866653488190622531584.00
170141000918782798866653488190622531584.00
170141000918782798866653488190622531584.00
170141000918782798866653488190622531584.00
170141000918782798866653488190622531584.00
170141000918782798866653488190622531584.00
170141000918782798866653488190622531584.00
170141000918782798866653488190622531584.00
170141000918782798866653488190622531584.00
170141000918782798866653488190622531584.00
170141000918782798866653488190622531584.00
170141000918782798866653488190622531584.00
170141000918782798866653488190622531584.00
170141000918782798866653488190622531584.00
170141000918782798866653488190622531584.00
170141000918782798866653488190622531584.00
170141000918782798866653488190622531584.00
170141000918782798866653488190622531584.00
170141000918782798866653488190622531584.00
170141000918782798866653488190622531584.00
170141000918782798866653488190622531584.00
170141000918782798866653488190622531584.00
170141000918782798866653488190622531584.00
170141000918782798866653488190622531584.00
170141000918782798866653488190622531584.00
170141000918782798866653488190622531584.00
170141000918782798866653488190622531584.00
170141000918782798866653488190622531584.00
170141000918782798866653488190622531584.00
170141000918782798866653488190622531584.00
170141000918782798866653488190622531584.00
170141000918782798866653488190622531584.00
170141000918782798866653488190622531584.00
170141000918782798866653488190622531584.00
170141000918782798866653488190622531584.00
170141000918782798866653488190622531584.00
170141000918782798866653488190622531584.00
170141000918782798866653488190622531584.00
170141000918782798866653488190622531584.00
170141000918782798866653488190622531584.00
170141000918782798866653488190622531584.00
170141000918782798866653488190622531584.00
170141000918782798866653488190622531584.00
170141000918782798866653488190622531584.00
170141000918782798866653488190622531584.00
170141000918782798866653488190622531584.00
170141000918782798866653488190622531584.00
170141000918782798866653488190622531584.00
170141000918782798866653488190622531584.00
170141000918782798866653488190622531584.00
170141000918782798866653488190622531584.00
170141000918782798866653488190622531584.00
170141000918782798866653488190622531584.00
170141000918782798866653488190622531584.00
170141000918782798866653488190622531584.00
170141000918782798866653488190622531584.00
170141000918782798866653488190622531584.00
170141000918782798866653488190622531584.00
170141000918782798866653488190622531584.00
170141000918782798866653488190622531584.00
170141000918782798866653488190622531584.00
170141000918782798866653488190622531584.00
170141000918782798866653488190622531584.00
170141000918782798866653488190622531584.00
170141000918782798866653488190622531584.00
170141000918782798866653488190622531584.00
170141000918782798866653488190622531584.00
170141000918782798866653488190622531584.00
170141000918782798866653488190622531584.00
170141000918782798866653488190622531584.00
170141000918782798866653488190622531584.00
170141000918782798866653488190622531584.00
170141000918782798866653488190622531584.00
170141000918782798866653488190622531584.00
170141000918782798866653488190622531584.00
170141000918782798866653488190622531584.00
170141000918782798866653488190622531584.00
170141000918782798866653488190622531584.00
170141000918782798866653488190622531584.00
170141000918782798866653488190622531584.00
170141000918782798866653488190622531584.00
170141000918782798866653488190622531584.00
170141000918782798866653488190622531584.00
170141000918782798866653488190622531584.00
170141000918782798866653488190622531584.00
170141000918782798866653488190622531584.00
170141000918782798866653488190622531584.00
170141000918782798866653488190622531584.00
170141000918782798866653488190622531584.00
170141000918782798866653488190622531584.00
170141000918782798866653488190622531584.00
170141000918782798866653488190622531584.00
170141000918782798866653488190622531584.00
170141000918782798866653488190622531584.00
170141000918782798866653488190622531584.00
170141000918782798866653488190622531584.00
170141000918782798866653488190622531584.00
170141000918782798866653488190622531584.00
170141000918782798866653488190622531584.00
170141000918782798866653488190622531584.00
170141000918782798866653488190622531584.00
170141000918782798866653488190622531584.00
170141000918782798866653488190622531584.00
170141000918782798866653488190622531584.00
170141000918782798866653488190622531584.00
170141000918782798866653488190622531584.00
170141000918782798866653488190622531584.00
170141000918782798866653488190622531584.00
170141000918782798866653488190622531584.00
170141000918782798866653488190622531584.00
170141000918782798866653488190622531584.00
170141000918782798866653488190622531584.00
170141000918782798866653488190622531584.00
170141000918782798866653488190622531584.00
170141000918782798866653488190622531584.00
170141000918782798866653488190622531584.00
170141000918782798866653488190622531584.00
170141000918782798866653488190622531584.00
170141000918782798866653488190622531584.00
170141000918782798866653488190622531584.00
170141000918782798866653488190622531584.00
170141000918782798866653488190622531584.00
170141000918782798866653488190622531584.00
170141000918782798866653488190622531584.00
170141000918782798866653488190622531584.00
170141000918782798866653488190622531584.00
170141000918782798866653488190622531584.00
170141000918782798866653488190622531584.00
170141000918782798866653488190622531584.00
170141000918782798866653488190622531584.00
170141000918782798866653488190622531584.00
170141000918782798866653488190622531584.00
170141000918782798866653488190622531584.00
170141000918782798866653488190622531584.00
170141000918782798866653488190622531584.00
170141000918782798866653488190622531584.00
170141000918782798866653488190622531584.00
170141000918782798866653488190622531584.00
170141000918782798866653488190622531584.00
170141000918782798866653488190622531584.00
170141000918782798866653488190622531584.00
170141000918782798866653488190622531584.00
170141000918782798866653488190622531584.00
170141000918782798866653488190622531584.00
170141000918782798866653488190622531584.00
170141000918782798866653488190622531584.00
170141000918782798866653488190622531584.00
170141000918782798866653488190622531584.00
170141000918782798866653488190622531584.00
170141000918782798866653488190622531584.00
170141000918782798866653488190622531584.00
170141000918782798866653488190622531584.00
170141000918782798866653488190622531584.00
170141000918782798866653488190622531584.00
170141000918782798866653488190622531584.00
170141000918782798866653488190622531584.00
170141000918782798866653488190622531584.00
170141000918782798866653488190622531584.00
170141000918782798866653488190622531584.00
170141000918782798866653488190622531584.00
170141000918782798866653488190622531584.00
170141000918782798866653488190622531584.00
170141000918782798866653488190622531584.00
170141000918782798866653488190622531584.00
170141000918782798866653488190622531584.00
